;FLAVOR:Marlin
;TIME:1701
;Filament used: 1.77403m
;Layer height: 0.2
;MINX:71.8
;MINY:91.8
;MINZ:0.2
;MAXX:178.2
;MAXY:118.2
;MAXZ:5
;Generated with Cura_SteamEngine 4.8.0
M82 ;absolute extrusion mode
G21 ; set units to millimeters
G90 ; use absolute positioning
M82 ; absolute extrusion mode
M104 S200 ; set extruder temp
M140 S60 ; set bed temp
M190 S60 ; wait for bed temp
M109 S200 ; wait for extruder temp
G28 W ; home all without mesh bed level
G80 ; mesh bed leveling
G92 E0.0 ; reset extruder distance position
G1 Y-3.0 F1000.0 ; go outside print area
G1 X60.0 E9.0 F1000.0 ; intro line
G1 X100.0 E21.5 F1000.0 ; intro line
G92 E0.0 ; reset extruder distance position
G92 E0
G92 E0
G1 F2100 E-0.8
;LAYER_COUNT:25
;LAYER:0
M107
G0 F3600 X73.185 Y92.38 Z0.2
;TYPE:SKIRT
G1 F2100 E0
G1 F1800 X73.622 Y92.126 E0.01681
G1 X74.093 Y91.943 E0.03362
G1 X74.588 Y91.837 E0.05045
G1 X75.24 Y91.801 E0.07217
G1 X89.339 Y91.8 E0.54111
G1 X90.04 Y91.81 E0.56443
G1 X90.58 Y91.864 E0.58248
G1 X91.199 Y91.989 E0.60348
G1 X92.334 Y92.242 E0.64216
G1 X93.8 Y92.557 E0.69203
G1 X94.616 Y92.727 E0.71975
G1 X96.103 Y93.023 E0.77018
G1 X96.922 Y93.179 E0.79791
G1 X98.472 Y93.461 E0.85031
G1 X99.391 Y93.622 E0.88134
G1 X100.783 Y93.854 E0.92828
G1 X101.6 Y93.984 E0.95579
G1 X103.249 Y94.231 E1.01125
G1 X104.091 Y94.35 E1.03953
G1 X105.604 Y94.552 E1.0903
G1 X106.432 Y94.656 E1.11806
G1 X107.837 Y94.824 E1.16512
G1 X108.66 Y94.915 E1.19266
G1 X110.347 Y95.088 E1.24907
G1 X111.189 Y95.167 E1.27719
G1 X112.669 Y95.294 E1.3266
G1 X113.55 Y95.363 E1.35599
G1 X115.021 Y95.467 E1.40504
G1 X115.874 Y95.521 E1.43347
G1 X117.407 Y95.607 E1.48454
G1 X118.192 Y95.644 E1.51067
G1 X119.834 Y95.709 E1.56533
G1 X120.618 Y95.733 E1.59142
G1 X122.176 Y95.769 E1.64325
G1 X123.088 Y95.783 E1.67359
G1 X124.599 Y95.795 E1.72385
G1 X125.401 Y95.795 E1.75052
G1 X126.912 Y95.783 E1.80078
G1 X127.824 Y95.769 E1.83111
G1 X129.382 Y95.733 E1.88295
G1 X130.166 Y95.708 E1.90904
G1 X131.808 Y95.645 E1.96369
G1 X132.593 Y95.607 E1.98983
G1 X134.126 Y95.521 E2.0409
G1 X134.979 Y95.467 E2.06933
G1 X136.45 Y95.363 E2.11837
G1 X137.331 Y95.294 E2.14777
G1 X138.811 Y95.167 E2.19717
G1 X139.653 Y95.088 E2.2253
G1 X141.34 Y94.915 E2.2817
G1 X142.163 Y94.823 E2.30925
G1 X143.568 Y94.656 E2.35631
G1 X144.396 Y94.552 E2.38406
G1 X145.909 Y94.35 E2.43483
G1 X146.751 Y94.232 E2.46311
G1 X148.4 Y93.984 E2.51857
G1 X149.217 Y93.854 E2.54609
G1 X150.609 Y93.621 E2.59303
G1 X151.528 Y93.462 E2.62405
G1 X153.068 Y93.181 E2.67612
G1 X153.895 Y93.023 E2.70412
G1 X155.384 Y92.726 E2.75462
G1 X156.2 Y92.558 E2.78233
G1 X157.665 Y92.242 E2.83218
G1 X158.623 Y92.028 E2.86482
G1 X159.368 Y91.875 E2.89012
G1 X159.889 Y91.812 E2.90758
G1 X160.516 Y91.8 E2.92843
G1 X174.339 Y91.8 E3.38819
G1 X175.037 Y91.81 E3.41141
G1 X175.54 Y91.857 E3.42821
G1 X176.03 Y91.983 E3.44504
G1 X176.494 Y92.185 E3.46187
G1 X176.92 Y92.457 E3.47868
G1 X177.298 Y92.792 E3.49548
G1 X177.618 Y93.183 E3.51228
G1 X177.873 Y93.62 E3.52911
G1 X178.056 Y94.091 E3.54592
G1 X178.163 Y94.585 E3.56273
G1 X178.199 Y95.24 E3.58455
G1 X178.2 Y114.304 E4.21862
G1 X178.191 Y115.031 E4.2428
G1 X178.145 Y115.534 E4.2596
G1 X178.02 Y116.024 E4.27642
G1 X177.819 Y116.488 E4.29324
G1 X177.548 Y116.915 E4.31006
G1 X177.213 Y117.294 E4.32688
G1 X176.823 Y117.615 E4.34368
G1 X176.387 Y117.871 E4.3605
G1 X175.916 Y118.054 E4.37731
G1 X175.422 Y118.162 E4.39412
G1 X174.76 Y118.199 E4.41618
G1 X160.661 Y118.2 E4.88511
G1 X159.962 Y118.19 E4.90836
G1 X159.428 Y118.137 E4.92621
G1 X158.801 Y118.011 E4.94748
G1 X157.666 Y117.758 E4.98616
G1 X156.195 Y117.441 E5.03621
G1 X155.399 Y117.276 E5.06325
G1 X153.898 Y116.977 E5.11415
G1 X153.065 Y116.818 E5.14236
G1 X151.476 Y116.529 E5.19607
G1 X150.587 Y116.375 E5.22608
G1 X149.194 Y116.142 E5.27306
G1 X148.4 Y116.016 E5.2998
G1 X146.751 Y115.768 E5.35526
G1 X145.935 Y115.653 E5.38267
G1 X144.398 Y115.448 E5.43424
G1 X143.567 Y115.344 E5.4621
G1 X142.162 Y115.176 E5.50916
G1 X141.339 Y115.085 E5.5367
G1 X139.652 Y114.912 E5.5931
G1 X138.81 Y114.833 E5.62123
G1 X137.331 Y114.706 E5.6706
G1 X136.45 Y114.637 E5.7
G1 X134.978 Y114.533 E5.74908
G1 X134.125 Y114.479 E5.7775
G1 X132.592 Y114.393 E5.82857
G1 X131.807 Y114.356 E5.85471
G1 X130.165 Y114.291 E5.90937
G1 X129.382 Y114.267 E5.93542
G1 X127.825 Y114.231 E5.98722
G1 X126.912 Y114.217 E6.01759
G1 X125.401 Y114.205 E6.06785
G1 X124.599 Y114.205 E6.09452
G1 X123.088 Y114.217 E6.14478
G1 X122.176 Y114.231 E6.17512
G1 X120.618 Y114.267 E6.22695
G1 X119.835 Y114.292 E6.25301
G1 X118.192 Y114.355 E6.30769
G1 X117.407 Y114.393 E6.33383
G1 X115.874 Y114.479 E6.3849
G1 X115.021 Y114.533 E6.41333
G1 X113.55 Y114.637 E6.46238
G1 X112.669 Y114.706 E6.49177
G1 X111.19 Y114.833 E6.54114
G1 X110.347 Y114.912 E6.5693
G1 X108.66 Y115.085 E6.62571
G1 X107.837 Y115.177 E6.65325
G1 X106.432 Y115.344 E6.70031
G1 X105.602 Y115.448 E6.72813
G1 X104.066 Y115.653 E6.77967
G1 X103.277 Y115.765 E6.80618
G1 X101.572 Y116.02 E6.86352
G1 X100.806 Y116.143 E6.88932
G1 X99.413 Y116.375 E6.93629
G1 X98.524 Y116.529 E6.9663
G1 X96.936 Y116.818 E7.01998
G1 X96.104 Y116.977 E7.04816
G1 X94.601 Y117.276 E7.09913
G1 X93.805 Y117.441 E7.12616
G1 X92.335 Y117.758 E7.17618
G1 X91.377 Y117.972 E7.20883
G1 X90.632 Y118.125 E7.23412
G1 X90.111 Y118.188 E7.25158
G1 X89.484 Y118.2 E7.27244
G1 X75.661 Y118.2 E7.73219
G1 X74.963 Y118.19 E7.75541
G1 X74.46 Y118.143 E7.77221
G1 X73.97 Y118.017 E7.78904
G1 X73.506 Y117.815 E7.80587
G1 X73.08 Y117.543 E7.82268
G1 X72.702 Y117.208 E7.83948
G1 X72.382 Y116.817 E7.85629
G1 X72.127 Y116.38 E7.87311
G1 X71.944 Y115.909 E7.88992
G1 X71.837 Y115.415 E7.90673
G1 X71.801 Y114.745 E7.92905
G1 X71.8 Y95.626 E8.56495
G1 X71.81 Y94.961 E8.58707
G1 X71.858 Y94.458 E8.60388
G1 X71.984 Y93.968 E8.6207
G1 X72.186 Y93.504 E8.63754
G1 X72.458 Y93.078 E8.65435
G1 X72.794 Y92.701 E8.67114
G1 X73.185 Y92.38 E8.68797
G1 F2100 E7.88797
;MESH:Pruefk??rper_V1.stl
G0 F3600 X75.614 Y94.335
G0 X75.614 Y95.614
G0 X157.771 Y113.785
G0 X157.75 Y113.882
;TYPE:WALL-INNER
G1 F2100 E8.68797
G1 F1800 X155.357 Y113.388 E8.76924
G1 X152.956 Y112.929 E8.85054
G1 X150.548 Y112.51 E8.93184
G1 X148.134 Y112.127 E9.01313
G1 X145.714 Y111.784 E9.09442
G1 X143.289 Y111.478 E9.17572
G1 X140.859 Y111.21 E9.25703
G1 X138.427 Y110.98 E9.33828
G1 X135.989 Y110.788 E9.41962
G1 X133.55 Y110.635 E9.5009
G1 X131.109 Y110.519 E9.58218
G1 X128.666 Y110.443 E9.66347
G1 X126.222 Y110.405 E9.74477
G1 X123.778 Y110.405 E9.82606
G1 X121.334 Y110.443 E9.90736
G1 X118.891 Y110.519 E9.98865
G1 X116.45 Y110.635 E10.06993
G1 X114.011 Y110.788 E10.15121
G1 X111.573 Y110.98 E10.23255
G1 X109.141 Y111.21 E10.3138
G1 X106.711 Y111.478 E10.39511
G1 X104.286 Y111.784 E10.47641
G1 X101.866 Y112.127 E10.5577
G1 X99.452 Y112.51 E10.639
G1 X97.044 Y112.929 E10.72029
G1 X94.643 Y113.388 E10.80159
G1 X92.25 Y113.882 E10.88286
G1 X89.936 Y114.4 E10.96173
G1 X75.6 Y114.4 E11.43855
G1 X75.6 Y95.6 E12.06384
G1 X89.936 Y95.6 E12.54066
G1 X92.25 Y96.118 E12.61953
G1 X94.643 Y96.612 E12.7008
G1 X97.044 Y97.071 E12.7821
G1 X99.452 Y97.49 E12.86339
G1 X101.866 Y97.873 E12.94469
G1 X104.286 Y98.216 E13.02598
G1 X106.711 Y98.522 E13.10728
G1 X109.141 Y98.79 E13.18859
G1 X111.573 Y99.02 E13.26984
G1 X114.011 Y99.212 E13.35118
G1 X116.45 Y99.365 E13.43246
G1 X118.891 Y99.481 E13.51374
G1 X121.334 Y99.557 E13.59503
G1 X123.778 Y99.595 E13.67633
G1 X126.222 Y99.595 E13.75762
G1 X128.666 Y99.557 E13.83892
G1 X131.109 Y99.481 E13.92021
G1 X133.55 Y99.365 E14.00149
G1 X135.989 Y99.212 E14.08277
G1 X138.427 Y99.02 E14.16411
G1 X140.859 Y98.79 E14.24536
G1 X143.289 Y98.522 E14.32667
G1 X145.714 Y98.216 E14.40797
G1 X148.134 Y97.873 E14.48926
G1 X150.548 Y97.49 E14.57055
G1 X152.956 Y97.071 E14.65185
G1 X155.357 Y96.612 E14.73315
G1 X157.75 Y96.118 E14.81442
G1 X160.064 Y95.6 E14.89329
G1 X174.4 Y95.6 E15.37011
G1 X174.4 Y114.4 E15.9954
G1 X160.064 Y114.4 E16.47222
G1 X157.75 Y113.882 E16.55108
G0 F3600 X157.666 Y114.273
;TYPE:WALL-OUTER
G1 F1800 X155.279 Y113.78 E16.63215
G1 X152.884 Y113.323 E16.71325
G1 X150.482 Y112.905 E16.79434
G1 X148.075 Y112.523 E16.8754
G1 X145.661 Y112.18 E16.95649
G1 X143.242 Y111.875 E17.03759
G1 X140.818 Y111.608 E17.1187
G1 X138.392 Y111.379 E17.19975
G1 X135.961 Y111.187 E17.28085
G1 X133.528 Y111.034 E17.36193
G1 X131.093 Y110.919 E17.44301
G1 X128.657 Y110.843 E17.52407
G1 X126.219 Y110.805 E17.60517
G1 X123.781 Y110.805 E17.68626
G1 X121.343 Y110.843 E17.76736
G1 X118.907 Y110.919 E17.84842
G1 X116.472 Y111.034 E17.9295
G1 X114.039 Y111.187 E18.01058
G1 X111.608 Y111.379 E18.09169
G1 X109.182 Y111.608 E18.17274
G1 X106.758 Y111.875 E18.25385
G1 X104.339 Y112.18 E18.33494
G1 X101.925 Y112.523 E18.41604
G1 X99.518 Y112.905 E18.49709
G1 X97.116 Y113.323 E18.57819
G1 X94.721 Y113.78 E18.65928
G1 X92.334 Y114.273 E18.74035
G1 X89.978 Y114.8 E18.82065
G1 X75.2 Y114.8 E19.31216
G1 X75.2 Y95.2 E19.96406
G1 X89.978 Y95.2 E20.45558
G1 X92.334 Y95.727 E20.53588
G1 X94.721 Y96.22 E20.61695
G1 X97.116 Y96.677 E20.69804
G1 X99.518 Y97.095 E20.77913
G1 X101.925 Y97.477 E20.86019
G1 X104.339 Y97.82 E20.94129
G1 X106.758 Y98.125 E21.02238
G1 X109.182 Y98.392 E21.10349
G1 X111.608 Y98.621 E21.18454
G1 X114.039 Y98.813 E21.26565
G1 X116.472 Y98.966 E21.34673
G1 X118.907 Y99.081 E21.42781
G1 X121.343 Y99.157 E21.50887
G1 X123.781 Y99.195 E21.58997
G1 X126.219 Y99.195 E21.67105
G1 X128.657 Y99.157 E21.75215
G1 X131.093 Y99.081 E21.83321
G1 X133.528 Y98.966 E21.91429
G1 X135.961 Y98.813 E21.99537
G1 X138.392 Y98.621 E22.07648
G1 X140.818 Y98.392 E22.15753
G1 X143.242 Y98.125 E22.23864
G1 X145.661 Y97.82 E22.31973
G1 X148.075 Y97.477 E22.40083
G1 X150.482 Y97.095 E22.48189
G1 X152.884 Y96.677 E22.56298
G1 X155.279 Y96.22 E22.64407
G1 X157.666 Y95.727 E22.72514
G1 X160.022 Y95.2 E22.80544
G1 X174.8 Y95.2 E23.29696
G1 X174.8 Y114.8 E23.94886
G1 X160.022 Y114.8 E24.44037
G1 X157.666 Y114.273 E24.52067
G0 F3600 X157.471 Y114.233
G0 X157.832 Y113.5
;TYPE:SKIN
G1 F1800 X155.433 Y113.006 E24.60214
G1 X153.026 Y112.545 E24.68365
G1 X150.612 Y112.126 E24.76514
G1 X148.192 Y111.741 E24.84664
G1 X145.766 Y111.398 E24.92813
G1 X143.334 Y111.09 E25.00967
G1 X140.898 Y110.822 E25.09118
G1 X138.46 Y110.592 E25.17263
G1 X136.016 Y110.398 E25.25417
G1 X133.571 Y110.245 E25.33565
G1 X131.124 Y110.129 E25.41713
G1 X128.675 Y110.053 E25.49862
G1 X126.225 Y110.015 E25.58012
G1 X123.775 Y110.015 E25.66161
G1 X121.325 Y110.053 E25.7431
G1 X118.876 Y110.129 E25.8246
G1 X116.429 Y110.245 E25.90608
G1 X113.984 Y110.398 E25.98756
G1 X111.54 Y110.592 E26.0691
G1 X109.102 Y110.822 E26.15055
G1 X106.666 Y111.09 E26.23206
G1 X104.234 Y111.398 E26.31359
G1 X101.808 Y111.741 E26.39509
G1 X99.388 Y112.126 E26.47659
G1 X96.974 Y112.545 E26.55808
G1 X94.567 Y113.006 E26.63959
G1 X92.168 Y113.5 E26.72105
G1 X89.894 Y114.01 E26.79857
G1 X75.99 Y114.01 E27.26102
G1 X75.99 Y95.99 E27.86036
G1 X89.894 Y95.99 E28.32281
G1 X92.168 Y96.5 E28.40033
G1 X94.567 Y96.994 E28.48179
G1 X96.974 Y97.455 E28.5633
G1 X99.388 Y97.874 E28.64479
G1 X101.808 Y98.259 E28.72629
G1 X104.234 Y98.602 E28.80779
G1 X106.666 Y98.91 E28.88932
G1 X109.102 Y99.178 E28.97083
G1 X111.54 Y99.408 E29.05228
G1 X113.984 Y99.602 E29.13382
G1 X116.429 Y99.755 E29.2153
G1 X118.876 Y99.871 E29.29678
G1 X121.325 Y99.947 E29.37828
G1 X123.775 Y99.985 E29.45977
G1 X126.225 Y99.985 E29.54126
G1 X128.675 Y99.947 E29.62276
G1 X131.124 Y99.871 E29.70425
G1 X133.571 Y99.755 E29.78573
G1 X136.016 Y99.602 E29.86721
G1 X138.46 Y99.408 E29.94875
G1 X140.898 Y99.178 E30.0302
G1 X143.334 Y98.91 E30.11171
G1 X145.766 Y98.602 E30.19325
G1 X148.192 Y98.259 E30.27474
G1 X150.612 Y97.874 E30.35624
G1 X153.026 Y97.455 E30.43773
G1 X155.433 Y96.994 E30.51924
G1 X157.832 Y96.5 E30.60071
G1 X160.106 Y95.99 E30.67822
G1 X174.01 Y95.99 E31.14067
G1 X174.01 Y114.01 E31.74002
G1 X160.106 Y114.01 E32.20247
G1 X157.832 Y113.5 E32.27998
G0 F3600 X173.829 Y96.33
G1 F1800 X173.668 Y96.17 E32.28753
G0 F3600 X173.103 Y96.17
G1 F1800 X173.829 Y96.896 E32.32168
G0 F3600 X173.829 Y97.461
G1 F1800 X172.537 Y96.17 E32.38242
G0 F3600 X171.971 Y96.17
G1 F1800 X173.829 Y98.027 E32.4698
G0 F3600 X173.829 Y98.593
G1 F1800 X171.406 Y96.17 E32.58377
G0 F3600 X170.84 Y96.17
G1 F1800 X173.829 Y99.158 E32.72434
G0 F3600 X173.829 Y99.724
G1 F1800 X170.274 Y96.17 E32.89153
G0 F3600 X169.709 Y96.17
G1 F1800 X173.829 Y100.29 E33.08532
G0 F3600 X173.829 Y100.856
G1 F1800 X169.143 Y96.17 E33.30574
G0 F3600 X168.577 Y96.17
G1 F1800 X173.829 Y101.421 E33.55275
G0 F3600 X173.829 Y101.987
G1 F1800 X168.012 Y96.17 E33.82636
G0 F3600 X167.446 Y96.17
G1 F1800 X173.829 Y102.553 E34.1266
G0 F3600 X173.829 Y103.118
G1 F1800 X166.88 Y96.17 E34.45344
G0 F3600 X166.315 Y96.17
G1 F1800 X173.829 Y103.684 E34.80687
G0 F3600 X173.829 Y104.25
G1 F1800 X165.749 Y96.17 E35.18693
G0 F3600 X165.183 Y96.17
G1 F1800 X173.829 Y104.815 E35.59359
G0 F3600 X173.829 Y105.381
G1 F1800 X164.617 Y96.17 E36.02687
G0 F3600 X164.052 Y96.17
G1 F1800 X173.829 Y105.947 E36.48675
G0 F3600 X173.829 Y106.512
G1 F1800 X163.486 Y96.17 E36.97323
G0 F3600 X162.92 Y96.17
G1 F1800 X173.829 Y107.078 E37.48633
G0 F3600 X173.829 Y107.644
G1 F1800 X162.355 Y96.17 E38.02603
G0 F3600 X161.789 Y96.17
G1 F1800 X173.829 Y108.209 E38.59233
G0 F3600 X173.829 Y108.775
G1 F1800 X161.223 Y96.17 E39.18526
G0 F3600 X160.658 Y96.17
G1 F1800 X173.829 Y109.341 E39.80478
G0 F3600 X173.829 Y109.907
G1 F1800 X160.098 Y96.176 E40.45065
G0 F3600 X159.637 Y96.28
G1 F1800 X173.829 Y110.472 E41.11819
G0 F3600 X173.829 Y111.038
G1 F1800 X159.174 Y96.383 E41.80752
G0 F3600 X158.712 Y96.487
G1 F1800 X173.829 Y111.604 E42.51858
G0 F3600 X173.829 Y112.169
G1 F1800 X158.251 Y96.591 E43.25132
G0 F3600 X157.787 Y96.693
G1 F1800 X173.829 Y112.735 E44.00589
G0 F3600 X173.829 Y113.301
G1 F1800 X157.318 Y96.79 E44.78251
G0 F3600 X156.849 Y96.886
G1 F1800 X173.792 Y113.83 E45.57948
G0 F3600 X173.227 Y113.83
G1 F1800 X156.38 Y96.983 E46.37191
G0 F3600 X155.91 Y97.079
G1 F1800 X172.661 Y113.83 E47.15983
G0 F3600 X172.095 Y113.83
G1 F1800 X155.441 Y97.175 E47.94321
G0 F3600 X154.966 Y97.266
G1 F1800 X171.529 Y113.83 E48.7223
G0 F3600 X170.964 Y113.83
G1 F1800 X154.492 Y97.357 E49.49712
G0 F3600 X154.017 Y97.448
G1 F1800 X170.398 Y113.83 E50.26765
G0 F3600 X169.832 Y113.83
G1 F1800 X153.542 Y97.539 E51.03391
G0 F3600 X153.068 Y97.63
G1 F1800 X169.267 Y113.83 E51.79588
G0 F3600 X168.701 Y113.83
G1 F1800 X152.585 Y97.714 E52.55393
G0 F3600 X152.103 Y97.797
G1 F1800 X168.135 Y113.83 E53.30805
G0 F3600 X167.57 Y113.83
G1 F1800 X151.621 Y97.881 E54.05824
G0 F3600 X151.139 Y97.965
G1 F1800 X167.004 Y113.83 E54.80448
G0 F3600 X166.438 Y113.83
G1 F1800 X150.657 Y98.048 E55.5468
G0 F3600 X150.169 Y98.126
G1 F1800 X165.873 Y113.83 E56.28547
G0 F3600 X165.307 Y113.83
G1 F1800 X149.681 Y98.204 E57.02046
G0 F3600 X149.193 Y98.282
G1 F1800 X164.741 Y113.83 E57.75179
G0 F3600 X164.176 Y113.83
G1 F1800 X148.705 Y98.359 E58.4795
G0 F3600 X148.218 Y98.437
G1 F1800 X163.61 Y113.83 E59.20352
G0 F3600 X163.044 Y113.83
G1 F1800 X147.722 Y98.507 E59.92424
G0 F3600 X147.226 Y98.577
G1 F1800 X162.478 Y113.83 E60.64167
G0 F3600 X161.913 Y113.83
G1 F1800 X146.731 Y98.647 E61.35581
G0 F3600 X146.235 Y98.717
G1 F1800 X161.347 Y113.83 E62.06666
G0 F3600 X160.781 Y113.83
G1 F1800 X145.738 Y98.787 E62.77423
G0 F3600 X145.236 Y98.85
G1 F1800 X160.216 Y113.83 E63.47885
G0 F3600 X159.512 Y113.692
G1 F1800 X144.734 Y98.914 E64.17396
G0 F3600 X144.232 Y98.977
G1 F1800 X158.783 Y113.528 E64.85839
G0 F3600 X158.054 Y113.365
G1 F1800 X143.73 Y99.041 E65.53215
G0 F3600 X143.226 Y99.103
G1 F1800 X157.338 Y113.214 E66.19591
G0 F3600 X156.626 Y113.068
G1 F1800 X142.717 Y99.159 E66.85015
G0 F3600 X142.207 Y99.215
G1 F1800 X155.914 Y112.922 E67.49488
G0 F3600 X155.206 Y112.779
G1 F1800 X141.697 Y99.271 E68.13028
G0 F3600 X141.188 Y99.327
G1 F1800 X154.506 Y112.645 E68.75672
G0 F3600 X153.806 Y112.511
G1 F1800 X140.675 Y99.38 E69.37436
G0 F3600 X140.158 Y99.429
G1 F1800 X153.106 Y112.376 E69.98337
G0 F3600 X152.421 Y112.257
G1 F1800 X139.641 Y99.477 E70.58451
G0 F3600 X139.124 Y99.526
G1 F1800 X151.736 Y112.138 E71.17773
G0 F3600 X151.052 Y112.019
G1 F1800 X138.607 Y99.575 E71.76309
G0 F3600 X138.085 Y99.618
G1 F1800 X150.372 Y111.906 E72.34105
G0 F3600 X149.7 Y111.799
G1 F1800 X137.561 Y99.66 E72.91203
G0 F3600 X137.037 Y99.702
G1 F1800 X149.026 Y111.691 E73.47596
G0 F3600 X148.353 Y111.584
G1 F1800 X136.513 Y99.743 E74.0329
G0 F3600 X135.988 Y99.784
G1 F1800 X147.692 Y111.488 E74.58342
G0 F3600 X147.033 Y111.395
G1 F1800 X135.456 Y99.818 E75.12797
G0 F3600 X134.923 Y99.851
G1 F1800 X146.375 Y111.302 E75.66661
G0 F3600 X145.717 Y111.21
G1 F1800 X134.391 Y99.884 E76.19935
G0 F3600 X133.858 Y99.917
G1 F1800 X145.069 Y111.128 E76.72668
G0 F3600 X144.421 Y111.046
G1 F1800 X133.322 Y99.947 E77.24875
G0 F3600 X132.782 Y99.972
G1 F1800 X143.773 Y110.964 E77.76575
G0 F3600 X143.13 Y110.886
G1 F1800 X132.243 Y99.999 E78.27784
G0 F3600 X131.702 Y100.024
G1 F1800 X142.494 Y110.816 E78.78547
G0 F3600 X141.859 Y110.746
G1 F1800 X131.162 Y100.049 E79.28862
G0 F3600 X130.614 Y100.067
G1 F1800 X141.224 Y110.677 E79.78768
G0 F3600 X140.594 Y110.612
G1 F1800 X130.065 Y100.084 E80.28291
G0 F3600 X129.517 Y100.101
G1 F1800 X139.969 Y110.554 E80.77456
G0 F3600 X139.345 Y110.495
G1 F1800 X128.968 Y100.118 E81.26267
G0 F3600 X128.415 Y100.131
G1 F1800 X138.72 Y110.435 E81.74736
G0 F3600 X138.102 Y110.383
G1 F1800 X127.859 Y100.14 E82.22916
G0 F3600 X127.301 Y100.148
G1 F1800 X137.487 Y110.334 E82.70827
G0 F3600 X136.872 Y110.285
G1 F1800 X126.744 Y100.157 E83.18466
G0 F3600 X126.186 Y100.165
G1 F1800 X136.258 Y110.236 E83.6584
G0 F3600 X135.649 Y110.194
G1 F1800 X125.621 Y100.165 E84.13011
G0 F3600 X125.055 Y100.165
G1 F1800 X135.046 Y110.156 E84.60005
G0 F3600 X134.443 Y110.119
G1 F1800 X124.489 Y100.165 E85.06826
G0 F3600 X123.923 Y100.165
G1 F1800 X133.84 Y110.081 E85.5347
G0 F3600 X133.242 Y110.049
G1 F1800 X123.351 Y100.158 E85.99994
G0 F3600 X122.777 Y100.149
G1 F1800 X132.648 Y110.02 E86.46424
G0 F3600 X132.054 Y109.992
G1 F1800 X122.202 Y100.141 E86.92763
G0 F3600 X121.628 Y100.131
G1 F1800 X131.46 Y109.964 E87.39012
G0 F3600 X130.87 Y109.94
G1 F1800 X121.049 Y100.119 E87.85207
G0 F3600 X120.465 Y100.1
G1 F1800 X130.287 Y109.922 E88.31407
G0 F3600 X129.703 Y109.904
G1 F1800 X119.881 Y100.082 E88.77606
G0 F3600 X119.297 Y100.064
G1 F1800 X129.119 Y109.886 E89.23806
G0 F3600 X128.537 Y109.87
G1 F1800 X118.711 Y100.043 E89.70027
G0 F3600 X118.117 Y100.015
G1 F1800 X127.963 Y109.861 E90.16339
G0 F3600 X127.388 Y109.852
G1 F1800 X117.523 Y99.987 E90.62741
G0 F3600 X116.93 Y99.959
G1 F1800 X126.813 Y109.843 E91.0923
G0 F3600 X126.239 Y109.834
G1 F1800 X116.335 Y99.93 E91.55816
G0 F3600 X115.732 Y99.892
G1 F1800 X125.674 Y109.834 E92.0258
G0 F3600 X125.108 Y109.834
G1 F1800 X115.128 Y99.854 E92.49523
G0 F3600 X114.525 Y99.817
G1 F1800 X124.542 Y109.834 E92.9664
G0 F3600 X123.977 Y109.834
G1 F1800 X113.92 Y99.778 E93.43942
G0 F3600 X113.305 Y99.728
G1 F1800 X123.417 Y109.84 E93.91506
G0 F3600 X122.859 Y109.849
G1 F1800 X112.69 Y99.68 E94.39338
G0 F3600 X112.076 Y99.631
G1 F1800 X122.302 Y109.857 E94.87438
G0 F3600 X121.745 Y109.866
G1 F1800 X111.46 Y99.581 E95.35815
G0 F3600 X110.836 Y99.522
G1 F1800 X121.19 Y109.876 E95.84517
G0 F3600 X120.641 Y109.893
G1 F1800 X110.211 Y99.463 E96.33577
G0 F3600 X109.586 Y99.404
G1 F1800 X120.092 Y109.91 E96.82994
G0 F3600 X119.544 Y109.927
G1 F1800 X108.96 Y99.343 E97.32778
G0 F3600 X108.325 Y99.274
G1 F1800 X118.995 Y109.944 E97.82966
G0 F3600 X118.453 Y109.967
G1 F1800 X107.689 Y99.204 E98.33594
G0 F3600 X107.053 Y99.134
G1 F1800 X117.913 Y109.993 E98.84674
G0 F3600 X117.373 Y110.019
G1 F1800 X106.413 Y99.06 E99.36224
G0 F3600 X105.766 Y98.977
G1 F1800 X116.833 Y110.045 E99.88282
G0 F3600 X116.295 Y110.072
G1 F1800 X105.118 Y98.895 E100.40856
G0 F3600 X104.47 Y98.813
G1 F1800 X115.762 Y110.105 E100.9397
G0 F3600 X115.23 Y110.138
G1 F1800 X103.816 Y98.724 E101.47658
G0 F3600 X103.156 Y98.631
G1 F1800 X114.697 Y110.172 E102.01943
G0 F3600 X114.165 Y110.205
G1 F1800 X102.498 Y98.538 E102.56821
G0 F3600 X101.839 Y98.445
G1 F1800 X113.638 Y110.244 E103.1232
G0 F3600 X113.114 Y110.286
G1 F1800 X101.167 Y98.339 E103.68515
G0 F3600 X100.495 Y98.232
G1 F1800 X112.59 Y110.327 E104.25406
G0 F3600 X112.066 Y110.369
G1 F1800 X99.822 Y98.125 E104.82998
G0 F3600 X99.145 Y98.014
G1 F1800 X111.541 Y110.41 E105.41305
G0 F3600 X111.024 Y110.459
G1 F1800 X98.461 Y97.895 E106.004
G0 F3600 X97.776 Y97.776
G1 F1800 X110.508 Y110.508 E106.60287
G0 F3600 X109.991 Y110.556
G1 F1800 X97.091 Y97.657 E107.20963
G0 F3600 X96.394 Y97.526
G1 F1800 X109.474 Y110.605 E107.82485
G0 F3600 X108.958 Y110.655
G1 F1800 X95.695 Y97.392 E108.4487
G0 F3600 X94.995 Y97.258
G1 F1800 X108.448 Y110.711 E109.08148
G0 F3600 X107.939 Y110.767
G1 F1800 X94.291 Y97.12 E109.72342
G0 F3600 X93.579 Y96.974
G1 F1800 X107.429 Y110.823 E110.37486
G0 F3600 X106.92 Y110.88
G1 F1800 X92.867 Y96.827 E111.03587
G0 F3600 X92.155 Y96.681
G1 F1800 X106.413 Y110.939 E111.70652
G0 F3600 X105.911 Y111.003
G1 F1800 X91.426 Y96.517 E112.38787
G0 F3600 X90.697 Y96.353
G1 F1800 X105.409 Y111.066 E113.07991
G0 F3600 X104.907 Y111.13
G1 F1800 X89.967 Y96.189 E113.78266
G0 F3600 X89.381 Y96.169
G1 F1800 X104.405 Y111.193 E114.48934
G0 F3600 X103.907 Y111.261
G1 F1800 X88.815 Y96.169 E115.19923
G0 F3600 X88.249 Y96.169
G1 F1800 X103.411 Y111.331 E115.9124
G0 F3600 X102.915 Y111.401
G1 F1800 X87.684 Y96.169 E116.62884
G0 F3600 X87.118 Y96.169
G1 F1800 X102.42 Y111.471 E117.3486
G0 F3600 X101.924 Y111.541
G1 F1800 X86.552 Y96.169 E118.07165
G0 F3600 X85.987 Y96.169
G1 F1800 X101.434 Y111.616 E118.79823
G0 F3600 X100.946 Y111.694
G1 F1800 X85.421 Y96.169 E119.52848
G0 F3600 X84.855 Y96.169
G1 F1800 X100.458 Y111.772 E120.2624
G0 F3600 X99.97 Y111.85
G1 F1800 X84.289 Y96.169 E120.99998
G0 F3600 X83.724 Y96.169
G1 F1800 X99.482 Y111.927 E121.74119
G0 F3600 X98.999 Y112.009
G1 F1800 X83.158 Y96.169 E122.48628
G0 F3600 X82.592 Y96.169
G1 F1800 X98.516 Y112.093 E123.2353
G0 F3600 X98.034 Y112.176
G1 F1800 X82.027 Y96.169 E123.98822
G0 F3600 X81.461 Y96.169
G1 F1800 X97.553 Y112.26 E124.74511
G0 F3600 X97.07 Y112.344
G1 F1800 X80.895 Y96.169 E125.50593
G0 F3600 X80.33 Y96.169
G1 F1800 X96.594 Y112.433 E126.27094
G0 F3600 X96.119 Y112.524
G1 F1800 X79.764 Y96.169 E127.04023
G0 F3600 X79.198 Y96.169
G1 F1800 X95.644 Y112.615 E127.8138
G0 F3600 X95.17 Y112.706
G1 F1800 X78.633 Y96.169 E128.59165
G0 F3600 X78.067 Y96.169
G1 F1800 X94.695 Y112.797 E129.37378
G0 F3600 X94.224 Y112.891
G1 F1800 X77.501 Y96.169 E130.16036
G0 F3600 X76.936 Y96.169
G1 F1800 X93.755 Y112.988 E130.95147
G0 F3600 X93.285 Y113.084
G1 F1800 X76.37 Y96.169 E131.7471
G0 F3600 X76.169 Y96.534
G1 F1800 X92.816 Y113.181 E132.53012
G0 F3600 X92.347 Y113.277
G1 F1800 X76.169 Y97.099 E133.29109
G0 F3600 X76.169 Y97.665
G1 F1800 X91.882 Y113.378 E134.03018
G0 F3600 X91.42 Y113.482
G1 F1800 X76.169 Y98.231 E134.74754
G0 F3600 X76.169 Y98.796
G1 F1800 X90.957 Y113.585 E135.44315
G0 F3600 X90.496 Y113.689
G1 F1800 X76.169 Y99.362 E136.11704
G0 F3600 X76.169 Y99.928
G1 F1800 X90.034 Y113.793 E136.76921
G0 F3600 X89.504 Y113.829
G1 F1800 X76.169 Y100.494 E137.39645
G0 F3600 X76.169 Y101.059
G1 F1800 X88.939 Y113.829 E137.99711
G0 F3600 X88.373 Y113.829
G1 F1800 X76.169 Y101.625 E138.57115
G0 F3600 X76.169 Y102.191
G1 F1800 X87.807 Y113.829 E139.11856
G0 F3600 X87.242 Y113.829
G1 F1800 X76.169 Y102.756 E139.6394
G0 F3600 X76.169 Y103.322
G1 F1800 X86.676 Y113.829 E140.13362
G0 F3600 X86.11 Y113.829
G1 F1800 X76.169 Y103.888 E140.60122
G0 F3600 X76.169 Y104.453
G1 F1800 X85.545 Y113.829 E141.04223
G0 F3600 X84.979 Y113.829
G1 F1800 X76.169 Y105.019 E141.45663
G0 F3600 X76.169 Y105.585
G1 F1800 X84.413 Y113.829 E141.8444
G0 F3600 X83.848 Y113.829
G1 F1800 X76.169 Y106.15 E142.2056
G0 F3600 X76.169 Y106.716
G1 F1800 X83.282 Y113.829 E142.54017
G0 F3600 X82.716 Y113.829
G1 F1800 X76.169 Y107.282 E142.84812
G0 F3600 X76.169 Y107.847
G1 F1800 X82.15 Y113.829 E143.12947
G0 F3600 X81.585 Y113.829
G1 F1800 X76.169 Y108.413 E143.38423
G0 F3600 X76.169 Y108.979
G1 F1800 X81.019 Y113.829 E143.61236
G0 F3600 X80.453 Y113.829
G1 F1800 X76.169 Y109.544 E143.81389
G0 F3600 X76.169 Y110.11
G1 F1800 X79.888 Y113.829 E143.98882
G0 F3600 X79.322 Y113.829
G1 F1800 X76.169 Y110.676 E144.13712
G0 F3600 X76.169 Y111.242
G1 F1800 X78.756 Y113.829 E144.25881
G0 F3600 X78.191 Y113.829
G1 F1800 X76.169 Y111.807 E144.35392
G0 F3600 X76.169 Y112.373
G1 F1800 X77.625 Y113.829 E144.4224
G0 F3600 X77.059 Y113.829
G1 F1800 X76.169 Y112.939 E144.46427
G0 F3600 X76.169 Y113.504
M104 S200
G1 F1800 X76.494 Y113.829 E144.47955
;MESH:NONMESH
G0 F600 X76.494 Y113.829 Z0.4
G0 F3600 X114.009 Y110.749
G0 X118.89 Y110.48
G0 X126.222 Y110.365
G0 X131.11 Y110.48
G0 X138.43 Y110.941
G0 X145.719 Y111.745
G0 X149.634 Y112.332
G0 X157.771 Y113.785
G0 X157.75 Y113.882
;TIME_ELAPSED:163.164760
;LAYER:1
M106 S255
;TYPE:WALL-INNER
;MESH:Pruefk??rper_V1.stl

G91 
G1 F6000 A15.856751170661639
G90
M571 P"duex.fan6" S0.8
G1 X152.956 Y112.929 E144.64213
M571 P"duex.fan6" S0.0
G91 
G1 F6000 A-17.231124728372528
G90
M571 P"duex.fan6" S0.8
G1 X150.548 Y112.51 E144.72342
M571 P"duex.fan6" S0.0
G91 
G1 F6000 A15.707967168897772
G90
M571 P"duex.fan6" S0.8
G1 X148.134 Y112.127 E144.80471
M571 P"duex.fan6" S0.0
G91 
G1 F6000 A-17.11395107658329
G90
M571 P"duex.fan6" S0.8
G1 X145.714 Y111.784 E144.88601
M571 P"duex.fan6" S0.0
G91 
G1 F6000 A15.670924751337216
G90
M571 P"duex.fan6" S0.8
G1 X143.289 Y111.478 E144.9673
M571 P"duex.fan6" S0.0
G91 
G1 F6000 A-17.102372827676216
G90
M571 P"duex.fan6" S0.8
G1 X140.859 Y111.21 E145.04862
M571 P"duex.fan6" S0.0
G91 
G1 F6000 A15.65722574010596
G90
M571 P"duex.fan6" S0.8
G1 X138.427 Y110.98 E145.12986
M571 P"duex.fan6" S0.0
G91 
G1 F6000 A-17.124580572101785
G90
M571 P"duex.fan6" S0.8
G1 X135.989 Y110.788 E145.2112
M571 P"duex.fan6" S0.0
G91 
G1 F6000 A15.728979348927785
G90
M571 P"duex.fan6" S0.8
G1 X133.55 Y110.635 E145.29248
M571 P"duex.fan6" S0.0
G91 
G1 F6000 A-17.237217941758846
G90
M571 P"duex.fan6" S0.8
G1 X131.109 Y110.519 E145.37376
M571 P"duex.fan6" S0.0
G91 
G1 F6000 A15.805768426159819
G90
M571 P"duex.fan6" S0.8
G1 X128.666 Y110.443 E145.45506
M571 P"duex.fan6" S0.0
G91 
G1 F6000 A-17.236738919195044
G90
M571 P"duex.fan6" S0.8
G1 X126.222 Y110.405 E145.53636
M571 P"duex.fan6" S0.0
G91 
G1 F6000 A15.805768426159773
G90
M571 P"duex.fan6" S0.8
G1 X123.778 Y110.405 E145.61764
M571 P"duex.fan6" S0.0
G91 
G1 F6000 A-17.2372179417588
G90
M571 P"duex.fan6" S0.8
G1 X121.334 Y110.443 E145.69894
M571 P"duex.fan6" S0.0
G91 
G1 F6000 A15.728979348927739
G90
M571 P"duex.fan6" S0.8
G1 X118.891 Y110.519 E145.78024
M571 P"duex.fan6" S0.0
G91 
G1 F6000 A-17.124580572101696
G90
M571 P"duex.fan6" S0.8
G1 X116.45 Y110.635 E145.86151
M571 P"duex.fan6" S0.0
G91 
G1 F6000 A15.65722574010596
G90
M571 P"duex.fan6" S0.8
G1 X114.011 Y110.788 E145.9428
M571 P"duex.fan6" S0.0
G91 
G1 F6000 A-17.1023728276764
G90
M571 P"duex.fan6" S0.8
G1 X111.573 Y110.98 E146.02413
M571 P"duex.fan6" S0.0
G91 
G1 F6000 A15.670924751337582
G90
M571 P"duex.fan6" S0.8
G1 X109.141 Y111.21 E146.10538
M571 P"duex.fan6" S0.0
G91 
G1 F6000 A-17.113951076583792
G90
M571 P"duex.fan6" S0.8
G1 X106.711 Y111.478 E146.1867
M571 P"duex.fan6" S0.0
G91 
G1 F6000 A15.707967168898456
G90
M571 P"duex.fan6" S0.8
G1 X104.286 Y111.784 E146.26799
M571 P"duex.fan6" S0.0
G91 
G1 F6000 A-17.23112472837344
G90
M571 P"duex.fan6" S0.8
G1 X101.866 Y112.127 E146.34929
M571 P"duex.fan6" S0.0
G91 
G1 F6000 A15.856751170662779
G90
M571 P"duex.fan6" S0.8
G1 X99.452 Y112.51 E146.43058
M571 P"duex.fan6" S0.0
G91 
G1 F6000 A-17.385819548115773
G90
M571 P"duex.fan6" S0.8
G1 X97.044 Y112.929 E146.51187
M571 P"duex.fan6" S0.0
G91 
G1 F6000 A16.03423921372339
G90
M571 P"duex.fan6" S0.8
G1 X94.643 Y113.388 E146.59318
M571 P"duex.fan6" S0.0
G91 
G1 F6000 A-17.56658166679026
G90
M571 P"duex.fan6" S0.8
G1 X92.25 Y113.882 E146.67445
M571 P"duex.fan6" S0.0
G91 
G1 F6000 A37.83632400236401
G90
M571 P"duex.fan6" S0.8
G1 X89.936 Y114.4 E146.75332
M571 P"duex.fan6" S0.0
G91 
G1 F6000 A-17.566581666789553
G90
M571 P"duex.fan4" S0.8
G1 X89.936 Y95.6 E148.33224
M571 P"duex.fan4" S0.0
G91 
G1 F6000 A16.034239213722785
G90
M571 P"duex.fan4" S0.8
G1 X92.25 Y96.118 E148.41111
M571 P"duex.fan4" S0.0
G91 
G1 F6000 A-17.385819548115208
G90
M571 P"duex.fan4" S0.8
G1 X94.643 Y96.612 E148.49238
M571 P"duex.fan4" S0.0
G91 
G1 F6000 A-128.7215620823506
G90
M571 P"duex.fan5" S0.8
G1 X97.044 Y97.071 E148.57368
M571 P"duex.fan5" S0.0
G91 
G1 F6000 A-17.231124728372038
G90
M571 P"duex.fan6" S0.8
G1 X99.452 Y97.49 E148.65498
M571 P"duex.fan6" S0.0
G91 
G1 F6000 A-128.8703460841144
G90
M571 P"duex.fan7" S0.8
G1 X101.866 Y97.873 E148.73627
M571 P"duex.fan7" S0.0
G91 
G1 F6000 A-17.113951076582826
G90
M571 P"duex.fan4" S0.8
G1 X104.286 Y98.216 E148.81757
M571 P"duex.fan4" S0.0
G91 
G1 F6000 A-128.9073885016763
G90
M571 P"duex.fan5" S0.8
G1 X106.711 Y98.522 E148.89886
M571 P"duex.fan5" S0.0
G91 
G1 F6000 A-17.10237282767433
G90
M571 P"duex.fan6" S0.8
G1 X109.141 Y98.79 E148.98017
M571 P"duex.fan6" S0.0
G91 
G1 F6000 A-128.92108751290777
G90
M571 P"duex.fan7" S0.8
G1 X111.573 Y99.02 E149.06142
M571 P"duex.fan7" S0.0
G91 
G1 F6000 A-17.124580572099855
G90
M571 P"duex.fan4" S0.8
G1 X114.011 Y99.212 E149.14276
M571 P"duex.fan4" S0.0
G91 
G1 F6000 A-128.84933390408688
G90
M571 P"duex.fan5" S0.8
G1 X116.45 Y99.365 E149.22404
M571 P"duex.fan5" S0.0
G91 
G1 F6000 A-17.23721794175601
G90
M571 P"duex.fan6" S0.8
G1 X118.891 Y99.481 E149.30532
M571 P"duex.fan6" S0.0
G91 
G1 F6000 A-128.77254482685478
G90
M571 P"duex.fan7" S0.8
G1 X121.334 Y99.557 E149.38662
M571 P"duex.fan7" S0.0
G91 
G1 F6000 A-17.236738919192305
G90
M571 P"duex.fan4" S0.8
G1 X123.778 Y99.595 E149.46791
M571 P"duex.fan4" S0.0
G91 
G1 F6000 A14.374318910558008
G90
M571 P"duex.fan4" S0.8
G1 X128.666 Y99.557 E149.6305
M571 P"duex.fan4" S0.0
G91 
G1 F6000 A128.69575574962275
G90
M571 P"duex.fan7" S0.8
G1 X131.109 Y99.481 E149.71179
M571 P"duex.fan7" S0.0
G91 
G1 F6000 A14.486956280214885
G90
M571 P"duex.fan6" S0.8
G1 X133.55 Y99.365 E149.79307
M571 P"duex.fan6" S0.0
G91 
G1 F6000 A128.62400214080122
G90
M571 P"duex.fan5" S0.8
G1 X135.989 Y99.212 E149.87435
M571 P"duex.fan5" S0.0
G91 
G1 F6000 A14.509164024641732
G90
M571 P"duex.fan4" S0.8
G1 X138.427 Y99.02 E149.95569
M571 P"duex.fan4" S0.0
G91 
G1 F6000 A128.63770115203053
G90
M571 P"duex.fan7" S0.8
G1 X140.859 Y98.79 E150.03694
M571 P"duex.fan7" S0.0
G91 
G1 F6000 A14.497585775735208
G90
M571 P"duex.fan6" S0.8
G1 X143.289 Y98.522 E150.11825
M571 P"duex.fan6" S0.0
G91 
G1 F6000 A128.67474356959104
G90
M571 P"duex.fan5" S0.8
G1 X145.714 Y98.216 E150.19955
M571 P"duex.fan5" S0.0
G91 
G1 F6000 A14.380412123947611
G90
M571 P"duex.fan4" S0.8
G1 X148.134 Y97.873 E150.28084
M571 P"duex.fan4" S0.0
G91 
G1 F6000 A-15.754785681658822
G90
M571 P"duex.fan4" S0.8
G1 X150.548 Y97.49 E150.36214
M571 P"duex.fan4" S0.0
G91 
G1 F6000 A14.22571730420615
G90
M571 P"duex.fan4" S0.8
G1 X152.956 Y97.071 E150.44343
M571 P"duex.fan4" S0.0
G91 
G1 F6000 A-15.57729763859867
G90
M571 P"duex.fan4" S0.8
G1 X155.357 Y96.612 E150.52474
M571 P"duex.fan4" S0.0
G91 
G1 F6000 A14.044955185532254
G90
M571 P"duex.fan4" S0.8
G1 X157.75 Y96.118 E150.60601
M571 P"duex.fan4" S0.0
G91 
G1 F6000 A26.494529485614105
G90
M571 P"duex.fan6" S0.8
G1 X160.064 Y114.4 E152.2638
M571 P"duex.fan6" S0.0G0 F5400 X157.666 Y114.273
;TYPE:WALL-OUTER

G91 
G1 F6000 A-30.905883441081034
G90
M571 P"duex.fan6" S0.8
G1 X152.884 Y113.323 E152.50483
M571 P"duex.fan6" S0.0
G91 
G1 F6000 A29.533998217961475
G90
M571 P"duex.fan6" S0.8
G1 X150.482 Y112.905 E152.58592
M571 P"duex.fan6" S0.0
G91 
G1 F6000 A-31.02949672571667
G90
M571 P"duex.fan6" S0.8
G1 X148.075 Y112.523 E152.66698
M571 P"duex.fan6" S0.0
G91 
G1 F6000 A29.58263127517951
G90
M571 P"duex.fan6" S0.8
G1 X145.661 Y112.18 E152.74808
M571 P"duex.fan6" S0.0
G91 
G1 F6000 A-31.029250961028968
G90
M571 P"duex.fan6" S0.8
G1 X143.242 Y111.875 E152.82917
M571 P"duex.fan6" S0.0
G91 
G1 F6000 A29.594227038744354
G90
M571 P"duex.fan6" S0.8
G1 X140.818 Y111.608 E152.91028
M571 P"duex.fan6" S0.0
G91 
G1 F6000 A-31.00236500104211
G90
M571 P"duex.fan6" S0.8
G1 X138.392 Y111.379 E152.99133
M571 P"duex.fan6" S0.0
G91 
G1 F6000 A29.52845000448157
G90
M571 P"duex.fan6" S0.8
G1 X135.961 Y111.187 E153.07244
M571 P"duex.fan6" S0.0
G91 
G1 F6000 A-30.96519518003776
G90
M571 P"duex.fan6" S0.8
G1 X133.528 Y111.034 E153.15352
M571 P"duex.fan6" S0.0
G91 
G1 F6000 A29.492137752038296
G90
M571 P"duex.fan6" S0.8
G1 X131.093 Y110.919 E153.2346
M571 P"duex.fan6" S0.0
G91 
G1 F6000 A-30.92828619018758
G90
M571 P"duex.fan6" S0.8
G1 X128.657 Y110.843 E153.31566
M571 P"duex.fan6" S0.0
G91 
G1 F6000 A29.493794600189887
G90
M571 P"duex.fan6" S0.8
G1 X126.219 Y110.805 E153.39676
M571 P"duex.fan6" S0.0
G91 
G1 F6000 A-30.928286190187716
G90
M571 P"duex.fan6" S0.8
G1 X123.781 Y110.805 E153.47784
M571 P"duex.fan6" S0.0
G91 
G1 F6000 A29.49213775203857
G90
M571 P"duex.fan6" S0.8
G1 X121.343 Y110.843 E153.55894
M571 P"duex.fan6" S0.0
G91 
G1 F6000 A-30.96519518003808
G90
M571 P"duex.fan6" S0.8
G1 X118.907 Y110.919 E153.64
M571 P"duex.fan6" S0.0
G91 
G1 F6000 A29.528450004481755
G90
M571 P"duex.fan6" S0.8
G1 X116.472 Y111.034 E153.72108
M571 P"duex.fan6" S0.0
G91 
G1 F6000 A-31.002365001042293
G90
M571 P"duex.fan6" S0.8
G1 X114.039 Y111.187 E153.80216
M571 P"duex.fan6" S0.0
G91 
G1 F6000 A29.5942270387444
G90
M571 P"duex.fan6" S0.8
G1 X111.608 Y111.379 E153.88327
M571 P"duex.fan6" S0.0
G91 
G1 F6000 A-31.029250961028783
G90
M571 P"duex.fan6" S0.8
G1 X109.182 Y111.608 E153.96432
M571 P"duex.fan6" S0.0
G91 
G1 F6000 A29.582631275179097
G90
M571 P"duex.fan6" S0.8
G1 X106.758 Y111.875 E154.04543
M571 P"duex.fan6" S0.0
G91 
G1 F6000 A-31.02949672571635
G90
M571 P"duex.fan6" S0.8
G1 X104.339 Y112.18 E154.12652
M571 P"duex.fan6" S0.0
G91 
G1 F6000 A29.53399821796088
G90
M571 P"duex.fan6" S0.8
G1 X101.925 Y112.523 E154.20762
M571 P"duex.fan6" S0.0
G91 
G1 F6000 A-30.905883441079983
G90
M571 P"duex.fan6" S0.8
G1 X99.518 Y112.905 E154.28868
M571 P"duex.fan6" S0.0
G91 
G1 F6000 A29.410079086680632
G90
M571 P"duex.fan6" S0.8
G1 X97.116 Y113.323 E154.36977
M571 P"duex.fan6" S0.0
G91 
G1 F6000 A-30.80211076208057
G90
M571 P"duex.fan6" S0.8
G1 X94.721 Y113.78 E154.45086
M571 P"duex.fan6" S0.0
G91 
G1 F6000 A29.293545142482582
G90
M571 P"duex.fan6" S0.8
G1 X92.334 Y114.273 E154.53193
M571 P"duex.fan6" S0.0
G91 
G1 F6000 A-9.038755112978613
G90
M571 P"duex.fan6" S0.8
G1 X89.978 Y114.8 E154.61223
M571 P"duex.fan6" S0.0
G91 
G1 F6000 A-115.28476811052982
G90
M571 P"duex.fan5" S0.8
G1 X89.978 Y95.2 E156.24716
M571 P"duex.fan5" S0.0
G91 
G1 F6000 A-30.802110762079703
G90
M571 P"duex.fan6" S0.8
G1 X92.334 Y95.727 E156.32746
M571 P"duex.fan6" S0.0
G91 
G1 F6000 A-115.16823416633184
G90
M571 P"duex.fan7" S0.8
G1 X94.721 Y96.22 E156.40853
M571 P"duex.fan7" S0.0
G91 
G1 F6000 A-30.90588344108005
G90
M571 P"duex.fan4" S0.8
G1 X97.116 Y96.677 E156.48962
M571 P"duex.fan4" S0.0
G91 
G1 F6000 A-115.04431503505157
G90
M571 P"duex.fan5" S0.8
G1 X99.518 Y97.095 E156.57072
M571 P"duex.fan5" S0.0
G91 
G1 F6000 A-31.029496725715642
G90
M571 P"duex.fan6" S0.8
G1 X101.925 Y97.477 E156.65178
M571 P"duex.fan6" S0.0
G91 
G1 F6000 A-114.99568197783312
G90
M571 P"duex.fan7" S0.8
G1 X104.339 Y97.82 E156.73287
M571 P"duex.fan7" S0.0
G91 
G1 F6000 A-31.029250961028858
G90
M571 P"duex.fan4" S0.8
G1 X106.758 Y98.125 E156.81397
M571 P"duex.fan4" S0.0
G91 
G1 F6000 A-114.98408621426793
G90
M571 P"duex.fan5" S0.8
G1 X109.182 Y98.392 E156.89508
M571 P"duex.fan5" S0.0
G91 
G1 F6000 A-31.002365001041436
G90
M571 P"duex.fan6" S0.8
G1 X111.608 Y98.621 E156.97612
M571 P"duex.fan6" S0.0
G91 
G1 F6000 A-115.049863248531
G90
M571 P"duex.fan7" S0.8
G1 X114.039 Y98.813 E157.05723
M571 P"duex.fan7" S0.0
G91 
G1 F6000 A-30.965195180037817
G90
M571 P"duex.fan4" S0.8
G1 X116.472 Y98.966 E157.13831
M571 P"duex.fan4" S0.0
G91 
G1 F6000 A-115.08617550097384
G90
M571 P"duex.fan5" S0.8
G1 X118.907 Y99.081 E157.21939
M571 P"duex.fan5" S0.0
G91 
G1 F6000 A-30.928286190186924
G90
M571 P"duex.fan6" S0.8
G1 X121.343 Y99.157 E157.30045
M571 P"duex.fan6" S0.0
G91 
G1 F6000 A-115.08451865282265
G90
M571 P"duex.fan7" S0.8
G1 X123.781 Y99.195 E157.38155
M571 P"duex.fan7" S0.0
G91 
G1 F6000 A112.21387862467581
G90
M571 P"duex.fan7" S0.8
G1 X128.657 Y99.157 E157.54374
M571 P"duex.fan7" S0.0
G91 
G1 F6000 A30.891377200336443
G90
M571 P"duex.fan6" S0.8
G1 X131.093 Y99.081 E157.6248
M571 P"duex.fan6" S0.0
G91 
G1 F6000 A112.25019087711922
G90
M571 P"duex.fan5" S0.8
G1 X133.528 Y98.966 E157.70588
M571 P"duex.fan5" S0.0
G91 
G1 F6000 A30.854207379332138
G90
M571 P"duex.fan4" S0.8
G1 X135.961 Y98.813 E157.78696
M571 P"duex.fan4" S0.0
G91 
G1 F6000 A112.31596791138264
G90
M571 P"duex.fan7" S0.8
G1 X138.392 Y98.621 E157.86806
M571 P"duex.fan7" S0.0
G91 
G1 F6000 A30.827321419344596
G90
M571 P"duex.fan6" S0.8
G1 X140.818 Y98.392 E157.94911
M571 P"duex.fan6" S0.0
G91 
G1 F6000 A112.3043721478178
G90
M571 P"duex.fan5" S0.8
G1 X143.242 Y98.125 E158.03022
M571 P"duex.fan5" S0.0
G91 
G1 F6000 A30.82707565465735
G90
M571 P"duex.fan4" S0.8
G1 X145.661 Y97.82 E158.11132
M571 P"duex.fan4" S0.0
G91 
G1 F6000 A112.25573909060004
G90
M571 P"duex.fan7" S0.8
G1 X148.075 Y97.477 E158.19241
M571 P"duex.fan7" S0.0
G91 
G1 F6000 A30.95068893929221
G90
M571 P"duex.fan6" S0.8
G1 X150.482 Y97.095 E158.27347
M571 P"duex.fan6" S0.0
G91 
G1 F6000 A112.13181995932038
G90
M571 P"duex.fan5" S0.8
G1 X152.884 Y96.677 E158.35456
M571 P"duex.fan5" S0.0
G91 
G1 F6000 A31.054461618291715
G90
M571 P"duex.fan4" S0.8
G1 X155.279 Y96.22 E158.43566
M571 P"duex.fan4" S0.0
G91 
G1 F6000 A112.01528601512256
G90
M571 P"duex.fan7" S0.8
G1 X157.666 Y95.727 E158.51673
M571 P"duex.fan7" S0.0
G91 
G1 F6000 A-71.50570595611495
G90
M571 P"duex.fan5" S0.8
G1 X160.022 Y114.8 E160.23196
M571 P"duex.fan5" S0.0G0 X157.832 Y113.5
;TYPE:SKIN

G91 
G1 F6000 A67.06902751446572
G90
M571 P"duex.fan5" S0.8
G1 X153.026 Y112.545 E160.47523
M571 P"duex.fan5" S0.0
G91 
G1 F6000 A-68.36588158689048
G90
M571 P"duex.fan5" S0.8
G1 X150.612 Y112.126 E160.55672
M571 P"duex.fan5" S0.0
G91 
G1 F6000 A66.77221366025749
G90
M571 P"duex.fan5" S0.8
G1 X148.192 Y111.741 E160.63823
M571 P"duex.fan5" S0.0
G91 
G1 F6000 A-68.10496923077407
G90
M571 P"duex.fan5" S0.8
G1 X145.766 Y111.398 E160.71972
M571 P"duex.fan5" S0.0
G91 
G1 F6000 A66.59564213224223
G90
M571 P"duex.fan5" S0.8
G1 X143.334 Y111.09 E160.80125
M571 P"duex.fan5" S0.0
G91 
G1 F6000 A-68.02362012030706
G90
M571 P"duex.fan5" S0.8
G1 X140.898 Y110.822 E160.88276
M571 P"duex.fan5" S0.0
G91 
G1 F6000 A66.65687365453844
G90
M571 P"duex.fan5" S0.8
G1 X138.46 Y110.592 E160.96421
M571 P"duex.fan5" S0.0
G91 
G1 F6000 A-68.19550976618925
G90
M571 P"duex.fan5" S0.8
G1 X136.016 Y110.398 E161.04575
M571 P"duex.fan5" S0.0
G91 
G1 F6000 A66.80332128092392
G90
M571 P"duex.fan5" S0.8
G1 X133.571 Y110.245 E161.12723
M571 P"duex.fan5" S0.0
G91 
G1 F6000 A-68.3078675076003
G90
M571 P"duex.fan5" S0.8
G1 X131.124 Y110.129 E161.20871
M571 P"duex.fan5" S0.0
G91 
G1 F6000 A66.87992250338111
G90
M571 P"duex.fan5" S0.8
G1 X128.675 Y110.053 E161.29021
M571 P"duex.fan5" S0.0
G91 
G1 F6000 A-68.30738914148489
G90
M571 P"duex.fan5" S0.8
G1 X126.225 Y110.015 E161.3717
M571 P"duex.fan5" S0.0
G91 
G1 F6000 A66.87992250338111
G90
M571 P"duex.fan5" S0.8
G1 X123.775 Y110.015 E161.45319
M571 P"duex.fan5" S0.0
G91 
G1 F6000 A-68.3078675075999
G90
M571 P"duex.fan5" S0.8
G1 X121.325 Y110.053 E161.53469
M571 P"duex.fan5" S0.0
G91 
G1 F6000 A66.80332128092316
G90
M571 P"duex.fan5" S0.8
G1 X118.876 Y110.129 E161.61618
M571 P"duex.fan5" S0.0
G91 
G1 F6000 A-68.19550976618865
G90
M571 P"duex.fan5" S0.8
G1 X116.429 Y110.245 E161.69766
M571 P"duex.fan5" S0.0
G91 
G1 F6000 A66.65687365453749
G90
M571 P"duex.fan5" S0.8
G1 X113.984 Y110.398 E161.77914
M571 P"duex.fan5" S0.0
G91 
G1 F6000 A-68.02362012030646
G90
M571 P"duex.fan5" S0.8
G1 X111.54 Y110.592 E161.86068
M571 P"duex.fan5" S0.0
G91 
G1 F6000 A66.59564213224147
G90
M571 P"duex.fan5" S0.8
G1 X109.102 Y110.822 E161.94213
M571 P"duex.fan5" S0.0
G91 
G1 F6000 A-68.10496923077298
G90
M571 P"duex.fan5" S0.8
G1 X106.666 Y111.09 E162.02364
M571 P"duex.fan5" S0.0
G91 
G1 F6000 A66.77221366025621
G90
M571 P"duex.fan5" S0.8
G1 X104.234 Y111.398 E162.10518
M571 P"duex.fan5" S0.0
G91 
G1 F6000 A-68.36588158688916
G90
M571 P"duex.fan5" S0.8
G1 X101.808 Y111.741 E162.18667
M571 P"duex.fan5" S0.0
G91 
G1 F6000 A67.06902751446421
G90
M571 P"duex.fan5" S0.8
G1 X99.388 Y112.126 E162.26817
M571 P"duex.fan5" S0.0
G91 
G1 F6000 A-68.66820049065282
G90
M571 P"duex.fan5" S0.8
G1 X96.974 Y112.545 E162.34966
M571 P"duex.fan5" S0.0
G91 
G1 F6000 A67.3936687782172
G90
M571 P"duex.fan5" S0.8
G1 X94.567 Y113.006 E162.43117
M571 P"duex.fan5" S0.0
G91 
G1 F6000 A-69.00836998848337
G90
M571 P"duex.fan5" S0.8
G1 X92.168 Y113.5 E162.51264
M571 P"duex.fan5" S0.0
G91 
G1 F6000 A-55.26342577778271
G90
M571 P"duex.fan6" S0.8
G1 X89.894 Y114.01 E162.59015
M571 P"duex.fan6" S0.0
G91 
G1 F6000 A-69.00836998848445
G90
M571 P"duex.fan5" S0.8
G1 X89.894 Y95.99 E164.1144
M571 P"duex.fan5" S0.0
G91 
G1 F6000 A-77.18464447479344
G90
M571 P"duex.fan6" S0.8
G1 X92.168 Y96.5 E164.19191
M571 P"duex.fan6" S0.0
G91 
G1 F6000 A-68.66820049065441
G90
M571 P"duex.fan7" S0.8
G1 X94.567 Y96.994 E164.27337
M571 P"duex.fan7" S0.0
G91 
G1 F6000 A-77.50928573854588
G90
M571 P"duex.fan4" S0.8
G1 X96.974 Y97.455 E164.35489
M571 P"duex.fan4" S0.0
G91 
G1 F6000 A-68.36588158689204
G90
M571 P"duex.fan5" S0.8
G1 X99.388 Y97.874 E164.43638
M571 P"duex.fan5" S0.0
G91 
G1 F6000 A-77.80609959275219
G90
M571 P"duex.fan6" S0.8
G1 X101.808 Y98.259 E164.51788
M571 P"duex.fan6" S0.0
G91 
G1 F6000 A-68.10496923077633
G90
M571 P"duex.fan7" S0.8
G1 X104.234 Y98.602 E164.59937
M571 P"duex.fan7" S0.0
G91 
G1 F6000 A-77.98267112076682
G90
M571 P"duex.fan4" S0.8
G1 X106.666 Y98.91 E164.6809
M571 P"duex.fan4" S0.0
G91 
G1 F6000 A-68.0236201203111
G90
M571 P"duex.fan5" S0.8
G1 X109.102 Y99.178 E164.76242
M571 P"duex.fan5" S0.0
G91 
G1 F6000 A-77.92143959846894
G90
M571 P"duex.fan6" S0.8
G1 X111.54 Y99.408 E164.84386
M571 P"duex.fan6" S0.0
G91 
G1 F6000 A-68.19550976619409
G90
M571 P"duex.fan7" S0.8
G1 X113.984 Y99.602 E164.92541
M571 P"duex.fan7" S0.0
G91 
G1 F6000 A-77.77499197208321
G90
M571 P"duex.fan4" S0.8
G1 X116.429 Y99.755 E165.00689
M571 P"duex.fan4" S0.0
G91 
G1 F6000 A-68.30786750760636
G90
M571 P"duex.fan5" S0.8
G1 X118.876 Y99.871 E165.08837
M571 P"duex.fan5" S0.0
G91 
G1 F6000 A-77.69839074962367
G90
M571 P"duex.fan6" S0.8
G1 X121.325 Y99.947 E165.16986
M571 P"duex.fan6" S0.0
G91 
G1 F6000 A-68.30738914149211
G90
M571 P"duex.fan7" S0.8
G1 X123.775 Y99.985 E165.25136
M571 P"duex.fan7" S0.0
G91 
G1 F6000 A65.45197749916949
G90
M571 P"duex.fan7" S0.8
G1 X128.675 Y99.947 E165.41434
M571 P"duex.fan7" S0.0
G91 
G1 F6000 A77.62178952716594
G90
M571 P"duex.fan6" S0.8
G1 X131.124 Y99.871 E165.49583
M571 P"duex.fan6" S0.0
G91 
G1 F6000 A65.56433524057982
G90
M571 P"duex.fan5" S0.8
G1 X133.571 Y99.755 E165.57731
M571 P"duex.fan5" S0.0
G91 
G1 F6000 A77.47534190078242
G90
M571 P"duex.fan4" S0.8
G1 X136.016 Y99.602 E165.65879
M571 P"duex.fan4" S0.0
G91 
G1 F6000 A65.73622488646073
G90
M571 P"duex.fan7" S0.8
G1 X138.46 Y99.408 E165.74034
M571 P"duex.fan7" S0.0
G91 
G1 F6000 A77.41411037848613
G90
M571 P"duex.fan6" S0.8
G1 X140.898 Y99.178 E165.82178
M571 P"duex.fan6" S0.0
G91 
G1 F6000 A65.65487577599349
G90
M571 P"duex.fan5" S0.8
G1 X143.334 Y98.91 E165.9033
M571 P"duex.fan5" S0.0
G91 
G1 F6000 A77.59068190650358
G90
M571 P"duex.fan4" S0.8
G1 X145.766 Y98.602 E165.98483
M571 P"duex.fan4" S0.0
G91 
G1 F6000 A65.39396341987562
G90
M571 P"duex.fan7" S0.8
G1 X148.192 Y98.259 E166.06632
M571 P"duex.fan7" S0.0
G91 
G1 F6000 A77.88749576071125
G90
M571 P"duex.fan6" S0.8
G1 X150.612 Y97.874 E166.14782
M571 P"duex.fan6" S0.0
G91 
G1 F6000 A65.09164451611132
G90
M571 P"duex.fan5" S0.8
G1 X153.026 Y97.455 E166.22931
M571 P"duex.fan5" S0.0
G91 
G1 F6000 A78.21213702446633
G90
M571 P"duex.fan4" S0.8
G1 X155.433 Y96.994 E166.31083
M571 P"duex.fan4" S0.0
G91 
G1 F6000 A64.75147501827958
G90
M571 P"duex.fan7" S0.8
G1 X157.832 Y96.5 E166.39229
M571 P"duex.fan7" S0.0
G91 
G1 F6000 A-24.138440044789537
G90
M571 P"duex.fan5" S0.8
G1 X160.106 Y114.01 E167.99405
M571 P"duex.fan5" S0.0
G91 
G1 F6000 A-68.45449889230514
G90
M571 P"duex.fan5" S0.8
G0 F5400 X173.096 Y96.17
M571 P"duex.fan5" S0.0
G91 
G1 F6000 A68.45176371614826
G90
M571 P"duex.fan5" S0.8
G0 F5400 X170.833 Y96.17
M571 P"duex.fan5" S0.0
G91 
G1 F6000 A-68.44893506705502
G90
M571 P"duex.fan5" S0.8
G0 F5400 X169.702 Y96.17
M571 P"duex.fan5" S0.0
G91 
G1 F6000 A68.44899544187443
G90
M571 P"duex.fan5" S0.8
G0 F5400 X167.439 Y96.17
M571 P"duex.fan5" S0.0
G91 
G1 F6000 A-68.44893602702507
G90
M571 P"duex.fan5" S0.8
G0 F5400 X165.176 Y96.17
M571 P"duex.fan5" S0.0
G91 
G1 F6000 A68.44598758826294
G90
M571 P"duex.fan5" S0.8
G0 F5400 X162.913 Y96.17
M571 P"duex.fan5" S0.0
G91 
G1 F6000 A-68.4459875882629
G90
M571 P"duex.fan5" S0.8
G0 F5400 X161.782 Y96.17
M571 P"duex.fan5" S0.0
G91 
G1 F6000 A68.44904961337483
G90
M571 P"duex.fan5" S0.8
G0 F5400 X160.651 Y96.17
M571 P"duex.fan5" S0.0
G91 
G1 F6000 A-68.45211163848703
G90
M571 P"duex.fan5" S0.8
G0 F5400 X159.345 Y96.344
M571 P"duex.fan5" S0.0
G91 
G1 F6000 A68.45211163848698
G90
M571 P"duex.fan5" S0.8
G0 F5400 X157.886 Y96.672
M571 P"duex.fan5" S0.0
G91 
G1 F6000 A-68.45211163848703
G90
M571 P"duex.fan5" S0.8
G0 F5400 X156.461 Y96.965
M571 P"duex.fan5" S0.0
G91 
G1 F6000 A68.45211163848698
G90
M571 P"duex.fan5" S0.8
G0 F5400 X155.045 Y97.25
M571 P"duex.fan5" S0.0
G91 
G1 F6000 A-68.44859605799623
G90
M571 P"duex.fan5" S0.8
G0 F5400 X153.645 Y97.519
M571 P"duex.fan5" S0.0
G91 
G1 F6000 A68.44508047750526
G90
M571 P"duex.fan5" S0.8
G0 F5400 X152.263 Y97.769
M571 P"duex.fan5" S0.0
G91 
G1 F6000 A-68.44137167253992
G90
M571 P"duex.fan5" S0.8
G0 F5400 X150.895 Y98.006
M571 P"duex.fan5" S0.0
G91 
G1 F6000 A68.4376628675743
G90
M571 P"duex.fan5" S0.8
G0 F5400 X149.544 Y98.225
M571 P"duex.fan5" S0.0
G91 
G1 F6000 A-68.43376561505191
G90
M571 P"duex.fan5" S0.8
G0 F5400 X148.199 Y98.439
M571 P"duex.fan5" S0.0
G91 
G1 F6000 A68.42986836252969
G90
M571 P"duex.fan5" S0.8
G0 F5400 X146.882 Y98.625
M571 P"duex.fan5" S0.0
G91 
G1 F6000 A-68.4298683625295
G90
M571 P"duex.fan5" S0.8
G0 F5400 X145.568 Y98.807
M571 P"duex.fan5" S0.0
G91 
G1 F6000 A68.43402354346087
G90
M571 P"duex.fan5" S0.8
G0 F5400 X144.272 Y98.972
M571 P"duex.fan5" S0.0
G91 
G1 F6000 A-68.43817872439192
G90
M571 P"duex.fan5" S0.8
G0 F5400 X142.984 Y99.129
M571 P"duex.fan5" S0.0
G91 
G1 F6000 A68.43817872439206
G90
M571 P"duex.fan5" S0.8
G0 F5400 X141.712 Y99.269
M571 P"duex.fan5" S0.0
G91 
G1 F6000 A-68.43817872439206
G90
M571 P"duex.fan5" S0.8
G0 F5400 X140.449 Y99.4
M571 P"duex.fan5" S0.0
G91 
G1 F6000 A68.438178724392
G90
M571 P"duex.fan5" S0.8
G0 F5400 X139.2 Y99.518
M571 P"duex.fan5" S0.0
G91 
G1 F6000 A-68.43368078113839
G90
M571 P"duex.fan5" S0.8
G0 F5400 X137.96 Y99.627
M571 P"duex.fan5" S0.0
G91 
G1 F6000 A68.42918283788481
G90
M571 P"duex.fan5" S0.8
G0 F5400 X136.73 Y99.726
M571 P"duex.fan5" S0.0
G91 
G1 F6000 A-68.42918283788481
G90
M571 P"duex.fan5" S0.8
G0 F5400 X135.511 Y99.813
M571 P"duex.fan5" S0.0
G91 
G1 F6000 A68.42918283788481
G90
M571 P"duex.fan5" S0.8
G0 F5400 X134.304 Y99.889
M571 P"duex.fan5" S0.0
G91 
G1 F6000 A-68.42918283788485
G90
M571 P"duex.fan5" S0.8
G0 F5400 X133.105 Y99.957
M571 P"duex.fan5" S0.0
G91 
G1 F6000 A68.42918283788481
G90
M571 P"duex.fan5" S0.8
G0 F5400 X131.917 Y100.013
M571 P"duex.fan5" S0.0
G91 
G1 F6000 A-68.42449760434997
G90
M571 P"duex.fan5" S0.8
G0 F5400 X130.736 Y100.063
M571 P"duex.fan5" S0.0
G91 
G1 F6000 A68.41981237081559
G90
M571 P"duex.fan5" S0.8
G0 F5400 X129.568 Y100.099
M571 P"duex.fan5" S0.0
G91 
G1 F6000 A-68.41981237081549
G90
M571 P"duex.fan5" S0.8
G0 F5400 X128.405 Y100.131
M571 P"duex.fan5" S0.0
G91 
G1 F6000 A68.41514992145663
G90
M571 P"duex.fan5" S0.8
G0 F5400 X127.256 Y100.148
M571 P"duex.fan5" S0.0
G91 
G1 F6000 A-68.41048747209787
G90
M571 P"duex.fan5" S0.8
G0 F5400 X126.109 Y100.164
M571 P"duex.fan5" S0.0
G91 
G1 F6000 A68.41048747209787
G90
M571 P"duex.fan5" S0.8
G0 F5400 X124.978 Y100.164
M571 P"duex.fan5" S0.0
G91 
G1 F6000 A-68.41048747209787
G90
M571 P"duex.fan5" S0.8
G0 F5400 X123.846 Y100.164
M571 P"duex.fan5" S0.0
G91 
G1 F6000 A68.4104874720986
G90
M571 P"duex.fan7" S0.8
G0 F5400 X76.17 Y112.202
M571 P"duex.fan7" S0.0
G91 
G1 F6000 A-68.4104874720986
G90
M571 P"duex.fan7" S0.8
G0 F5400 X76.17 Y111.071
M571 P"duex.fan7" S0.0
G91 
G1 F6000 A68.4071428224809
G90
M571 P"duex.fan7" S0.8
G0 F5400 X76.17 Y109.94
M571 P"duex.fan7" S0.0
G91 
G1 F6000 A-68.4037981728634
G90
M571 P"duex.fan7" S0.8
G0 F5400 X76.17 Y108.808
M571 P"duex.fan7" S0.0
G91 
G1 F6000 A68.4037981728634
G90
M571 P"duex.fan7" S0.8
G0 F5400 X76.17 Y107.677
M571 P"duex.fan7" S0.0
G91 
G1 F6000 A-68.40379817286414
G90
M571 P"duex.fan5" S0.8
G0 F5400 X87.113 Y96.168
M571 P"duex.fan5" S0.0
G91 
G1 F6000 A68.3993635107207
G90
M571 P"duex.fan7" S0.8
G0 F5400 X76.17 Y106.546
M571 P"duex.fan7" S0.0
G91 
G1 F6000 A-68.39492884857727
G90
M571 P"duex.fan5" S0.8
G0 F5400 X85.982 Y96.168
M571 P"duex.fan5" S0.0
G91 
G1 F6000 A68.39492884857799
G90
M571 P"duex.fan7" S0.8
G0 F5400 X76.17 Y105.414
M571 P"duex.fan7" S0.0
G91 
G1 F6000 A-68.39492884857799
G90
M571 P"duex.fan7" S0.8
G0 F5400 X76.17 Y104.283
M571 P"duex.fan7" S0.0
G91 
G1 F6000 A68.39492884857727
G90
M571 P"duex.fan5" S0.8
G0 F5400 X83.719 Y96.168
M571 P"duex.fan5" S0.0
G91 
G1 F6000 A-68.40151876858187
G90
M571 P"duex.fan7" S0.8
G0 F5400 X76.17 Y103.152
M571 P"duex.fan7" S0.0
G91 
G1 F6000 A68.40810868858644
G90
M571 P"duex.fan5" S0.8
G0 F5400 X81.456 Y96.168
M571 P"duex.fan5" S0.0
G91 
G1 F6000 A-68.41785780547221
G90
M571 P"duex.fan7" S0.8
G0 F5400 X76.17 Y100.889
M571 P"duex.fan7" S0.0
G91 
G1 F6000 A68.42760692235849
G90
M571 P"duex.fan5" S0.8
G0 F5400 X80.325 Y96.168
M571 P"duex.fan5" S0.0
G91 
G1 F6000 A-68.42760692235758
G90
M571 P"duex.fan7" S0.8
G0 F5400 X76.17 Y99.757
M571 P"duex.fan7" S0.0
G91 
G1 F6000 A68.42760692235758
G90
M571 P"duex.fan7" S0.8
G0 F5400 X76.17 Y98.626
M571 P"duex.fan7" S0.0
G91 
G1 F6000 A-68.42760692235831
G90
M571 P"duex.fan5" S0.8
G0 F5400 X78.062 Y96.168
M571 P"duex.fan5" S0.0G1 F1800 X76.365 Y96.168 E280.27819
;MESH:NONMESH
G0 X157.75 Y113.882
;TIME_ELAPSED:309.549952
;LAYER:2
;TYPE:WALL-INNER
;MESH:Pruefk??rper_V1.stl

G91 
G1 F6000 A11.995201466514658
G90
M571 P"duex.fan6" S0.8
G1 X152.956 Y112.929 E280.44076
M571 P"duex.fan6" S0.0
G91 
G1 F6000 A-13.369575024225549
G90
M571 P"duex.fan6" S0.8
G1 X150.548 Y112.51 E280.52206
M571 P"duex.fan6" S0.0
G91 
G1 F6000 A11.846417464750518
G90
M571 P"duex.fan6" S0.8
G1 X148.134 Y112.127 E280.60335
M571 P"duex.fan6" S0.0
G91 
G1 F6000 A-13.252401372436125
G90
M571 P"duex.fan6" S0.8
G1 X145.714 Y111.784 E280.68465
M571 P"duex.fan6" S0.0
G91 
G1 F6000 A11.809375047190144
G90
M571 P"duex.fan6" S0.8
G1 X143.289 Y111.478 E280.76594
M571 P"duex.fan6" S0.0
G91 
G1 F6000 A-13.240823123529328
G90
M571 P"duex.fan6" S0.8
G1 X140.859 Y111.21 E280.84725
M571 P"duex.fan6" S0.0
G91 
G1 F6000 A11.795676035958978
G90
M571 P"duex.fan6" S0.8
G1 X138.427 Y110.98 E280.9285
M571 P"duex.fan6" S0.0
G91 
G1 F6000 A-13.263030867954896
G90
M571 P"duex.fan6" S0.8
G1 X135.989 Y110.788 E281.00984
M571 P"duex.fan6" S0.0
G91 
G1 F6000 A11.867429644780621
G90
M571 P"duex.fan6" S0.8
G1 X133.55 Y110.635 E281.09112
M571 P"duex.fan6" S0.0
G91 
G1 F6000 A-13.3756682376115
G90
M571 P"duex.fan6" S0.8
G1 X131.109 Y110.519 E281.1724
M571 P"duex.fan6" S0.0
G91 
G1 F6000 A11.944218722012748
G90
M571 P"duex.fan6" S0.8
G1 X128.666 Y110.443 E281.2537
M571 P"duex.fan6" S0.0
G91 
G1 F6000 A-13.375189215047607
G90
M571 P"duex.fan6" S0.8
G1 X126.222 Y110.405 E281.335
M571 P"duex.fan6" S0.0
G91 
G1 F6000 A11.944218722012335
G90
M571 P"duex.fan6" S0.8
G1 X123.778 Y110.405 E281.41628
M571 P"duex.fan6" S0.0
G91 
G1 F6000 A-13.375668237611087
G90
M571 P"duex.fan6" S0.8
G1 X121.334 Y110.443 E281.49758
M571 P"duex.fan6" S0.0
G91 
G1 F6000 A11.867429644780394
G90
M571 P"duex.fan6" S0.8
G1 X118.891 Y110.519 E281.57887
M571 P"duex.fan6" S0.0
G91 
G1 F6000 A-13.263030867954622
G90
M571 P"duex.fan6" S0.8
G1 X116.45 Y110.635 E281.66015
M571 P"duex.fan6" S0.0
G91 
G1 F6000 A11.795676035959161
G90
M571 P"duex.fan6" S0.8
G1 X114.011 Y110.788 E281.74143
M571 P"duex.fan6" S0.0
G91 
G1 F6000 A-13.240823123529328
G90
M571 P"duex.fan6" S0.8
G1 X111.573 Y110.98 E281.82277
M571 P"duex.fan6" S0.0
G91 
G1 F6000 A11.809375047190418
G90
M571 P"duex.fan6" S0.8
G1 X109.141 Y111.21 E281.90402
M571 P"duex.fan6" S0.0
G91 
G1 F6000 A-13.252401372436262
G90
M571 P"duex.fan6" S0.8
G1 X106.711 Y111.478 E281.98534
M571 P"duex.fan6" S0.0
G91 
G1 F6000 A11.846417464750745
G90
M571 P"duex.fan6" S0.8
G1 X104.286 Y111.784 E282.06663
M571 P"duex.fan6" S0.0
G91 
G1 F6000 A-13.369575024226096
G90
M571 P"duex.fan6" S0.8
G1 X101.866 Y112.127 E282.14793
M571 P"duex.fan6" S0.0
G91 
G1 F6000 A11.995201466515525
G90
M571 P"duex.fan6" S0.8
G1 X99.452 Y112.51 E282.22922
M571 P"duex.fan6" S0.0
G91 
G1 F6000 A-13.524269843968243
G90
M571 P"duex.fan6" S0.8
G1 X97.044 Y112.929 E282.31051
M571 P"duex.fan6" S0.0
G91 
G1 F6000 A12.172689509575676
G90
M571 P"duex.fan6" S0.8
G1 X94.643 Y113.388 E282.39182
M571 P"duex.fan6" S0.0
G91 
G1 F6000 A-13.705031962642824
G90
M571 P"duex.fan6" S0.8
G1 X92.25 Y113.882 E282.47309
M571 P"duex.fan6" S0.0
G91 
G1 F6000 A33.97477429821648
G90
M571 P"duex.fan6" S0.8
G1 X89.936 Y114.4 E282.55196
M571 P"duex.fan6" S0.0
G91 
G1 F6000 A-13.705031962642755
G90
M571 P"duex.fan4" S0.8
G1 X89.936 Y95.6 E284.13088
M571 P"duex.fan4" S0.0
G91 
G1 F6000 A12.172689509575987
G90
M571 P"duex.fan4" S0.8
G1 X92.25 Y96.118 E284.20975
M571 P"duex.fan4" S0.0
G91 
G1 F6000 A-13.524269843968046
G90
M571 P"duex.fan4" S0.8
G1 X94.643 Y96.612 E284.29102
M571 P"duex.fan4" S0.0
G91 
G1 F6000 A11.995201466515276
G90
M571 P"duex.fan4" S0.8
G1 X97.044 Y97.071 E284.37232
M571 P"duex.fan4" S0.0
G91 
G1 F6000 A-13.369575024226199
G90
M571 P"duex.fan4" S0.8
G1 X99.452 Y97.49 E284.45362
M571 P"duex.fan4" S0.0
G91 
G1 F6000 A11.84641746475115
G90
M571 P"duex.fan4" S0.8
G1 X101.866 Y97.873 E284.53491
M571 P"duex.fan4" S0.0
G91 
G1 F6000 A-13.25240137243676
G90
M571 P"duex.fan4" S0.8
G1 X104.286 Y98.216 E284.6162
M571 P"duex.fan4" S0.0
G91 
G1 F6000 A-132.768938205822
G90
M571 P"duex.fan5" S0.8
G1 X106.711 Y98.522 E284.6975
M571 P"duex.fan5" S0.0
G91 
G1 F6000 A-13.240823123527761
G90
M571 P"duex.fan6" S0.8
G1 X109.141 Y98.79 E284.77881
M571 P"duex.fan6" S0.0
G91 
G1 F6000 A-132.78263721705454
G90
M571 P"duex.fan7" S0.8
G1 X111.573 Y99.02 E284.86006
M571 P"duex.fan7" S0.0
G91 
G1 F6000 A-13.263030867953786
G90
M571 P"duex.fan4" S0.8
G1 X114.011 Y99.212 E284.9414
M571 P"duex.fan4" S0.0
G91 
G1 F6000 A-132.71088360823262
G90
M571 P"duex.fan5" S0.8
G1 X116.45 Y99.365 E285.02268
M571 P"duex.fan5" S0.0
G91 
G1 F6000 A-13.375668237609624
G90
M571 P"duex.fan6" S0.8
G1 X118.891 Y99.481 E285.10396
M571 P"duex.fan6" S0.0
G91 
G1 F6000 A-132.63409453100147
G90
M571 P"duex.fan7" S0.8
G1 X121.334 Y99.557 E285.18526
M571 P"duex.fan7" S0.0
G91 
G1 F6000 A-13.375189215046147
G90
M571 P"duex.fan4" S0.8
G1 X123.778 Y99.595 E285.26655
M571 P"duex.fan4" S0.0
G91 
G1 F6000 A10.51276920641185
G90
M571 P"duex.fan4" S0.8
G1 X128.666 Y99.557 E285.42914
M571 P"duex.fan4" S0.0
G91 
G1 F6000 A132.55730545376946
G90
M571 P"duex.fan7" S0.8
G1 X131.109 Y99.481 E285.51043
M571 P"duex.fan7" S0.0
G91 
G1 F6000 A10.625406576068544
G90
M571 P"duex.fan6" S0.8
G1 X133.55 Y99.365 E285.59171
M571 P"duex.fan6" S0.0
G91 
G1 F6000 A132.48555184494694
G90
M571 P"duex.fan5" S0.8
G1 X135.989 Y99.212 E285.67299
M571 P"duex.fan5" S0.0
G91 
G1 F6000 A10.647614320495116
G90
M571 P"duex.fan4" S0.8
G1 X138.427 Y99.02 E285.75433
M571 P"duex.fan4" S0.0
G91 
G1 F6000 A132.49925085617824
G90
M571 P"duex.fan7" S0.8
G1 X140.859 Y98.79 E285.83558
M571 P"duex.fan7" S0.0
G91 
G1 F6000 A10.636036071587862
G90
M571 P"duex.fan6" S0.8
G1 X143.289 Y98.522 E285.91689
M571 P"duex.fan6" S0.0
G91 
G1 F6000 A-12.042019979273471
G90
M571 P"duex.fan6" S0.8
G1 X145.714 Y98.216 E285.99819
M571 P"duex.fan6" S0.0
G91 
G1 F6000 A10.518862419798804
G90
M571 P"duex.fan6" S0.8
G1 X148.134 Y97.873 E286.07948
M571 P"duex.fan6" S0.0
G91 
G1 F6000 A-11.89323597750965
G90
M571 P"duex.fan6" S0.8
G1 X150.548 Y97.49 E286.16078
M571 P"duex.fan6" S0.0
G91 
G1 F6000 A10.364167600056977
G90
M571 P"duex.fan6" S0.8
G1 X152.956 Y97.071 E286.24207
M571 P"duex.fan6" S0.0
G91 
G1 F6000 A-11.7157479344495
G90
M571 P"duex.fan6" S0.8
G1 X155.357 Y96.612 E286.32338
M571 P"duex.fan6" S0.0
G91 
G1 F6000 A10.183405481383081
G90
M571 P"duex.fan6" S0.8
G1 X157.75 Y96.118 E286.40464
M571 P"duex.fan6" S0.0
G91 
G1 F6000 A30.356079189763644
G90
M571 P"duex.fan4" S0.8
G1 X160.064 Y114.4 E288.06244
M571 P"duex.fan4" S0.0G0 F7200 X157.666 Y114.273
;TYPE:WALL-OUTER

G91 
G1 F6000 A-34.76743314523057
G90
M571 P"duex.fan4" S0.8
G1 X152.884 Y113.323 E288.30347
M571 P"duex.fan4" S0.0
G91 
G1 F6000 A33.395547922111014
G90
M571 P"duex.fan4" S0.8
G1 X150.482 Y112.905 E288.38456
M571 P"duex.fan4" S0.0
G91 
G1 F6000 A-34.89104642986621
G90
M571 P"duex.fan4" S0.8
G1 X148.075 Y112.523 E288.46562
M571 P"duex.fan4" S0.0
G91 
G1 F6000 A33.44418097932905
G90
M571 P"duex.fan4" S0.8
G1 X145.661 Y112.18 E288.54672
M571 P"duex.fan4" S0.0
G91 
G1 F6000 A-34.8908006651785
G90
M571 P"duex.fan4" S0.8
G1 X143.242 Y111.875 E288.62781
M571 P"duex.fan4" S0.0
G91 
G1 F6000 A33.45577674289389
G90
M571 P"duex.fan4" S0.8
G1 X140.818 Y111.608 E288.70892
M571 P"duex.fan4" S0.0
G91 
G1 F6000 A-34.86391470519165
G90
M571 P"duex.fan4" S0.8
G1 X138.392 Y111.379 E288.78997
M571 P"duex.fan4" S0.0
G91 
G1 F6000 A33.38999970863111
G90
M571 P"duex.fan4" S0.8
G1 X135.961 Y111.187 E288.87108
M571 P"duex.fan4" S0.0
G91 
G1 F6000 A-34.8267448841873
G90
M571 P"duex.fan4" S0.8
G1 X133.528 Y111.034 E288.95216
M571 P"duex.fan4" S0.0
G91 
G1 F6000 A33.353687456187835
G90
M571 P"duex.fan4" S0.8
G1 X131.093 Y110.919 E289.03324
M571 P"duex.fan4" S0.0
G91 
G1 F6000 A-34.789835894337116
G90
M571 P"duex.fan4" S0.8
G1 X128.657 Y110.843 E289.1143
M571 P"duex.fan4" S0.0
G91 
G1 F6000 A33.355344304339425
G90
M571 P"duex.fan4" S0.8
G1 X126.219 Y110.805 E289.1954
M571 P"duex.fan4" S0.0
G91 
G1 F6000 A-34.78983589433725
G90
M571 P"duex.fan4" S0.8
G1 X123.781 Y110.805 E289.27648
M571 P"duex.fan4" S0.0
G91 
G1 F6000 A33.353687456188105
G90
M571 P"duex.fan4" S0.8
G1 X121.343 Y110.843 E289.35758
M571 P"duex.fan4" S0.0
G91 
G1 F6000 A-34.82674488418762
G90
M571 P"duex.fan4" S0.8
G1 X118.907 Y110.919 E289.43864
M571 P"duex.fan4" S0.0
G91 
G1 F6000 A33.389999708631294
G90
M571 P"duex.fan4" S0.8
G1 X116.472 Y111.034 E289.51972
M571 P"duex.fan4" S0.0
G91 
G1 F6000 A-34.86391470519183
G90
M571 P"duex.fan4" S0.8
G1 X114.039 Y111.187 E289.6008
M571 P"duex.fan4" S0.0
G91 
G1 F6000 A33.45577674289394
G90
M571 P"duex.fan4" S0.8
G1 X111.608 Y111.379 E289.68191
M571 P"duex.fan4" S0.0
G91 
G1 F6000 A-34.89080066517832
G90
M571 P"duex.fan4" S0.8
G1 X109.182 Y111.608 E289.76296
M571 P"duex.fan4" S0.0
G91 
G1 F6000 A33.444180979328635
G90
M571 P"duex.fan4" S0.8
G1 X106.758 Y111.875 E289.84407
M571 P"duex.fan4" S0.0
G91 
G1 F6000 A-34.89104642986589
G90
M571 P"duex.fan4" S0.8
G1 X104.339 Y112.18 E289.92516
M571 P"duex.fan4" S0.0
G91 
G1 F6000 A33.39554792211042
G90
M571 P"duex.fan4" S0.8
G1 X101.925 Y112.523 E290.00626
M571 P"duex.fan4" S0.0
G91 
G1 F6000 A-34.76743314522952
G90
M571 P"duex.fan4" S0.8
G1 X99.518 Y112.905 E290.08732
M571 P"duex.fan4" S0.0
G91 
G1 F6000 A33.27162879083017
G90
M571 P"duex.fan4" S0.8
G1 X97.116 Y113.323 E290.16841
M571 P"duex.fan4" S0.0
G91 
G1 F6000 A-34.663660466230105
G90
M571 P"duex.fan4" S0.8
G1 X94.721 Y113.78 E290.2495
M571 P"duex.fan4" S0.0
G91 
G1 F6000 A33.15509484663212
G90
M571 P"duex.fan4" S0.8
G1 X92.334 Y114.273 E290.33057
M571 P"duex.fan4" S0.0
G91 
G1 F6000 A-12.90030481712815
G90
M571 P"duex.fan4" S0.8
G1 X89.978 Y114.8 E290.41087
M571 P"duex.fan4" S0.0
G91 
G1 F6000 A-111.42321840637955
G90
M571 P"duex.fan7" S0.8
G1 X89.978 Y95.2 E292.0458
M571 P"duex.fan7" S0.0
G91 
G1 F6000 A-34.6636604662307
G90
M571 P"duex.fan4" S0.8
G1 X92.334 Y95.727 E292.1261
M571 P"duex.fan4" S0.0
G91 
G1 F6000 A-111.30668446218156
G90
M571 P"duex.fan5" S0.8
G1 X94.721 Y96.22 E292.20717
M571 P"duex.fan5" S0.0
G91 
G1 F6000 A-34.76743314522923
G90
M571 P"duex.fan6" S0.8
G1 X97.116 Y96.677 E292.28826
M571 P"duex.fan6" S0.0
G91 
G1 F6000 A-111.18276533090203
G90
M571 P"duex.fan7" S0.8
G1 X99.518 Y97.095 E292.36936
M571 P"duex.fan7" S0.0
G91 
G1 F6000 A-34.89104642986591
G90
M571 P"duex.fan4" S0.8
G1 X101.925 Y97.477 E292.45041
M571 P"duex.fan4" S0.0
G91 
G1 F6000 A-111.13413227368359
G90
M571 P"duex.fan5" S0.8
G1 X104.339 Y97.82 E292.53151
M571 P"duex.fan5" S0.0
G91 
G1 F6000 A-34.8908006651773
G90
M571 P"duex.fan6" S0.8
G1 X106.758 Y98.125 E292.6126
M571 P"duex.fan6" S0.0
G91 
G1 F6000 A-111.12253651011908
G90
M571 P"duex.fan7" S0.8
G1 X109.182 Y98.392 E292.69371
M571 P"duex.fan7" S0.0
G91 
G1 F6000 A-34.863914705191064
G90
M571 P"duex.fan4" S0.8
G1 X111.608 Y98.621 E292.77476
M571 P"duex.fan4" S0.0
G91 
G1 F6000 A-111.18831354438204
G90
M571 P"duex.fan5" S0.8
G1 X114.039 Y98.813 E292.85587
M571 P"duex.fan5" S0.0
G91 
G1 F6000 A-34.82674488418562
G90
M571 P"duex.fan6" S0.8
G1 X116.472 Y98.966 E292.93695
M571 P"duex.fan6" S0.0
G91 
G1 F6000 A-111.2246257968257
G90
M571 P"duex.fan7" S0.8
G1 X118.907 Y99.081 E293.01803
M571 P"duex.fan7" S0.0
G91 
G1 F6000 A-34.78983589433573
G90
M571 P"duex.fan4" S0.8
G1 X121.343 Y99.157 E293.09909
M571 P"duex.fan4" S0.0
G91 
G1 F6000 A-111.22296894867458
G90
M571 P"duex.fan5" S0.8
G1 X123.781 Y99.195 E293.18019
M571 P"duex.fan5" S0.0
G91 
G1 F6000 A108.35232892052774
G90
M571 P"duex.fan5" S0.8
G1 X128.657 Y99.157 E293.34238
M571 P"duex.fan5" S0.0
G91 
G1 F6000 A34.75292690448525
G90
M571 P"duex.fan4" S0.8
G1 X131.093 Y99.081 E293.42344
M571 P"duex.fan4" S0.0
G91 
G1 F6000 A108.38864117297115
G90
M571 P"duex.fan7" S0.8
G1 X133.528 Y98.966 E293.50452
M571 P"duex.fan7" S0.0
G91 
G1 F6000 A34.71575708347985
G90
M571 P"duex.fan6" S0.8
G1 X135.961 Y98.813 E293.5856
M571 P"duex.fan6" S0.0
G91 
G1 F6000 A108.45441820723384
G90
M571 P"duex.fan5" S0.8
G1 X138.392 Y98.621 E293.6667
M571 P"duex.fan5" S0.0
G91 
G1 F6000 A34.68887112349413
G90
M571 P"duex.fan4" S0.8
G1 X140.818 Y98.392 E293.74775
M571 P"duex.fan4" S0.0
G91 
G1 F6000 A108.44282244366899
G90
M571 P"duex.fan7" S0.8
G1 X143.242 Y98.125 E293.82886
M571 P"duex.fan7" S0.0
G91 
G1 F6000 A34.68862535880579
G90
M571 P"duex.fan6" S0.8
G1 X145.661 Y97.82 E293.90996
M571 P"duex.fan6" S0.0
G91 
G1 F6000 A108.3941893864505
G90
M571 P"duex.fan5" S0.8
G1 X148.075 Y97.477 E293.99105
M571 P"duex.fan5" S0.0
G91 
G1 F6000 A34.81223864344248
G90
M571 P"duex.fan4" S0.8
G1 X150.482 Y97.095 E294.07211
M571 P"duex.fan4" S0.0
G91 
G1 F6000 A108.27027025517084
G90
M571 P"duex.fan7" S0.8
G1 X152.884 Y96.677 E294.1532
M571 P"duex.fan7" S0.0
G91 
G1 F6000 A34.91601132244089
G90
M571 P"duex.fan6" S0.8
G1 X155.279 Y96.22 E294.2343
M571 P"duex.fan6" S0.0
G91 
G1 F6000 A108.15373631097229
G90
M571 P"duex.fan5" S0.8
G1 X157.666 Y95.727 E294.31537
M571 P"duex.fan5" S0.0
G91 
G1 F6000 A-67.64415625196322
G90
M571 P"duex.fan7" S0.8
G1 X160.022 Y114.8 E296.0306
M571 P"duex.fan7" S0.0G0 X157.832 Y113.5
;TYPE:SKIN

G91 
G1 F6000 A63.20747781031398
G90
M571 P"duex.fan7" S0.8
G1 X153.026 Y112.545 E296.27387
M571 P"duex.fan7" S0.0
G91 
G1 F6000 A-64.50433188273875
G90
M571 P"duex.fan7" S0.8
G1 X150.612 Y112.126 E296.35536
M571 P"duex.fan7" S0.0
G91 
G1 F6000 A62.910663956105765
G90
M571 P"duex.fan7" S0.8
G1 X148.192 Y111.741 E296.43686
M571 P"duex.fan7" S0.0
G91 
G1 F6000 A-64.24341952662198
G90
M571 P"duex.fan7" S0.8
G1 X145.766 Y111.398 E296.51836
M571 P"duex.fan7" S0.0
G91 
G1 F6000 A62.73409242809014
G90
M571 P"duex.fan7" S0.8
G1 X143.334 Y111.09 E296.59989
M571 P"duex.fan7" S0.0
G91 
G1 F6000 A-64.16207041615496
G90
M571 P"duex.fan7" S0.8
G1 X140.898 Y110.822 E296.6814
M571 P"duex.fan7" S0.0
G91 
G1 F6000 A62.795323950386354
G90
M571 P"duex.fan7" S0.8
G1 X138.46 Y110.592 E296.76285
M571 P"duex.fan7" S0.0
G91 
G1 F6000 A-64.33396006203715
G90
M571 P"duex.fan7" S0.8
G1 X136.016 Y110.398 E296.84439
M571 P"duex.fan7" S0.0
G91 
G1 F6000 A62.941771576771835
G90
M571 P"duex.fan7" S0.8
G1 X133.571 Y110.245 E296.92587
M571 P"duex.fan7" S0.0
G91 
G1 F6000 A-64.44631780344821
G90
M571 P"duex.fan7" S0.8
G1 X131.124 Y110.129 E297.00735
M571 P"duex.fan7" S0.0
G91 
G1 F6000 A63.01837279922901
G90
M571 P"duex.fan7" S0.8
G1 X128.675 Y110.053 E297.08885
M571 P"duex.fan7" S0.0
G91 
G1 F6000 A-64.44583943733281
G90
M571 P"duex.fan7" S0.8
G1 X126.225 Y110.015 E297.17034
M571 P"duex.fan7" S0.0
G91 
G1 F6000 A63.01837279922901
G90
M571 P"duex.fan7" S0.8
G1 X123.775 Y110.015 E297.25183
M571 P"duex.fan7" S0.0
G91 
G1 F6000 A-64.4463178034478
G90
M571 P"duex.fan7" S0.8
G1 X121.325 Y110.053 E297.33333
M571 P"duex.fan7" S0.0
G91 
G1 F6000 A62.94177157677106
G90
M571 P"duex.fan7" S0.8
G1 X118.876 Y110.129 E297.41482
M571 P"duex.fan7" S0.0
G91 
G1 F6000 A-64.33396006203655
G90
M571 P"duex.fan7" S0.8
G1 X116.429 Y110.245 E297.4963
M571 P"duex.fan7" S0.0
G91 
G1 F6000 A62.795323950385395
G90
M571 P"duex.fan7" S0.8
G1 X113.984 Y110.398 E297.57778
M571 P"duex.fan7" S0.0
G91 
G1 F6000 A-64.16207041615436
G90
M571 P"duex.fan7" S0.8
G1 X111.54 Y110.592 E297.65932
M571 P"duex.fan7" S0.0
G91 
G1 F6000 A62.73409242808937
G90
M571 P"duex.fan7" S0.8
G1 X109.102 Y110.822 E297.74077
M571 P"duex.fan7" S0.0
G91 
G1 F6000 A-64.24341952662088
G90
M571 P"duex.fan7" S0.8
G1 X106.666 Y111.09 E297.82228
M571 P"duex.fan7" S0.0
G91 
G1 F6000 A62.91066395610412
G90
M571 P"duex.fan7" S0.8
G1 X104.234 Y111.398 E297.90382
M571 P"duex.fan7" S0.0
G91 
G1 F6000 A-64.50433188273706
G90
M571 P"duex.fan7" S0.8
G1 X101.808 Y111.741 E297.98531
M571 P"duex.fan7" S0.0
G91 
G1 F6000 A63.20747781031211
G90
M571 P"duex.fan7" S0.8
G1 X99.388 Y112.126 E298.06681
M571 P"duex.fan7" S0.0
G91 
G1 F6000 A-64.80665078650073
G90
M571 P"duex.fan7" S0.8
G1 X96.974 Y112.545 E298.1483
M571 P"duex.fan7" S0.0
G91 
G1 F6000 A63.5321190740651
G90
M571 P"duex.fan7" S0.8
G1 X94.567 Y113.006 E298.22981
M571 P"duex.fan7" S0.0
G91 
G1 F6000 A-65.14682028433127
G90
M571 P"duex.fan7" S0.8
G1 X92.168 Y113.5 E298.31128
M571 P"duex.fan7" S0.0
G91 
G1 F6000 A-59.124975481935536
G90
M571 P"duex.fan4" S0.8
G1 X89.894 Y114.01 E298.38879
M571 P"duex.fan4" S0.0
G91 
G1 F6000 A-65.14682028433089
G90
M571 P"duex.fan7" S0.8
G1 X89.894 Y95.99 E299.91304
M571 P"duex.fan7" S0.0
G91 
G1 F6000 A-81.04619417894773
G90
M571 P"duex.fan4" S0.8
G1 X92.168 Y96.5 E299.99055
M571 P"duex.fan4" S0.0
G91 
G1 F6000 A-64.80665078650085
G90
M571 P"duex.fan5" S0.8
G1 X94.567 Y96.994 E300.07201
M571 P"duex.fan5" S0.0
G91 
G1 F6000 A-81.37083544269872
G90
M571 P"duex.fan6" S0.8
G1 X96.974 Y97.455 E300.15353
M571 P"duex.fan6" S0.0
G91 
G1 F6000 A-64.50433188273848
G90
M571 P"duex.fan7" S0.8
G1 X99.388 Y97.874 E300.23502
M571 P"duex.fan7" S0.0
G91 
G1 F6000 A-81.66764929690648
G90
M571 P"duex.fan4" S0.8
G1 X101.808 Y98.259 E300.31652
M571 P"duex.fan4" S0.0
G91 
G1 F6000 A-64.24341952662277
G90
M571 P"duex.fan5" S0.8
G1 X104.234 Y98.602 E300.39801
M571 P"duex.fan5" S0.0
G91 
G1 F6000 A-81.84422082491966
G90
M571 P"duex.fan6" S0.8
G1 X106.666 Y98.91 E300.47954
M571 P"duex.fan6" S0.0
G91 
G1 F6000 A-64.16207041615753
G90
M571 P"duex.fan7" S0.8
G1 X109.102 Y99.178 E300.56105
M571 P"duex.fan7" S0.0
G91 
G1 F6000 A-81.78298930262322
G90
M571 P"duex.fan4" S0.8
G1 X111.54 Y99.408 E300.6425
M571 P"duex.fan4" S0.0
G91 
G1 F6000 A-64.33396006204055
G90
M571 P"duex.fan5" S0.8
G1 X113.984 Y99.602 E300.72405
M571 P"duex.fan5" S0.0
G91 
G1 F6000 A-81.63654167623604
G90
M571 P"duex.fan6" S0.8
G1 X116.429 Y99.755 E300.80553
M571 P"duex.fan6" S0.0
G91 
G1 F6000 A-64.44631780345281
G90
M571 P"duex.fan7" S0.8
G1 X118.876 Y99.871 E300.887
M571 P"duex.fan7" S0.0
G91 
G1 F6000 A-81.55994045377795
G90
M571 P"duex.fan4" S0.8
G1 X121.325 Y99.947 E300.9685
M571 P"duex.fan4" S0.0
G91 
G1 F6000 A-64.44583943733855
G90
M571 P"duex.fan5" S0.8
G1 X123.775 Y99.985 E301.05
M571 P"duex.fan5" S0.0
G91 
G1 F6000 A61.590427795015934
G90
M571 P"duex.fan5" S0.8
G1 X128.675 Y99.947 E301.21298
M571 P"duex.fan5" S0.0
G91 
G1 F6000 A81.48333923132023
G90
M571 P"duex.fan4" S0.8
G1 X131.124 Y99.871 E301.29447
M571 P"duex.fan4" S0.0
G91 
G1 F6000 A61.70278553642626
G90
M571 P"duex.fan7" S0.8
G1 X133.571 Y99.755 E301.37595
M571 P"duex.fan7" S0.0
G91 
G1 F6000 A81.33689160493525
G90
M571 P"duex.fan6" S0.8
G1 X136.016 Y99.602 E301.45743
M571 P"duex.fan6" S0.0
G91 
G1 F6000 A61.87467518230718
G90
M571 P"duex.fan5" S0.8
G1 X138.46 Y99.408 E301.53898
M571 P"duex.fan5" S0.0
G91 
G1 F6000 A81.27566008264041
G90
M571 P"duex.fan4" S0.8
G1 X140.898 Y99.178 E301.62042
M571 P"duex.fan4" S0.0
G91 
G1 F6000 A61.79332607183993
G90
M571 P"duex.fan7" S0.8
G1 X143.334 Y98.91 E301.70193
M571 P"duex.fan7" S0.0
G91 
G1 F6000 A81.4522316106564
G90
M571 P"duex.fan6" S0.8
G1 X145.766 Y98.602 E301.78347
M571 P"duex.fan6" S0.0
G91 
G1 F6000 A61.532413715722065
G90
M571 P"duex.fan5" S0.8
G1 X148.192 Y98.259 E301.86496
M571 P"duex.fan5" S0.0
G91 
G1 F6000 A81.74904546486553
G90
M571 P"duex.fan4" S0.8
G1 X150.612 Y97.874 E301.94646
M571 P"duex.fan4" S0.0
G91 
G1 F6000 A61.23009481195776
G90
M571 P"duex.fan7" S0.8
G1 X153.026 Y97.455 E302.02795
M571 P"duex.fan7" S0.0
G91 
G1 F6000 A82.07368672861915
G90
M571 P"duex.fan6" S0.8
G1 X155.433 Y96.994 E302.10947
M571 P"duex.fan6" S0.0
G91 
G1 F6000 A60.88992531412602
G90
M571 P"duex.fan5" S0.8
G1 X157.832 Y96.5 E302.19093
M571 P"duex.fan5" S0.0
G91 
G1 F6000 A-20.276890340634523
G90
M571 P"duex.fan7" S0.8
G1 X160.106 Y114.01 E303.79269
M571 P"duex.fan7" S0.0
G91 
G1 F6000 A72.25952948039523
G90
M571 P"duex.fan7" S0.8
G0 F7200 X173.227 Y113.83
M571 P"duex.fan7" S0.0
G91 
G1 F6000 A-72.25952948039532
G90
M571 P"duex.fan7" S0.8
G0 F7200 X160.781 Y113.83
M571 P"duex.fan7" S0.0
G91 
G1 F6000 A72.25952948039527
G90
M571 P"duex.fan7" S0.8
G0 F7200 X159.512 Y113.692
M571 P"duex.fan7" S0.0
G91 
G1 F6000 A-72.25952948039532
G90
M571 P"duex.fan7" S0.8
G0 F7200 X158.054 Y113.365
M571 P"duex.fan7" S0.0
G91 
G1 F6000 A72.25952948039527
G90
M571 P"duex.fan7" S0.8
G0 F7200 X156.626 Y113.068
M571 P"duex.fan7" S0.0
G91 
G1 F6000 A-72.26293627659132
G90
M571 P"duex.fan7" S0.8
G0 F7200 X155.206 Y112.779
M571 P"duex.fan7" S0.0
G91 
G1 F6000 A72.2663430727872
G90
M571 P"duex.fan7" S0.8
G0 F7200 X153.806 Y112.511
M571 P"duex.fan7" S0.0
G91 
G1 F6000 A-72.2663430727872
G90
M571 P"duex.fan7" S0.8
G0 F7200 X152.421 Y112.257
M571 P"duex.fan7" S0.0
G91 
G1 F6000 A72.262644996817
G90
M571 P"duex.fan7" S0.8
G0 F7200 X151.052 Y112.019
M571 P"duex.fan7" S0.0
G91 
G1 F6000 A-72.25894692084655
G90
M571 P"duex.fan7" S0.8
G0 F7200 X149.7 Y111.799
M571 P"duex.fan7" S0.0
G91 
G1 F6000 A72.26283364069873
G90
M571 P"duex.fan7" S0.8
G0 F7200 X148.353 Y111.584
M571 P"duex.fan7" S0.0
G91 
G1 F6000 A-72.26672036055119
G90
M571 P"duex.fan7" S0.8
G0 F7200 X147.033 Y111.395
M571 P"duex.fan7" S0.0
G91 
G1 F6000 A72.26672036055106
G90
M571 P"duex.fan7" S0.8
G0 F7200 X145.717 Y111.21
M571 P"duex.fan7" S0.0
G91 
G1 F6000 A-72.26672036055115
G90
M571 P"duex.fan7" S0.8
G0 F7200 X144.421 Y111.046
M571 P"duex.fan7" S0.0
G91 
G1 F6000 A72.26672036055119
G90
M571 P"duex.fan7" S0.8
G0 F7200 X143.13 Y110.886
M571 P"duex.fan7" S0.0
G91 
G1 F6000 A-72.26672036055123
G90
M571 P"duex.fan7" S0.8
G0 F7200 X141.859 Y110.746
M571 P"duex.fan7" S0.0
G91 
G1 F6000 A72.26234930043799
G90
M571 P"duex.fan7" S0.8
G0 F7200 X140.594 Y110.612
M571 P"duex.fan7" S0.0
G91 
G1 F6000 A-72.25797824032496
G90
M571 P"duex.fan7" S0.8
G0 F7200 X139.345 Y110.495
M571 P"duex.fan7" S0.0
G91 
G1 F6000 A72.25797824032492
G90
M571 P"duex.fan7" S0.8
G0 F7200 X138.102 Y110.383
M571 P"duex.fan7" S0.0
G91 
G1 F6000 A-72.257978240325
G90
M571 P"duex.fan7" S0.8
G0 F7200 X136.872 Y110.285
M571 P"duex.fan7" S0.0
G91 
G1 F6000 A72.2625672323375
G90
M571 P"duex.fan7" S0.8
G0 F7200 X135.649 Y110.194
M571 P"duex.fan7" S0.0
G91 
G1 F6000 A-72.26715622434999
G90
M571 P"duex.fan7" S0.8
G0 F7200 X134.443 Y110.119
M571 P"duex.fan7" S0.0
G91 
G1 F6000 A72.26715622434999
G90
M571 P"duex.fan7" S0.8
G0 F7200 X133.242 Y110.049
M571 P"duex.fan7" S0.0
G91 
G1 F6000 A-72.27182766589662
G90
M571 P"duex.fan7" S0.8
G0 F7200 X132.054 Y109.992
M571 P"duex.fan7" S0.0
G91 
G1 F6000 A72.27649910744357
G90
M571 P"duex.fan7" S0.8
G0 F7200 X130.87 Y109.94
M571 P"duex.fan7" S0.0
G91 
G1 F6000 A-72.27649910744357
G90
M571 P"duex.fan7" S0.8
G0 F7200 X129.703 Y109.904
M571 P"duex.fan7" S0.0
G91 
G1 F6000 A72.28118243379538
G90
M571 P"duex.fan7" S0.8
G0 F7200 X128.537 Y109.87
M571 P"duex.fan7" S0.0
G91 
G1 F6000 A-72.2858657601469
G90
M571 P"duex.fan7" S0.8
G0 F7200 X127.388 Y109.852
M571 P"duex.fan7" S0.0
G91 
G1 F6000 A72.28586576014685
G90
M571 P"duex.fan7" S0.8
G0 F7200 X126.239 Y109.834
M571 P"duex.fan7" S0.0
G91 
G1 F6000 A-72.2858657601469
G90
M571 P"duex.fan7" S0.8
G0 F7200 X125.108 Y109.834
M571 P"duex.fan7" S0.0
G91 
G1 F6000 A72.28128954512196
G90
M571 P"duex.fan7" S0.8
G0 F7200 X123.977 Y109.834
M571 P"duex.fan7" S0.0
G91 
G1 F6000 A-72.27360140485695
G90
M571 P"duex.fan5" S0.8
G0 F7200 X76.169 Y98.796
M571 P"duex.fan5" S0.0
G91 
G1 F6000 A72.2704894796163
G90
M571 P"duex.fan5" S0.8
G0 F7200 X76.169 Y99.928
M571 P"duex.fan5" S0.0
G91 
G1 F6000 A-72.2704894796163
G90
M571 P"duex.fan5" S0.8
G0 F7200 X76.169 Y101.059
M571 P"duex.fan5" S0.0
G91 
G1 F6000 A72.27048947961698
G90
M571 P"duex.fan7" S0.8
G0 F7200 X88.373 Y113.829
M571 P"duex.fan7" S0.0
G91 
G1 F6000 A-72.27048947961707
G90
M571 P"duex.fan7" S0.8
G0 F7200 X87.242 Y113.829
M571 P"duex.fan7" S0.0
G91 
G1 F6000 A72.27048947961698
G90
M571 P"duex.fan7" S0.8
G0 F7200 X86.11 Y113.829
M571 P"duex.fan7" S0.0
G91 
G1 F6000 A-72.27048947961707
G90
M571 P"duex.fan7" S0.8
G0 F7200 X84.979 Y113.829
M571 P"duex.fan7" S0.0
G91 
G1 F6000 A72.2704894796163
G90
M571 P"duex.fan5" S0.8
G0 F7200 X76.169 Y105.585
M571 P"duex.fan5" S0.0
G91 
G1 F6000 A-72.2704894796156
G90
M571 P"duex.fan7" S0.8
G0 F7200 X83.848 Y113.829
M571 P"duex.fan7" S0.0
G91 
G1 F6000 A72.27048947961484
G90
M571 P"duex.fan5" S0.8
G0 F7200 X76.169 Y106.716
M571 P"duex.fan5" S0.0
G91 
G1 F6000 A-72.2704894796141
G90
M571 P"duex.fan7" S0.8
G0 F7200 X82.716 Y113.829
M571 P"duex.fan7" S0.0
G91 
G1 F6000 A72.27818332000938
G90
M571 P"duex.fan5" S0.8
G0 F7200 X76.169 Y107.847
M571 P"duex.fan5" S0.0
G91 
G1 F6000 A-72.28587716040438
G90
M571 P"duex.fan7" S0.8
G0 F7200 X81.585 Y113.829
M571 P"duex.fan7" S0.0
G91 
G1 F6000 A72.2858771604042
G90
M571 P"duex.fan7" S0.8
G0 F7200 X79.322 Y113.829
M571 P"duex.fan7" S0.0
G91 
G1 F6000 A-72.28587716040475
G90
M571 P"duex.fan7" S0.8
G0 F7200 X78.191 Y113.829
M571 P"duex.fan7" S0.0G1 F1800 X76.494 Y113.829 E416.06977
;MESH:NONMESH

G91 
G1 F6000 A143.13151297040778
G90
M571 P"duex.fan4" S0.8
G0 X118.89 Y110.48
M571 P"duex.fan4" S0.0
G91 
G1 F6000 A-135.89904036875149
G90
M571 P"duex.fan4" S0.8
G0 X131.11 Y110.48
M571 P"duex.fan4" S0.0
G91 
G1 F6000 A-4.356638931108631
G90
M571 P"duex.fan5" S0.8
G0 X138.43 Y110.941
M571 P"duex.fan5" S0.0
G91 
G1 F6000 A7.943346127990536
G90
M571 P"duex.fan5" S0.8
G0 X145.719 Y111.745
M571 P"duex.fan5" S0.0
G91 
G1 F6000 A-5.377497780749368
G90
M571 P"duex.fan5" S0.8
G0 X149.634 Y112.332
M571 P"duex.fan5" S0.0G0 X157.75 Y113.882
;TIME_ELAPSED:454.848567
;LAYER:3
;TYPE:WALL-INNER
;MESH:Pruefk??rper_V1.stl

G91 
G1 F6000 A4.97010766898218
G90
M571 P"duex.fan7" S0.8
G1 X152.956 Y112.929 E416.23235
M571 P"duex.fan7" S0.0
G91 
G1 F6000 A-6.344481226693071
G90
M571 P"duex.fan7" S0.8
G1 X150.548 Y112.51 E416.31364
M571 P"duex.fan7" S0.0
G91 
G1 F6000 A4.82132366721804
G90
M571 P"duex.fan7" S0.8
G1 X148.134 Y112.127 E416.39494
M571 P"duex.fan7" S0.0
G91 
G1 F6000 A-6.227307574903649
G90
M571 P"duex.fan7" S0.8
G1 X145.714 Y111.784 E416.47623
M571 P"duex.fan7" S0.0
G91 
G1 F6000 A4.784281249657667
G90
M571 P"duex.fan7" S0.8
G1 X143.289 Y111.478 E416.55753
M571 P"duex.fan7" S0.0
G91 
G1 F6000 A-6.2157293259968505
G90
M571 P"duex.fan7" S0.8
G1 X140.859 Y111.21 E416.63884
M571 P"duex.fan7" S0.0
G91 
G1 F6000 A4.770582238426501
G90
M571 P"duex.fan7" S0.8
G1 X138.427 Y110.98 E416.72009
M571 P"duex.fan7" S0.0
G91 
G1 F6000 A-6.2379370704224195
G90
M571 P"duex.fan7" S0.8
G1 X135.989 Y110.788 E416.80143
M571 P"duex.fan7" S0.0
G91 
G1 F6000 A4.842335847248144
G90
M571 P"duex.fan7" S0.8
G1 X133.55 Y110.635 E416.88271
M571 P"duex.fan7" S0.0
G91 
G1 F6000 A-6.350574440079022
G90
M571 P"duex.fan7" S0.8
G1 X131.109 Y110.519 E416.96399
M571 P"duex.fan7" S0.0
G91 
G1 F6000 A4.91912492448027
G90
M571 P"duex.fan7" S0.8
G1 X128.666 Y110.443 E417.04528
M571 P"duex.fan7" S0.0
G91 
G1 F6000 A-6.3500954175151305
G90
M571 P"duex.fan7" S0.8
G1 X126.222 Y110.405 E417.12658
M571 P"duex.fan7" S0.0
G91 
G1 F6000 A4.919124924479859
G90
M571 P"duex.fan7" S0.8
G1 X123.778 Y110.405 E417.20787
M571 P"duex.fan7" S0.0
G91 
G1 F6000 A-6.350574440078611
G90
M571 P"duex.fan7" S0.8
G1 X121.334 Y110.443 E417.28916
M571 P"duex.fan7" S0.0
G91 
G1 F6000 A4.842335847247916
G90
M571 P"duex.fan7" S0.8
G1 X118.891 Y110.519 E417.37046
M571 P"duex.fan7" S0.0
G91 
G1 F6000 A-6.237937070422145
G90
M571 P"duex.fan7" S0.8
G1 X116.45 Y110.635 E417.45174
M571 P"duex.fan7" S0.0
G91 
G1 F6000 A4.770582238426684
G90
M571 P"duex.fan7" S0.8
G1 X114.011 Y110.788 E417.53302
M571 P"duex.fan7" S0.0
G91 
G1 F6000 A-6.2157293259968505
G90
M571 P"duex.fan7" S0.8
G1 X111.573 Y110.98 E417.61436
M571 P"duex.fan7" S0.0
G91 
G1 F6000 A4.7842812496579405
G90
M571 P"duex.fan7" S0.8
G1 X109.141 Y111.21 E417.69561
M571 P"duex.fan7" S0.0
G91 
G1 F6000 A-6.227307574903786
G90
M571 P"duex.fan7" S0.8
G1 X106.711 Y111.478 E417.77692
M571 P"duex.fan7" S0.0
G91 
G1 F6000 A4.821323667218269
G90
M571 P"duex.fan7" S0.8
G1 X104.286 Y111.784 E417.85821
M571 P"duex.fan7" S0.0
G91 
G1 F6000 A-6.344481226693619
G90
M571 P"duex.fan7" S0.8
G1 X101.866 Y112.127 E417.93951
M571 P"duex.fan7" S0.0
G91 
G1 F6000 A4.970107668983047
G90
M571 P"duex.fan7" S0.8
G1 X99.452 Y112.51 E418.0208
M571 P"duex.fan7" S0.0
G91 
G1 F6000 A-6.499176046435766
G90
M571 P"duex.fan7" S0.8
G1 X97.044 Y112.929 E418.1021
M571 P"duex.fan7" S0.0
G91 
G1 F6000 A5.1475957120431985
G90
M571 P"duex.fan7" S0.8
G1 X94.643 Y113.388 E418.1834
M571 P"duex.fan7" S0.0
G91 
G1 F6000 A-6.679938165110346
G90
M571 P"duex.fan7" S0.8
G1 X92.25 Y113.882 E418.26467
M571 P"duex.fan7" S0.0
G91 
G1 F6000 A26.949680500684007
G90
M571 P"duex.fan7" S0.8
G1 X89.936 Y114.4 E418.34354
M571 P"duex.fan7" S0.0
G91 
G1 F6000 A-6.679938165111008
G90
M571 P"duex.fan5" S0.8
G1 X89.936 Y95.6 E419.92246
M571 P"duex.fan5" S0.0
G91 
G1 F6000 A5.14759571204424
G90
M571 P"duex.fan5" S0.8
G1 X92.25 Y96.118 E420.00133
M571 P"duex.fan5" S0.0
G91 
G1 F6000 A-6.4991760464362995
G90
M571 P"duex.fan5" S0.8
G1 X94.643 Y96.612 E420.0826
M571 P"duex.fan5" S0.0
G91 
G1 F6000 A4.9701076689835295
G90
M571 P"duex.fan5" S0.8
G1 X97.044 Y97.071 E420.16391
M571 P"duex.fan5" S0.0
G91 
G1 F6000 A-6.344481226694452
G90
M571 P"duex.fan5" S0.8
G1 X99.452 Y97.49 E420.2452
M571 P"duex.fan5" S0.0
G91 
G1 F6000 A4.821323667219404
G90
M571 P"duex.fan5" S0.8
G1 X101.866 Y97.873 E420.32649
M571 P"duex.fan5" S0.0
G91 
G1 F6000 A-6.227307574905014
G90
M571 P"duex.fan5" S0.8
G1 X104.286 Y98.216 E420.40779
M571 P"duex.fan5" S0.0
G91 
G1 F6000 A4.784281249659024
G90
M571 P"duex.fan5" S0.8
G1 X106.711 Y98.522 E420.48908
M571 P"duex.fan5" S0.0
G91 
G1 F6000 A-6.215729325997476
G90
M571 P"duex.fan5" S0.8
G1 X109.141 Y98.79 E420.5704
M571 P"duex.fan5" S0.0
G91 
G1 F6000 A4.770582238427214
G90
M571 P"duex.fan5" S0.8
G1 X111.573 Y99.02 E420.65165
M571 P"duex.fan5" S0.0
G91 
G1 F6000 A-6.237937070423135
G90
M571 P"duex.fan5" S0.8
G1 X114.011 Y99.212 E420.73298
M571 P"duex.fan5" S0.0
G91 
G1 F6000 A-139.73597740576236
G90
M571 P"duex.fan6" S0.8
G1 X116.45 Y99.365 E420.81427
M571 P"duex.fan6" S0.0
G91 
G1 F6000 A-6.350574440080433
G90
M571 P"duex.fan7" S0.8
G1 X118.891 Y99.481 E420.89555
M571 P"duex.fan7" S0.0
G91 
G1 F6000 A-139.659188328531
G90
M571 P"duex.fan4" S0.8
G1 X121.334 Y99.557 E420.97684
M571 P"duex.fan4" S0.0
G91 
G1 F6000 A-6.350095417517322
G90
M571 P"duex.fan5" S0.8
G1 X123.778 Y99.595 E421.05814
M571 P"duex.fan5" S0.0
G91 
G1 F6000 A3.4876754088830246
G90
M571 P"duex.fan5" S0.8
G1 X128.666 Y99.557 E421.22072
M571 P"duex.fan5" S0.0
G91 
G1 F6000 A139.58239925129882
G90
M571 P"duex.fan4" S0.8
G1 X131.109 Y99.481 E421.30202
M571 P"duex.fan4" S0.0
G91 
G1 F6000 A3.600312778539353
G90
M571 P"duex.fan7" S0.8
G1 X133.55 Y99.365 E421.3833
M571 P"duex.fan7" S0.0
G91 
G1 F6000 A-5.067667610534998
G90
M571 P"duex.fan7" S0.8
G1 X135.989 Y99.212 E421.46458
M571 P"duex.fan7" S0.0
G91 
G1 F6000 A3.6225205229648307
G90
M571 P"duex.fan7" S0.8
G1 X138.427 Y99.02 E421.54592
M571 P"duex.fan7" S0.0
G91 
G1 F6000 A-5.053968599303878
G90
M571 P"duex.fan7" S0.8
G1 X140.859 Y98.79 E421.62717
M571 P"duex.fan7" S0.0
G91 
G1 F6000 A3.6109422740579413
G90
M571 P"duex.fan7" S0.8
G1 X143.289 Y98.522 E421.70848
M571 P"duex.fan7" S0.0
G91 
G1 F6000 A-5.01692618174355
G90
M571 P"duex.fan7" S0.8
G1 X145.714 Y98.216 E421.78977
M571 P"duex.fan7" S0.0
G91 
G1 F6000 A3.493768622268884
G90
M571 P"duex.fan7" S0.8
G1 X148.134 Y97.873 E421.87107
M571 P"duex.fan7" S0.0
G91 
G1 F6000 A-4.868142179980095
G90
M571 P"duex.fan7" S0.8
G1 X150.548 Y97.49 E421.95236
M571 P"duex.fan7" S0.0
G91 
G1 F6000 A3.3390738025274223
G90
M571 P"duex.fan7" S0.8
G1 X152.956 Y97.071 E422.03366
M571 P"duex.fan7" S0.0
G91 
G1 F6000 A-4.690654136919944
G90
M571 P"duex.fan7" S0.8
G1 X155.357 Y96.612 E422.11496
M571 P"duex.fan7" S0.0
G91 
G1 F6000 A3.1583116838535266
G90
M571 P"duex.fan7" S0.8
G1 X157.75 Y96.118 E422.19623
M571 P"duex.fan7" S0.0
G91 
G1 F6000 A37.3811729872932
G90
M571 P"duex.fan5" S0.8
G1 X160.064 Y114.4 E423.85402
M571 P"duex.fan5" S0.0G0 F7200 X157.666 Y114.273
;TYPE:WALL-OUTER

G91 
G1 F6000 A-41.79252694276013
G90
M571 P"duex.fan5" S0.8
G1 X152.884 Y113.323 E424.09505
M571 P"duex.fan5" S0.0
G91 
G1 F6000 A40.42064171964057
G90
M571 P"duex.fan5" S0.8
G1 X150.482 Y112.905 E424.17615
M571 P"duex.fan5" S0.0
G91 
G1 F6000 A-41.916140227395765
G90
M571 P"duex.fan5" S0.8
G1 X148.075 Y112.523 E424.2572
M571 P"duex.fan5" S0.0
G91 
G1 F6000 A40.469274776858235
G90
M571 P"duex.fan5" S0.8
G1 X145.661 Y112.18 E424.3383
M571 P"duex.fan5" S0.0
G91 
G1 F6000 A-41.91589446270769
G90
M571 P"duex.fan5" S0.8
G1 X143.242 Y111.875 E424.41939
M571 P"duex.fan5" S0.0
G91 
G1 F6000 A40.48087054042308
G90
M571 P"duex.fan5" S0.8
G1 X140.818 Y111.608 E424.5005
M571 P"duex.fan5" S0.0
G91 
G1 F6000 A-41.88900850272047
G90
M571 P"duex.fan5" S0.8
G1 X138.392 Y111.379 E424.58155
M571 P"duex.fan5" S0.0
G91 
G1 F6000 A40.415093506159934
G90
M571 P"duex.fan5" S0.8
G1 X135.961 Y111.187 E424.66266
M571 P"duex.fan5" S0.0
G91 
G1 F6000 A-41.851838681716124
G90
M571 P"duex.fan5" S0.8
G1 X133.528 Y111.034 E424.74374
M571 P"duex.fan5" S0.0
G91 
G1 F6000 A40.37878125371666
G90
M571 P"duex.fan5" S0.8
G1 X131.093 Y110.919 E424.82482
M571 P"duex.fan5" S0.0
G91 
G1 F6000 A-41.81492969186594
G90
M571 P"duex.fan5" S0.8
G1 X128.657 Y110.843 E424.90588
M571 P"duex.fan5" S0.0
G91 
G1 F6000 A40.38043810186825
G90
M571 P"duex.fan5" S0.8
G1 X126.219 Y110.805 E424.98698
M571 P"duex.fan5" S0.0
G91 
G1 F6000 A-41.81492969186608
G90
M571 P"duex.fan5" S0.8
G1 X123.781 Y110.805 E425.06807
M571 P"duex.fan5" S0.0
G91 
G1 F6000 A40.37878125371693
G90
M571 P"duex.fan5" S0.8
G1 X121.343 Y110.843 E425.14917
M571 P"duex.fan5" S0.0
G91 
G1 F6000 A-41.851838681716075
G90
M571 P"duex.fan5" S0.8
G1 X118.907 Y110.919 E425.23023
M571 P"duex.fan5" S0.0
G91 
G1 F6000 A40.41509350615975
G90
M571 P"duex.fan5" S0.8
G1 X116.472 Y111.034 E425.31131
M571 P"duex.fan5" S0.0
G91 
G1 F6000 A-41.88900850272066
G90
M571 P"duex.fan5" S0.8
G1 X114.039 Y111.187 E425.39239
M571 P"duex.fan5" S0.0
G91 
G1 F6000 A40.480870540422764
G90
M571 P"duex.fan5" S0.8
G1 X111.608 Y111.379 E425.47349
M571 P"duex.fan5" S0.0
G91 
G1 F6000 A-41.91589446270751
G90
M571 P"duex.fan5" S0.8
G1 X109.182 Y111.608 E425.55454
M571 P"duex.fan5" S0.0
G91 
G1 F6000 A40.46927477685819
G90
M571 P"duex.fan5" S0.8
G1 X106.758 Y111.875 E425.63565
M571 P"duex.fan5" S0.0
G91 
G1 F6000 A-41.916140227395445
G90
M571 P"duex.fan5" S0.8
G1 X104.339 Y112.18 E425.71675
M571 P"duex.fan5" S0.0
G91 
G1 F6000 A40.42064171964034
G90
M571 P"duex.fan5" S0.8
G1 X101.925 Y112.523 E425.79784
M571 P"duex.fan5" S0.0
G91 
G1 F6000 A-41.79252694275981
G90
M571 P"duex.fan5" S0.8
G1 X99.518 Y112.905 E425.8789
M571 P"duex.fan5" S0.0
G91 
G1 F6000 A40.29672258836009
G90
M571 P"duex.fan5" S0.8
G1 X97.116 Y113.323 E425.95999
M571 P"duex.fan5" S0.0
G91 
G1 F6000 A-41.688754263760394
G90
M571 P"duex.fan5" S0.8
G1 X94.721 Y113.78 E426.04109
M571 P"duex.fan5" S0.0
G91 
G1 F6000 A40.180188644162406
G90
M571 P"duex.fan5" S0.8
G1 X92.334 Y114.273 E426.12216
M571 P"duex.fan5" S0.0
G91 
G1 F6000 A-19.925398614658803
G90
M571 P"duex.fan5" S0.8
G1 X89.978 Y114.8 E426.20245
M571 P"duex.fan5" S0.0
G91 
G1 F6000 A-104.39812460884853
G90
M571 P"duex.fan4" S0.8
G1 X89.978 Y95.2 E427.83739
M571 P"duex.fan4" S0.0
G91 
G1 F6000 A-41.688754263761716
G90
M571 P"duex.fan5" S0.8
G1 X92.334 Y95.727 E427.91768
M571 P"duex.fan5" S0.0
G91 
G1 F6000 A-104.28159066464873
G90
M571 P"duex.fan6" S0.8
G1 X94.721 Y96.22 E427.99875
M571 P"duex.fan6" S0.0
G91 
G1 F6000 A-41.79252694276389
G90
M571 P"duex.fan7" S0.8
G1 X97.116 Y96.677 E428.07985
M571 P"duex.fan7" S0.0
G91 
G1 F6000 A-104.157671533367
G90
M571 P"duex.fan4" S0.8
G1 X99.518 Y97.095 E428.16094
M571 P"duex.fan4" S0.0
G91 
G1 F6000 A-41.91614022740131
G90
M571 P"duex.fan5" S0.8
G1 X101.925 Y97.477 E428.242
M571 P"duex.fan5" S0.0
G91 
G1 F6000 A-104.10903847614635
G90
M571 P"duex.fan6" S0.8
G1 X104.339 Y97.82 E428.32309
M571 P"duex.fan6" S0.0
G91 
G1 F6000 A-41.91589446271635
G90
M571 P"duex.fan7" S0.8
G1 X106.758 Y98.125 E428.40419
M571 P"duex.fan7" S0.0
G91 
G1 F6000 A-104.09744271257966
G90
M571 P"duex.fan4" S0.8
G1 X109.182 Y98.392 E428.4853
M571 P"duex.fan4" S0.0
G91 
G1 F6000 A-41.889008502730526
G90
M571 P"duex.fan5" S0.8
G1 X111.608 Y98.621 E428.56635
M571 P"duex.fan5" S0.0
G91 
G1 F6000 A-104.16321974684108
G90
M571 P"duex.fan6" S0.8
G1 X114.039 Y98.813 E428.64745
M571 P"duex.fan6" S0.0
G91 
G1 F6000 A-41.85183868172842
G90
M571 P"duex.fan7" S0.8
G1 X116.472 Y98.966 E428.72853
M571 P"duex.fan7" S0.0
G91 
G1 F6000 A-104.19953199928254
G90
M571 P"duex.fan4" S0.8
G1 X118.907 Y99.081 E428.80961
M571 P"duex.fan4" S0.0
G91 
G1 F6000 A-41.81492969187898
G90
M571 P"duex.fan5" S0.8
G1 X121.343 Y99.157 E428.89067
M571 P"duex.fan5" S0.0
G91 
G1 F6000 A-104.19787515112976
G90
M571 P"duex.fan6" S0.8
G1 X123.781 Y99.195 E428.97177
M571 P"duex.fan6" S0.0
G91 
G1 F6000 A101.32723512298284
G90
M571 P"duex.fan6" S0.8
G1 X128.657 Y99.157 E429.13396
M571 P"duex.fan6" S0.0
G91 
G1 F6000 A41.77802070202887
G90
M571 P"duex.fan5" S0.8
G1 X131.093 Y99.081 E429.21502
M571 P"duex.fan5" S0.0
G91 
G1 F6000 A101.36354737542734
G90
M571 P"duex.fan4" S0.8
G1 X133.528 Y98.966 E429.2961
M571 P"duex.fan4" S0.0
G91 
G1 F6000 A41.740850881023285
G90
M571 P"duex.fan7" S0.8
G1 X135.961 Y98.813 E429.37718
M571 P"duex.fan7" S0.0
G91 
G1 F6000 A101.42932440969223
G90
M571 P"duex.fan6" S0.8
G1 X138.392 Y98.621 E429.45829
M571 P"duex.fan6" S0.0
G91 
G1 F6000 A41.71396492103446
G90
M571 P"duex.fan5" S0.8
G1 X140.818 Y98.392 E429.53934
M571 P"duex.fan5" S0.0
G91 
G1 F6000 A101.41772864612848
G90
M571 P"duex.fan4" S0.8
G1 X143.242 Y98.125 E429.62045
M571 P"duex.fan4" S0.0
G91 
G1 F6000 A41.713719156345576
G90
M571 P"duex.fan7" S0.8
G1 X145.661 Y97.82 E429.70154
M571 P"duex.fan7" S0.0
G91 
G1 F6000 A101.36909558891254
G90
M571 P"duex.fan6" S0.8
G1 X148.075 Y97.477 E429.78264
M571 P"duex.fan6" S0.0
G91 
G1 F6000 A41.83733244097934
G90
M571 P"duex.fan5" S0.8
G1 X150.482 Y97.095 E429.86369
M571 P"duex.fan5" S0.0
G91 
G1 F6000 A101.24517645763399
G90
M571 P"duex.fan4" S0.8
G1 X152.884 Y96.677 E429.94479
M571 P"duex.fan4" S0.0
G91 
G1 F6000 A41.94110511997702
G90
M571 P"duex.fan7" S0.8
G1 X155.279 Y96.22 E430.02588
M571 P"duex.fan7" S0.0
G91 
G1 F6000 A101.128642513438
G90
M571 P"duex.fan6" S0.8
G1 X157.666 Y95.727 E430.10695
M571 P"duex.fan6" S0.0
G91 
G1 F6000 A-60.61906245443001
G90
M571 P"duex.fan4" S0.8
G1 X160.022 Y114.8 E431.82218
M571 P"duex.fan4" S0.0G0 X157.832 Y113.5
;TYPE:SKIN

G91 
G1 F6000 A56.18238401278078
G90
M571 P"duex.fan4" S0.8
G1 X153.026 Y112.545 E432.06546
M571 P"duex.fan4" S0.0
G91 
G1 F6000 A-57.479238085205544
G90
M571 P"duex.fan4" S0.8
G1 X150.612 Y112.126 E432.14695
M571 P"duex.fan4" S0.0
G91 
G1 F6000 A55.885570158572555
G90
M571 P"duex.fan4" S0.8
G1 X148.192 Y111.741 E432.22845
M571 P"duex.fan4" S0.0
G91 
G1 F6000 A-57.21832572908877
G90
M571 P"duex.fan4" S0.8
G1 X145.766 Y111.398 E432.30994
M571 P"duex.fan4" S0.0
G91 
G1 F6000 A55.708998630556934
G90
M571 P"duex.fan4" S0.8
G1 X143.334 Y111.09 E432.39147
M571 P"duex.fan4" S0.0
G91 
G1 F6000 A-57.13697661862175
G90
M571 P"duex.fan4" S0.8
G1 X140.898 Y110.822 E432.47299
M571 P"duex.fan4" S0.0
G91 
G1 F6000 A55.770230152853145
G90
M571 P"duex.fan4" S0.8
G1 X138.46 Y110.592 E432.55443
M571 P"duex.fan4" S0.0
G91 
G1 F6000 A-57.30886626450394
G90
M571 P"duex.fan4" S0.8
G1 X136.016 Y110.398 E432.63598
M571 P"duex.fan4" S0.0
G91 
G1 F6000 A55.916677779238626
G90
M571 P"duex.fan4" S0.8
G1 X133.571 Y110.245 E432.71746
M571 P"duex.fan4" S0.0
G91 
G1 F6000 A-57.421224005915
G90
M571 P"duex.fan4" S0.8
G1 X131.124 Y110.129 E432.79894
M571 P"duex.fan4" S0.0
G91 
G1 F6000 A55.993279001695804
G90
M571 P"duex.fan4" S0.8
G1 X128.675 Y110.053 E432.88043
M571 P"duex.fan4" S0.0
G91 
G1 F6000 A-57.42074563979959
G90
M571 P"duex.fan4" S0.8
G1 X126.225 Y110.015 E432.96193
M571 P"duex.fan4" S0.0
G91 
G1 F6000 A55.993279001695804
G90
M571 P"duex.fan4" S0.8
G1 X123.775 Y110.015 E433.04341
M571 P"duex.fan4" S0.0
G91 
G1 F6000 A-57.42122400591459
G90
M571 P"duex.fan4" S0.8
G1 X121.325 Y110.053 E433.12491
M571 P"duex.fan4" S0.0
G91 
G1 F6000 A55.91667777923785
G90
M571 P"duex.fan4" S0.8
G1 X118.876 Y110.129 E433.2064
M571 P"duex.fan4" S0.0
G91 
G1 F6000 A-57.30886626450335
G90
M571 P"duex.fan4" S0.8
G1 X116.429 Y110.245 E433.28788
M571 P"duex.fan4" S0.0
G91 
G1 F6000 A55.770230152852186
G90
M571 P"duex.fan4" S0.8
G1 X113.984 Y110.398 E433.36936
M571 P"duex.fan4" S0.0
G91 
G1 F6000 A-57.136976618621155
G90
M571 P"duex.fan4" S0.8
G1 X111.54 Y110.592 E433.45091
M571 P"duex.fan4" S0.0
G91 
G1 F6000 A55.70899863055616
G90
M571 P"duex.fan4" S0.8
G1 X109.102 Y110.822 E433.53235
M571 P"duex.fan4" S0.0
G91 
G1 F6000 A-57.218325729087674
G90
M571 P"duex.fan4" S0.8
G1 X106.666 Y111.09 E433.61387
M571 P"duex.fan4" S0.0
G91 
G1 F6000 A55.885570158570914
G90
M571 P"duex.fan4" S0.8
G1 X104.234 Y111.398 E433.6954
M571 P"duex.fan4" S0.0
G91 
G1 F6000 A-57.47923808520385
G90
M571 P"duex.fan4" S0.8
G1 X101.808 Y111.741 E433.77689
M571 P"duex.fan4" S0.0
G91 
G1 F6000 A56.182384012778904
G90
M571 P"duex.fan4" S0.8
G1 X99.388 Y112.126 E433.85839
M571 P"duex.fan4" S0.0
G91 
G1 F6000 A-57.781556988967516
G90
M571 P"duex.fan4" S0.8
G1 X96.974 Y112.545 E433.93988
M571 P"duex.fan4" S0.0
G91 
G1 F6000 A56.5070252765319
G90
M571 P"duex.fan4" S0.8
G1 X94.567 Y113.006 E434.0214
M571 P"duex.fan4" S0.0
G91 
G1 F6000 A-58.12172648679807
G90
M571 P"duex.fan4" S0.8
G1 X92.168 Y113.5 E434.10286
M571 P"duex.fan4" S0.0
G91 
G1 F6000 A-66.15006927946874
G90
M571 P"duex.fan5" S0.8
G1 X89.894 Y114.01 E434.18037
M571 P"duex.fan5" S0.0
G91 
G1 F6000 A-58.12172648679768
G90
M571 P"duex.fan4" S0.8
G1 X89.894 Y95.99 E435.70462
M571 P"duex.fan4" S0.0
G91 
G1 F6000 A-88.07128797648095
G90
M571 P"duex.fan5" S0.8
G1 X92.168 Y96.5 E435.78213
M571 P"duex.fan5" S0.0
G91 
G1 F6000 A-57.78155698896619
G90
M571 P"duex.fan6" S0.8
G1 X94.567 Y96.994 E435.8636
M571 P"duex.fan6" S0.0
G91 
G1 F6000 A-88.39592924023557
G90
M571 P"duex.fan7" S0.8
G1 X96.974 Y97.455 E435.94511
M571 P"duex.fan7" S0.0
G91 
G1 F6000 A-57.4792380852009
G90
M571 P"duex.fan4" S0.8
G1 X99.388 Y97.874 E436.0266
M571 P"duex.fan4" S0.0
G91 
G1 F6000 A-88.69274309444407
G90
M571 P"duex.fan5" S0.8
G1 X101.808 Y98.259 E436.1081
M571 P"duex.fan5" S0.0
G91 
G1 F6000 A-57.21832572908372
G90
M571 P"duex.fan6" S0.8
G1 X104.234 Y98.602 E436.18959
M571 P"duex.fan6" S0.0
G91 
G1 F6000 A-88.86931462246089
G90
M571 P"duex.fan7" S0.8
G1 X106.666 Y98.91 E436.27113
M571 P"duex.fan7" S0.0
G91 
G1 F6000 A-57.13697661861556
G90
M571 P"duex.fan4" S0.8
G1 X109.102 Y99.178 E436.35264
M571 P"duex.fan4" S0.0
G91 
G1 F6000 A-88.80808310016519
G90
M571 P"duex.fan5" S0.8
G1 X111.54 Y99.408 E436.43409
M571 P"duex.fan5" S0.0
G91 
G1 F6000 A-57.308866264497105
G90
M571 P"duex.fan6" S0.8
G1 X113.984 Y99.602 E436.51563
M571 P"duex.fan6" S0.0
G91 
G1 F6000 A-88.66163547378166
G90
M571 P"duex.fan7" S0.8
G1 X116.429 Y99.755 E436.59711
M571 P"duex.fan7" S0.0
G91 
G1 F6000 A-57.42122400590645
G90
M571 P"duex.fan4" S0.8
G1 X118.876 Y99.871 E436.67859
M571 P"duex.fan4" S0.0
G91 
G1 F6000 A-88.58503425132432
G90
M571 P"duex.fan5" S0.8
G1 X121.325 Y99.947 E436.76008
M571 P"duex.fan5" S0.0
G91 
G1 F6000 A-57.42074563979074
G90
M571 P"duex.fan6" S0.8
G1 X123.775 Y99.985 E436.84158
M571 P"duex.fan6" S0.0
G91 
G1 F6000 A54.565333997468116
G90
M571 P"duex.fan6" S0.8
G1 X128.675 Y99.947 E437.00456
M571 P"duex.fan6" S0.0
G91 
G1 F6000 A88.50843302886659
G90
M571 P"duex.fan5" S0.8
G1 X131.124 Y99.871 E437.08606
M571 P"duex.fan5" S0.0
G91 
G1 F6000 A54.67769173887991
G90
M571 P"duex.fan4" S0.8
G1 X133.571 Y99.755 E437.16754
M571 P"duex.fan4" S0.0
G91 
G1 F6000 A88.36198540248087
G90
M571 P"duex.fan7" S0.8
G1 X136.016 Y99.602 E437.24902
M571 P"duex.fan7" S0.0
G91 
G1 F6000 A54.849581384763745
G90
M571 P"duex.fan6" S0.8
G1 X138.46 Y99.408 E437.33056
M571 P"duex.fan6" S0.0
G91 
G1 F6000 A88.30075388018238
G90
M571 P"duex.fan5" S0.8
G1 X140.898 Y99.178 E437.41201
M571 P"duex.fan5" S0.0
G91 
G1 F6000 A54.76823227429796
G90
M571 P"duex.fan4" S0.8
G1 X143.334 Y98.91 E437.49352
M571 P"duex.fan4" S0.0
G91 
G1 F6000 A88.47732540819764
G90
M571 P"duex.fan7" S0.8
G1 X145.766 Y98.602 E437.57505
M571 P"duex.fan7" S0.0
G91 
G1 F6000 A54.50731991818301
G90
M571 P"duex.fan6" S0.8
G1 X148.192 Y98.259 E437.65654
M571 P"duex.fan6" S0.0
G91 
G1 F6000 A88.77413926240312
G90
M571 P"duex.fan5" S0.8
G1 X150.612 Y97.874 E437.73805
M571 P"duex.fan5" S0.0
G91 
G1 F6000 A54.20500101442017
G90
M571 P"duex.fan4" S0.8
G1 X153.026 Y97.455 E437.81954
M571 P"duex.fan4" S0.0
G91 
G1 F6000 A89.09878052615602
G90
M571 P"duex.fan7" S0.8
G1 X155.433 Y96.994 E437.90105
M571 P"duex.fan7" S0.0
G91 
G1 F6000 A53.86483151659135
G90
M571 P"duex.fan6" S0.8
G1 X157.832 Y96.5 E437.98251
M571 P"duex.fan6" S0.0
G91 
G1 F6000 A-13.251796543101314
G90
M571 P"duex.fan4" S0.8
G1 X160.106 Y114.01 E439.58427
M571 P"duex.fan4" S0.0
G91 
G1 F6000 A65.23717085901794
G90
M571 P"duex.fan7" S0.8
G0 F7200 X173.096 Y96.17
M571 P"duex.fan7" S0.0
G91 
G1 F6000 A-65.23990603517481
G90
M571 P"duex.fan7" S0.8
G0 F7200 X170.833 Y96.17
M571 P"duex.fan7" S0.0
G91 
G1 F6000 A65.24273468426806
G90
M571 P"duex.fan7" S0.8
G0 F7200 X169.702 Y96.17
M571 P"duex.fan7" S0.0
G91 
G1 F6000 A-65.24267430944866
G90
M571 P"duex.fan7" S0.8
G0 F7200 X167.439 Y96.17
M571 P"duex.fan7" S0.0
G91 
G1 F6000 A65.242733724298
G90
M571 P"duex.fan7" S0.8
G0 F7200 X165.176 Y96.17
M571 P"duex.fan7" S0.0
G91 
G1 F6000 A-65.24568216306015
G90
M571 P"duex.fan7" S0.8
G0 F7200 X162.913 Y96.17
M571 P"duex.fan7" S0.0
G91 
G1 F6000 A65.2456821630602
G90
M571 P"duex.fan7" S0.8
G0 F7200 X161.782 Y96.17
M571 P"duex.fan7" S0.0
G91 
G1 F6000 A-65.24262013794826
G90
M571 P"duex.fan7" S0.8
G0 F7200 X160.651 Y96.17
M571 P"duex.fan7" S0.0
G91 
G1 F6000 A65.23955811283605
G90
M571 P"duex.fan7" S0.8
G0 F7200 X159.345 Y96.344
M571 P"duex.fan7" S0.0
G91 
G1 F6000 A-65.23955811283611
G90
M571 P"duex.fan7" S0.8
G0 F7200 X157.886 Y96.672
M571 P"duex.fan7" S0.0
G91 
G1 F6000 A65.23955811283605
G90
M571 P"duex.fan7" S0.8
G0 F7200 X156.461 Y96.965
M571 P"duex.fan7" S0.0
G91 
G1 F6000 A-65.23955811283611
G90
M571 P"duex.fan7" S0.8
G0 F7200 X155.045 Y97.25
M571 P"duex.fan7" S0.0
G91 
G1 F6000 A65.24307369332685
G90
M571 P"duex.fan7" S0.8
G0 F7200 X153.645 Y97.519
M571 P"duex.fan7" S0.0
G91 
G1 F6000 A-65.24658927381783
G90
M571 P"duex.fan7" S0.8
G0 F7200 X152.263 Y97.769
M571 P"duex.fan7" S0.0
G91 
G1 F6000 A65.25029807878316
G90
M571 P"duex.fan7" S0.8
G0 F7200 X150.895 Y98.006
M571 P"duex.fan7" S0.0
G91 
G1 F6000 A-65.25400688374877
G90
M571 P"duex.fan7" S0.8
G0 F7200 X149.544 Y98.225
M571 P"duex.fan7" S0.0
G91 
G1 F6000 A65.25790413627118
G90
M571 P"duex.fan7" S0.8
G0 F7200 X148.199 Y98.439
M571 P"duex.fan7" S0.0
G91 
G1 F6000 A-65.26180138879339
G90
M571 P"duex.fan7" S0.8
G0 F7200 X146.882 Y98.625
M571 P"duex.fan7" S0.0
G91 
G1 F6000 A65.26180138879357
G90
M571 P"duex.fan7" S0.8
G0 F7200 X145.568 Y98.807
M571 P"duex.fan7" S0.0
G91 
G1 F6000 A-65.25764620786221
G90
M571 P"duex.fan7" S0.8
G0 F7200 X144.272 Y98.972
M571 P"duex.fan7" S0.0
G91 
G1 F6000 A65.25349102693116
G90
M571 P"duex.fan7" S0.8
G0 F7200 X142.984 Y99.129
M571 P"duex.fan7" S0.0
G91 
G1 F6000 A-65.25349102693103
G90
M571 P"duex.fan7" S0.8
G0 F7200 X141.712 Y99.269
M571 P"duex.fan7" S0.0
G91 
G1 F6000 A65.25349102693103
G90
M571 P"duex.fan7" S0.8
G0 F7200 X140.449 Y99.4
M571 P"duex.fan7" S0.0
G91 
G1 F6000 A-65.25349102693107
G90
M571 P"duex.fan7" S0.8
G0 F7200 X139.2 Y99.518
M571 P"duex.fan7" S0.0
G91 
G1 F6000 A65.2579889701847
G90
M571 P"duex.fan7" S0.8
G0 F7200 X137.96 Y99.627
M571 P"duex.fan7" S0.0
G91 
G1 F6000 A-65.26248691343827
G90
M571 P"duex.fan7" S0.8
G0 F7200 X136.73 Y99.726
M571 P"duex.fan7" S0.0
G91 
G1 F6000 A65.26248691343827
G90
M571 P"duex.fan7" S0.8
G0 F7200 X135.511 Y99.813
M571 P"duex.fan7" S0.0
G91 
G1 F6000 A-65.26248691343827
G90
M571 P"duex.fan7" S0.8
G0 F7200 X134.304 Y99.889
M571 P"duex.fan7" S0.0
G91 
G1 F6000 A65.26248691343822
G90
M571 P"duex.fan7" S0.8
G0 F7200 X133.105 Y99.957
M571 P"duex.fan7" S0.0
G91 
G1 F6000 A-65.26248691343827
G90
M571 P"duex.fan7" S0.8
G0 F7200 X131.917 Y100.013
M571 P"duex.fan7" S0.0
G91 
G1 F6000 A65.26717214697311
G90
M571 P"duex.fan7" S0.8
G0 F7200 X130.736 Y100.063
M571 P"duex.fan7" S0.0
G91 
G1 F6000 A-65.2718573805075
G90
M571 P"duex.fan7" S0.8
G0 F7200 X129.568 Y100.099
M571 P"duex.fan7" S0.0
G91 
G1 F6000 A65.27185738050758
G90
M571 P"duex.fan7" S0.8
G0 F7200 X128.405 Y100.131
M571 P"duex.fan7" S0.0
G91 
G1 F6000 A-65.27651982986644
G90
M571 P"duex.fan7" S0.8
G0 F7200 X127.256 Y100.148
M571 P"duex.fan7" S0.0
G91 
G1 F6000 A65.28118227922522
G90
M571 P"duex.fan7" S0.8
G0 F7200 X126.109 Y100.164
M571 P"duex.fan7" S0.0
G91 
G1 F6000 A-65.28118227922522
G90
M571 P"duex.fan7" S0.8
G0 F7200 X124.978 Y100.164
M571 P"duex.fan7" S0.0
G91 
G1 F6000 A65.28118227922522
G90
M571 P"duex.fan7" S0.8
G0 F7200 X123.846 Y100.164
M571 P"duex.fan7" S0.0
G91 
G1 F6000 A-65.28118227922448
G90
M571 P"duex.fan5" S0.8
G0 F7200 X76.17 Y112.202
M571 P"duex.fan5" S0.0
G91 
G1 F6000 A65.28118227922448
G90
M571 P"duex.fan5" S0.8
G0 F7200 X76.17 Y111.071
M571 P"duex.fan5" S0.0
G91 
G1 F6000 A-65.28452692884217
G90
M571 P"duex.fan5" S0.8
G0 F7200 X76.17 Y109.94
M571 P"duex.fan5" S0.0
G91 
G1 F6000 A65.28787157845967
G90
M571 P"duex.fan5" S0.8
G0 F7200 X76.17 Y108.808
M571 P"duex.fan5" S0.0
G91 
G1 F6000 A-65.28787157845967
G90
M571 P"duex.fan5" S0.8
G0 F7200 X76.17 Y107.677
M571 P"duex.fan5" S0.0
G91 
G1 F6000 A65.28787157845895
G90
M571 P"duex.fan7" S0.8
G0 F7200 X87.113 Y96.168
M571 P"duex.fan7" S0.0
G91 
G1 F6000 A-65.29230624060239
G90
M571 P"duex.fan5" S0.8
G0 F7200 X76.17 Y106.546
M571 P"duex.fan5" S0.0
G91 
G1 F6000 A65.29674090274582
G90
M571 P"duex.fan7" S0.8
G0 F7200 X85.982 Y96.168
M571 P"duex.fan7" S0.0
G91 
G1 F6000 A-65.29674090274509
G90
M571 P"duex.fan5" S0.8
G0 F7200 X76.17 Y105.414
M571 P"duex.fan5" S0.0
G91 
G1 F6000 A65.29674090274509
G90
M571 P"duex.fan5" S0.8
G0 F7200 X76.17 Y104.283
M571 P"duex.fan5" S0.0
G91 
G1 F6000 A-65.29674090274582
G90
M571 P"duex.fan7" S0.8
G0 F7200 X83.719 Y96.168
