;FLAVOR:Marlin
;TIME:1701
;Filament used: 1.77403m
;Layer height: 0.2
;MINX:71.8
;MINY:91.8
;MINZ:0.2
;MAXX:178.2
;MAXY:118.2
;MAXZ:5
;Generated with Cura_SteamEngine 4.8.0
M82 ;absolute extrusion mode
G21 ; set units to millimeters
G90 ; use absolute positioning
M82 ; absolute extrusion mode
M104 S200 ; set extruder temp
M140 S60 ; set bed temp
M190 S60 ; wait for bed temp
M109 S200 ; wait for extruder temp
G28 W ; home all without mesh bed level
G80 ; mesh bed leveling
G92 E0.0 ; reset extruder distance position
G1 Y-3.0 F1000.0 ; go outside print area
G1 X60.0 E9.0 F1000.0 ; intro line
G1 X100.0 E21.5 F1000.0 ; intro line
G92 E0.0 ; reset extruder distance position
G92 E0
G92 E0
G1 F2100 E-0.8
;LAYER_COUNT:25
;LAYER:0
M107
G0 F3600 X73.185 Y92.38 Z0.2
;TYPE:SKIRT
G1 F2100 E0
G1 F1800 X73.622 Y92.126 E0.01681
G1 X74.093 Y91.943 E0.03362
G1 X74.588 Y91.837 E0.05045
G1 X75.24 Y91.801 E0.07217
G1 X89.339 Y91.8 E0.54111
G1 X90.04 Y91.81 E0.56443
G1 X90.58 Y91.864 E0.58248
G1 X91.199 Y91.989 E0.60348
G1 X92.334 Y92.242 E0.64216
G1 X93.8 Y92.557 E0.69203
G1 X94.616 Y92.727 E0.71975
G1 X96.103 Y93.023 E0.77018
G1 X96.922 Y93.179 E0.79791
G1 X98.472 Y93.461 E0.85031
G1 X99.391 Y93.622 E0.88134
G1 X100.783 Y93.854 E0.92828
G1 X101.6 Y93.984 E0.95579
G1 X103.249 Y94.231 E1.01125
G1 X104.091 Y94.35 E1.03953
G1 X105.604 Y94.552 E1.0903
G1 X106.432 Y94.656 E1.11806
G1 X107.837 Y94.824 E1.16512
G1 X108.66 Y94.915 E1.19266
G1 X110.347 Y95.088 E1.24907
G1 X111.189 Y95.167 E1.27719
G1 X112.669 Y95.294 E1.3266
G1 X113.55 Y95.363 E1.35599
G1 X115.021 Y95.467 E1.40504
G1 X115.874 Y95.521 E1.43347
G1 X117.407 Y95.607 E1.48454
G1 X118.192 Y95.644 E1.51067
G1 X119.834 Y95.709 E1.56533
G1 X120.618 Y95.733 E1.59142
G1 X122.176 Y95.769 E1.64325
G1 X123.088 Y95.783 E1.67359
G1 X124.599 Y95.795 E1.72385
G1 X125.401 Y95.795 E1.75052
G1 X126.912 Y95.783 E1.80078
G1 X127.824 Y95.769 E1.83111
G1 X129.382 Y95.733 E1.88295
G1 X130.166 Y95.708 E1.90904
G1 X131.808 Y95.645 E1.96369
G1 X132.593 Y95.607 E1.98983
G1 X134.126 Y95.521 E2.0409
G1 X134.979 Y95.467 E2.06933
G1 X136.45 Y95.363 E2.11837
G1 X137.331 Y95.294 E2.14777
G1 X138.811 Y95.167 E2.19717
G1 X139.653 Y95.088 E2.2253
G1 X141.34 Y94.915 E2.2817
G1 X142.163 Y94.823 E2.30925
G1 X143.568 Y94.656 E2.35631
G1 X144.396 Y94.552 E2.38406
G1 X145.909 Y94.35 E2.43483
G1 X146.751 Y94.232 E2.46311
G1 X148.4 Y93.984 E2.51857
G1 X149.217 Y93.854 E2.54609
G1 X150.609 Y93.621 E2.59303
G1 X151.528 Y93.462 E2.62405
G1 X153.068 Y93.181 E2.67612
G1 X153.895 Y93.023 E2.70412
G1 X155.384 Y92.726 E2.75462
G1 X156.2 Y92.558 E2.78233
G1 X157.665 Y92.242 E2.83218
G1 X158.623 Y92.028 E2.86482
G1 X159.368 Y91.875 E2.89012
G1 X159.889 Y91.812 E2.90758
G1 X160.516 Y91.8 E2.92843
G1 X174.339 Y91.8 E3.38819
G1 X175.037 Y91.81 E3.41141
G1 X175.54 Y91.857 E3.42821
G1 X176.03 Y91.983 E3.44504
G1 X176.494 Y92.185 E3.46187
G1 X176.92 Y92.457 E3.47868
G1 X177.298 Y92.792 E3.49548
G1 X177.618 Y93.183 E3.51228
G1 X177.873 Y93.62 E3.52911
G1 X178.056 Y94.091 E3.54592
G1 X178.163 Y94.585 E3.56273
G1 X178.199 Y95.24 E3.58455
G1 X178.2 Y114.304 E4.21862
G1 X178.191 Y115.031 E4.2428
G1 X178.145 Y115.534 E4.2596
G1 X178.02 Y116.024 E4.27642
G1 X177.819 Y116.488 E4.29324
G1 X177.548 Y116.915 E4.31006
G1 X177.213 Y117.294 E4.32688
G1 X176.823 Y117.615 E4.34368
G1 X176.387 Y117.871 E4.3605
G1 X175.916 Y118.054 E4.37731
G1 X175.422 Y118.162 E4.39412
G1 X174.76 Y118.199 E4.41618
G1 X160.661 Y118.2 E4.88511
G1 X159.962 Y118.19 E4.90836
G1 X159.428 Y118.137 E4.92621
G1 X158.801 Y118.011 E4.94748
G1 X157.666 Y117.758 E4.98616
G1 X156.195 Y117.441 E5.03621
G1 X155.399 Y117.276 E5.06325
G1 X153.898 Y116.977 E5.11415
G1 X153.065 Y116.818 E5.14236
G1 X151.476 Y116.529 E5.19607
G1 X150.587 Y116.375 E5.22608
G1 X149.194 Y116.142 E5.27306
G1 X148.4 Y116.016 E5.2998
G1 X146.751 Y115.768 E5.35526
G1 X145.935 Y115.653 E5.38267
G1 X144.398 Y115.448 E5.43424
G1 X143.567 Y115.344 E5.4621
G1 X142.162 Y115.176 E5.50916
G1 X141.339 Y115.085 E5.5367
G1 X139.652 Y114.912 E5.5931
G1 X138.81 Y114.833 E5.62123
G1 X137.331 Y114.706 E5.6706
G1 X136.45 Y114.637 E5.7
G1 X134.978 Y114.533 E5.74908
G1 X134.125 Y114.479 E5.7775
G1 X132.592 Y114.393 E5.82857
G1 X131.807 Y114.356 E5.85471
G1 X130.165 Y114.291 E5.90937
G1 X129.382 Y114.267 E5.93542
G1 X127.825 Y114.231 E5.98722
G1 X126.912 Y114.217 E6.01759
G1 X125.401 Y114.205 E6.06785
G1 X124.599 Y114.205 E6.09452
G1 X123.088 Y114.217 E6.14478
G1 X122.176 Y114.231 E6.17512
G1 X120.618 Y114.267 E6.22695
G1 X119.835 Y114.292 E6.25301
G1 X118.192 Y114.355 E6.30769
G1 X117.407 Y114.393 E6.33383
G1 X115.874 Y114.479 E6.3849
G1 X115.021 Y114.533 E6.41333
G1 X113.55 Y114.637 E6.46238
G1 X112.669 Y114.706 E6.49177
G1 X111.19 Y114.833 E6.54114
G1 X110.347 Y114.912 E6.5693
G1 X108.66 Y115.085 E6.62571
G1 X107.837 Y115.177 E6.65325
G1 X106.432 Y115.344 E6.70031
G1 X105.602 Y115.448 E6.72813
G1 X104.066 Y115.653 E6.77967
G1 X103.277 Y115.765 E6.80618
G1 X101.572 Y116.02 E6.86352
G1 X100.806 Y116.143 E6.88932
G1 X99.413 Y116.375 E6.93629
G1 X98.524 Y116.529 E6.9663
G1 X96.936 Y116.818 E7.01998
G1 X96.104 Y116.977 E7.04816
G1 X94.601 Y117.276 E7.09913
G1 X93.805 Y117.441 E7.12616
G1 X92.335 Y117.758 E7.17618
G1 X91.377 Y117.972 E7.20883
G1 X90.632 Y118.125 E7.23412
G1 X90.111 Y118.188 E7.25158
G1 X89.484 Y118.2 E7.27244
G1 X75.661 Y118.2 E7.73219
G1 X74.963 Y118.19 E7.75541
G1 X74.46 Y118.143 E7.77221
G1 X73.97 Y118.017 E7.78904
G1 X73.506 Y117.815 E7.80587
G1 X73.08 Y117.543 E7.82268
G1 X72.702 Y117.208 E7.83948
G1 X72.382 Y116.817 E7.85629
G1 X72.127 Y116.38 E7.87311
G1 X71.944 Y115.909 E7.88992
G1 X71.837 Y115.415 E7.90673
G1 X71.801 Y114.745 E7.92905
G1 X71.8 Y95.626 E8.56495
G1 X71.81 Y94.961 E8.58707
G1 X71.858 Y94.458 E8.60388
G1 X71.984 Y93.968 E8.6207
G1 X72.186 Y93.504 E8.63754
G1 X72.458 Y93.078 E8.65435
G1 X72.794 Y92.701 E8.67114
G1 X73.185 Y92.38 E8.68797
G1 F2100 E7.88797
;MESH:Pruefk??rper_V1.stl
G0 F3600 X75.614 Y94.335
G0 X75.614 Y95.614
G0 X157.771 Y113.785
G0 X157.75 Y113.882
;TYPE:WALL-INNER
G1 F2100 E8.68797
G1 F1800 X155.357 Y113.388 E8.76924
G1 X152.956 Y112.929 E8.85054
G1 X150.548 Y112.51 E8.93184
G1 X148.134 Y112.127 E9.01313
G1 X145.714 Y111.784 E9.09442
G1 X143.289 Y111.478 E9.17572
G1 X140.859 Y111.21 E9.25703
G1 X138.427 Y110.98 E9.33828
G1 X135.989 Y110.788 E9.41962
G1 X133.55 Y110.635 E9.5009
G1 X131.109 Y110.519 E9.58218
G1 X128.666 Y110.443 E9.66347
G1 X126.222 Y110.405 E9.74477
G1 X123.778 Y110.405 E9.82606
G1 X121.334 Y110.443 E9.90736
G1 X118.891 Y110.519 E9.98865
G1 X116.45 Y110.635 E10.06993
G1 X114.011 Y110.788 E10.15121
G1 X111.573 Y110.98 E10.23255
G1 X109.141 Y111.21 E10.3138
G1 X106.711 Y111.478 E10.39511
G1 X104.286 Y111.784 E10.47641
G1 X101.866 Y112.127 E10.5577
G1 X99.452 Y112.51 E10.639
G1 X97.044 Y112.929 E10.72029
G1 X94.643 Y113.388 E10.80159
G1 X92.25 Y113.882 E10.88286
G1 X89.936 Y114.4 E10.96173
G1 X75.6 Y114.4 E11.43855
G1 X75.6 Y95.6 E12.06384
G1 X89.936 Y95.6 E12.54066
G1 X92.25 Y96.118 E12.61953
G1 X94.643 Y96.612 E12.7008
G1 X97.044 Y97.071 E12.7821
G1 X99.452 Y97.49 E12.86339
G1 X101.866 Y97.873 E12.94469
G1 X104.286 Y98.216 E13.02598
G1 X106.711 Y98.522 E13.10728
G1 X109.141 Y98.79 E13.18859
G1 X111.573 Y99.02 E13.26984
G1 X114.011 Y99.212 E13.35118
G1 X116.45 Y99.365 E13.43246
G1 X118.891 Y99.481 E13.51374
G1 X121.334 Y99.557 E13.59503
G1 X123.778 Y99.595 E13.67633
G1 X126.222 Y99.595 E13.75762
G1 X128.666 Y99.557 E13.83892
G1 X131.109 Y99.481 E13.92021
G1 X133.55 Y99.365 E14.00149
G1 X135.989 Y99.212 E14.08277
G1 X138.427 Y99.02 E14.16411
G1 X140.859 Y98.79 E14.24536
G1 X143.289 Y98.522 E14.32667
G1 X145.714 Y98.216 E14.40797
G1 X148.134 Y97.873 E14.48926
G1 X150.548 Y97.49 E14.57055
G1 X152.956 Y97.071 E14.65185
G1 X155.357 Y96.612 E14.73315
G1 X157.75 Y96.118 E14.81442
G1 X160.064 Y95.6 E14.89329
G1 X174.4 Y95.6 E15.37011
G1 X174.4 Y114.4 E15.9954
G1 X160.064 Y114.4 E16.47222
G1 X157.75 Y113.882 E16.55108
G0 F3600 X157.666 Y114.273
;TYPE:WALL-OUTER
G1 F1800 X155.279 Y113.78 E16.63215
G1 X152.884 Y113.323 E16.71325
G1 X150.482 Y112.905 E16.79434
G1 X148.075 Y112.523 E16.8754
G1 X145.661 Y112.18 E16.95649
G1 X143.242 Y111.875 E17.03759
G1 X140.818 Y111.608 E17.1187
G1 X138.392 Y111.379 E17.19975
G1 X135.961 Y111.187 E17.28085
G1 X133.528 Y111.034 E17.36193
G1 X131.093 Y110.919 E17.44301
G1 X128.657 Y110.843 E17.52407
G1 X126.219 Y110.805 E17.60517
G1 X123.781 Y110.805 E17.68626
G1 X121.343 Y110.843 E17.76736
G1 X118.907 Y110.919 E17.84842
G1 X116.472 Y111.034 E17.9295
G1 X114.039 Y111.187 E18.01058
G1 X111.608 Y111.379 E18.09169
G1 X109.182 Y111.608 E18.17274
G1 X106.758 Y111.875 E18.25385
G1 X104.339 Y112.18 E18.33494
G1 X101.925 Y112.523 E18.41604
G1 X99.518 Y112.905 E18.49709
G1 X97.116 Y113.323 E18.57819
G1 X94.721 Y113.78 E18.65928
G1 X92.334 Y114.273 E18.74035
G1 X89.978 Y114.8 E18.82065
G1 X75.2 Y114.8 E19.31216
G1 X75.2 Y95.2 E19.96406
G1 X89.978 Y95.2 E20.45558
G1 X92.334 Y95.727 E20.53588
G1 X94.721 Y96.22 E20.61695
G1 X97.116 Y96.677 E20.69804
G1 X99.518 Y97.095 E20.77913
G1 X101.925 Y97.477 E20.86019
G1 X104.339 Y97.82 E20.94129
G1 X106.758 Y98.125 E21.02238
G1 X109.182 Y98.392 E21.10349
G1 X111.608 Y98.621 E21.18454
G1 X114.039 Y98.813 E21.26565
G1 X116.472 Y98.966 E21.34673
G1 X118.907 Y99.081 E21.42781
G1 X121.343 Y99.157 E21.50887
G1 X123.781 Y99.195 E21.58997
G1 X126.219 Y99.195 E21.67105
G1 X128.657 Y99.157 E21.75215
G1 X131.093 Y99.081 E21.83321
G1 X133.528 Y98.966 E21.91429
G1 X135.961 Y98.813 E21.99537
G1 X138.392 Y98.621 E22.07648
G1 X140.818 Y98.392 E22.15753
G1 X143.242 Y98.125 E22.23864
G1 X145.661 Y97.82 E22.31973
G1 X148.075 Y97.477 E22.40083
G1 X150.482 Y97.095 E22.48189
G1 X152.884 Y96.677 E22.56298
G1 X155.279 Y96.22 E22.64407
G1 X157.666 Y95.727 E22.72514
G1 X160.022 Y95.2 E22.80544
G1 X174.8 Y95.2 E23.29696
G1 X174.8 Y114.8 E23.94886
G1 X160.022 Y114.8 E24.44037
G1 X157.666 Y114.273 E24.52067
G0 F3600 X157.471 Y114.233
G0 X157.832 Y113.5
;TYPE:SKIN
G1 F1800 X155.433 Y113.006 E24.60214
G1 X153.026 Y112.545 E24.68365
G1 X150.612 Y112.126 E24.76514
G1 X148.192 Y111.741 E24.84664
G1 X145.766 Y111.398 E24.92813
G1 X143.334 Y111.09 E25.00967
G1 X140.898 Y110.822 E25.09118
G1 X138.46 Y110.592 E25.17263
G1 X136.016 Y110.398 E25.25417
G1 X133.571 Y110.245 E25.33565
G1 X131.124 Y110.129 E25.41713
G1 X128.675 Y110.053 E25.49862
G1 X126.225 Y110.015 E25.58012
G1 X123.775 Y110.015 E25.66161
G1 X121.325 Y110.053 E25.7431
G1 X118.876 Y110.129 E25.8246
G1 X116.429 Y110.245 E25.90608
G1 X113.984 Y110.398 E25.98756
G1 X111.54 Y110.592 E26.0691
G1 X109.102 Y110.822 E26.15055
G1 X106.666 Y111.09 E26.23206
G1 X104.234 Y111.398 E26.31359
G1 X101.808 Y111.741 E26.39509
G1 X99.388 Y112.126 E26.47659
G1 X96.974 Y112.545 E26.55808
G1 X94.567 Y113.006 E26.63959
G1 X92.168 Y113.5 E26.72105
G1 X89.894 Y114.01 E26.79857
G1 X75.99 Y114.01 E27.26102
G1 X75.99 Y95.99 E27.86036
G1 X89.894 Y95.99 E28.32281
G1 X92.168 Y96.5 E28.40033
G1 X94.567 Y96.994 E28.48179
G1 X96.974 Y97.455 E28.5633
G1 X99.388 Y97.874 E28.64479
G1 X101.808 Y98.259 E28.72629
G1 X104.234 Y98.602 E28.80779
G1 X106.666 Y98.91 E28.88932
G1 X109.102 Y99.178 E28.97083
G1 X111.54 Y99.408 E29.05228
G1 X113.984 Y99.602 E29.13382
G1 X116.429 Y99.755 E29.2153
G1 X118.876 Y99.871 E29.29678
G1 X121.325 Y99.947 E29.37828
G1 X123.775 Y99.985 E29.45977
G1 X126.225 Y99.985 E29.54126
G1 X128.675 Y99.947 E29.62276
G1 X131.124 Y99.871 E29.70425
G1 X133.571 Y99.755 E29.78573
G1 X136.016 Y99.602 E29.86721
G1 X138.46 Y99.408 E29.94875
G1 X140.898 Y99.178 E30.0302
G1 X143.334 Y98.91 E30.11171
G1 X145.766 Y98.602 E30.19325
G1 X148.192 Y98.259 E30.27474
G1 X150.612 Y97.874 E30.35624
G1 X153.026 Y97.455 E30.43773
G1 X155.433 Y96.994 E30.51924
G1 X157.832 Y96.5 E30.60071
G1 X160.106 Y95.99 E30.67822
G1 X174.01 Y95.99 E31.14067
G1 X174.01 Y114.01 E31.74002
G1 X160.106 Y114.01 E32.20247
G1 X157.832 Y113.5 E32.27998
G0 F3600 X173.829 Y96.33
G1 F1800 X173.668 Y96.17 E32.28753
G0 F3600 X173.103 Y96.17
G1 F1800 X173.829 Y96.896 E32.32168
G0 F3600 X173.829 Y97.461
G1 F1800 X172.537 Y96.17 E32.38242
G0 F3600 X171.971 Y96.17
G1 F1800 X173.829 Y98.027 E32.4698
G0 F3600 X173.829 Y98.593
G1 F1800 X171.406 Y96.17 E32.58377
G0 F3600 X170.84 Y96.17
G1 F1800 X173.829 Y99.158 E32.72434
G0 F3600 X173.829 Y99.724
G1 F1800 X170.274 Y96.17 E32.89153
G0 F3600 X169.709 Y96.17
G1 F1800 X173.829 Y100.29 E33.08532
G0 F3600 X173.829 Y100.856
G1 F1800 X169.143 Y96.17 E33.30574
G0 F3600 X168.577 Y96.17
G1 F1800 X173.829 Y101.421 E33.55275
G0 F3600 X173.829 Y101.987
G1 F1800 X168.012 Y96.17 E33.82636
G0 F3600 X167.446 Y96.17
G1 F1800 X173.829 Y102.553 E34.1266
G0 F3600 X173.829 Y103.118
G1 F1800 X166.88 Y96.17 E34.45344
G0 F3600 X166.315 Y96.17
G1 F1800 X173.829 Y103.684 E34.80687
G0 F3600 X173.829 Y104.25
G1 F1800 X165.749 Y96.17 E35.18693
G0 F3600 X165.183 Y96.17
G1 F1800 X173.829 Y104.815 E35.59359
G0 F3600 X173.829 Y105.381
G1 F1800 X164.617 Y96.17 E36.02687
G0 F3600 X164.052 Y96.17
G1 F1800 X173.829 Y105.947 E36.48675
G0 F3600 X173.829 Y106.512
G1 F1800 X163.486 Y96.17 E36.97323
G0 F3600 X162.92 Y96.17
G1 F1800 X173.829 Y107.078 E37.48633
G0 F3600 X173.829 Y107.644
G1 F1800 X162.355 Y96.17 E38.02603
G0 F3600 X161.789 Y96.17
G1 F1800 X173.829 Y108.209 E38.59233
G0 F3600 X173.829 Y108.775
G1 F1800 X161.223 Y96.17 E39.18526
G0 F3600 X160.658 Y96.17
G1 F1800 X173.829 Y109.341 E39.80478
G0 F3600 X173.829 Y109.907
G1 F1800 X160.098 Y96.176 E40.45065
G0 F3600 X159.637 Y96.28
G1 F1800 X173.829 Y110.472 E41.11819
G0 F3600 X173.829 Y111.038
G1 F1800 X159.174 Y96.383 E41.80752
G0 F3600 X158.712 Y96.487
G1 F1800 X173.829 Y111.604 E42.51858
G0 F3600 X173.829 Y112.169
G1 F1800 X158.251 Y96.591 E43.25132
G0 F3600 X157.787 Y96.693
G1 F1800 X173.829 Y112.735 E44.00589
G0 F3600 X173.829 Y113.301
G1 F1800 X157.318 Y96.79 E44.78251
G0 F3600 X156.849 Y96.886
G1 F1800 X173.792 Y113.83 E45.57948
G0 F3600 X173.227 Y113.83
G1 F1800 X156.38 Y96.983 E46.37191
G0 F3600 X155.91 Y97.079
G1 F1800 X172.661 Y113.83 E47.15983
G0 F3600 X172.095 Y113.83
G1 F1800 X155.441 Y97.175 E47.94321
G0 F3600 X154.966 Y97.266
G1 F1800 X171.529 Y113.83 E48.7223
G0 F3600 X170.964 Y113.83
G1 F1800 X154.492 Y97.357 E49.49712
G0 F3600 X154.017 Y97.448
G1 F1800 X170.398 Y113.83 E50.26765
G0 F3600 X169.832 Y113.83
G1 F1800 X153.542 Y97.539 E51.03391
G0 F3600 X153.068 Y97.63
G1 F1800 X169.267 Y113.83 E51.79588
G0 F3600 X168.701 Y113.83
G1 F1800 X152.585 Y97.714 E52.55393
G0 F3600 X152.103 Y97.797
G1 F1800 X168.135 Y113.83 E53.30805
G0 F3600 X167.57 Y113.83
G1 F1800 X151.621 Y97.881 E54.05824
G0 F3600 X151.139 Y97.965
G1 F1800 X167.004 Y113.83 E54.80448
G0 F3600 X166.438 Y113.83
G1 F1800 X150.657 Y98.048 E55.5468
G0 F3600 X150.169 Y98.126
G1 F1800 X165.873 Y113.83 E56.28547
G0 F3600 X165.307 Y113.83
G1 F1800 X149.681 Y98.204 E57.02046
G0 F3600 X149.193 Y98.282
G1 F1800 X164.741 Y113.83 E57.75179
G0 F3600 X164.176 Y113.83
G1 F1800 X148.705 Y98.359 E58.4795
G0 F3600 X148.218 Y98.437
G1 F1800 X163.61 Y113.83 E59.20352
G0 F3600 X163.044 Y113.83
G1 F1800 X147.722 Y98.507 E59.92424
G0 F3600 X147.226 Y98.577
G1 F1800 X162.478 Y113.83 E60.64167
G0 F3600 X161.913 Y113.83
G1 F1800 X146.731 Y98.647 E61.35581
G0 F3600 X146.235 Y98.717
G1 F1800 X161.347 Y113.83 E62.06666
G0 F3600 X160.781 Y113.83
G1 F1800 X145.738 Y98.787 E62.77423
G0 F3600 X145.236 Y98.85
G1 F1800 X160.216 Y113.83 E63.47885
G0 F3600 X159.512 Y113.692
G1 F1800 X144.734 Y98.914 E64.17396
G0 F3600 X144.232 Y98.977
G1 F1800 X158.783 Y113.528 E64.85839
G0 F3600 X158.054 Y113.365
G1 F1800 X143.73 Y99.041 E65.53215
G0 F3600 X143.226 Y99.103
G1 F1800 X157.338 Y113.214 E66.19591
G0 F3600 X156.626 Y113.068
G1 F1800 X142.717 Y99.159 E66.85015
G0 F3600 X142.207 Y99.215
G1 F1800 X155.914 Y112.922 E67.49488
G0 F3600 X155.206 Y112.779
G1 F1800 X141.697 Y99.271 E68.13028
G0 F3600 X141.188 Y99.327
G1 F1800 X154.506 Y112.645 E68.75672
G0 F3600 X153.806 Y112.511
G1 F1800 X140.675 Y99.38 E69.37436
G0 F3600 X140.158 Y99.429
G1 F1800 X153.106 Y112.376 E69.98337
G0 F3600 X152.421 Y112.257
G1 F1800 X139.641 Y99.477 E70.58451
G0 F3600 X139.124 Y99.526
G1 F1800 X151.736 Y112.138 E71.17773
G0 F3600 X151.052 Y112.019
G1 F1800 X138.607 Y99.575 E71.76309
G0 F3600 X138.085 Y99.618
G1 F1800 X150.372 Y111.906 E72.34105
G0 F3600 X149.7 Y111.799
G1 F1800 X137.561 Y99.66 E72.91203
G0 F3600 X137.037 Y99.702
G1 F1800 X149.026 Y111.691 E73.47596
G0 F3600 X148.353 Y111.584
G1 F1800 X136.513 Y99.743 E74.0329
G0 F3600 X135.988 Y99.784
G1 F1800 X147.692 Y111.488 E74.58342
G0 F3600 X147.033 Y111.395
G1 F1800 X135.456 Y99.818 E75.12797
G0 F3600 X134.923 Y99.851
G1 F1800 X146.375 Y111.302 E75.66661
G0 F3600 X145.717 Y111.21
G1 F1800 X134.391 Y99.884 E76.19935
G0 F3600 X133.858 Y99.917
G1 F1800 X145.069 Y111.128 E76.72668
G0 F3600 X144.421 Y111.046
G1 F1800 X133.322 Y99.947 E77.24875
G0 F3600 X132.782 Y99.972
G1 F1800 X143.773 Y110.964 E77.76575
G0 F3600 X143.13 Y110.886
G1 F1800 X132.243 Y99.999 E78.27784
G0 F3600 X131.702 Y100.024
G1 F1800 X142.494 Y110.816 E78.78547
G0 F3600 X141.859 Y110.746
G1 F1800 X131.162 Y100.049 E79.28862
G0 F3600 X130.614 Y100.067
G1 F1800 X141.224 Y110.677 E79.78768
G0 F3600 X140.594 Y110.612
G1 F1800 X130.065 Y100.084 E80.28291
G0 F3600 X129.517 Y100.101
G1 F1800 X139.969 Y110.554 E80.77456
G0 F3600 X139.345 Y110.495
G1 F1800 X128.968 Y100.118 E81.26267
G0 F3600 X128.415 Y100.131
G1 F1800 X138.72 Y110.435 E81.74736
G0 F3600 X138.102 Y110.383
G1 F1800 X127.859 Y100.14 E82.22916
G0 F3600 X127.301 Y100.148
G1 F1800 X137.487 Y110.334 E82.70827
G0 F3600 X136.872 Y110.285
G1 F1800 X126.744 Y100.157 E83.18466
G0 F3600 X126.186 Y100.165
G1 F1800 X136.258 Y110.236 E83.6584
G0 F3600 X135.649 Y110.194
G1 F1800 X125.621 Y100.165 E84.13011
G0 F3600 X125.055 Y100.165
G1 F1800 X135.046 Y110.156 E84.60005
G0 F3600 X134.443 Y110.119
G1 F1800 X124.489 Y100.165 E85.06826
G0 F3600 X123.923 Y100.165
G1 F1800 X133.84 Y110.081 E85.5347
G0 F3600 X133.242 Y110.049
G1 F1800 X123.351 Y100.158 E85.99994
G0 F3600 X122.777 Y100.149
G1 F1800 X132.648 Y110.02 E86.46424
G0 F3600 X132.054 Y109.992
G1 F1800 X122.202 Y100.141 E86.92763
G0 F3600 X121.628 Y100.131
G1 F1800 X131.46 Y109.964 E87.39012
G0 F3600 X130.87 Y109.94
G1 F1800 X121.049 Y100.119 E87.85207
G0 F3600 X120.465 Y100.1
G1 F1800 X130.287 Y109.922 E88.31407
G0 F3600 X129.703 Y109.904
G1 F1800 X119.881 Y100.082 E88.77606
G0 F3600 X119.297 Y100.064
G1 F1800 X129.119 Y109.886 E89.23806
G0 F3600 X128.537 Y109.87
G1 F1800 X118.711 Y100.043 E89.70027
G0 F3600 X118.117 Y100.015
G1 F1800 X127.963 Y109.861 E90.16339
G0 F3600 X127.388 Y109.852
G1 F1800 X117.523 Y99.987 E90.62741
G0 F3600 X116.93 Y99.959
G1 F1800 X126.813 Y109.843 E91.0923
G0 F3600 X126.239 Y109.834
G1 F1800 X116.335 Y99.93 E91.55816
G0 F3600 X115.732 Y99.892
G1 F1800 X125.674 Y109.834 E92.0258
G0 F3600 X125.108 Y109.834
G1 F1800 X115.128 Y99.854 E92.49523
G0 F3600 X114.525 Y99.817
G1 F1800 X124.542 Y109.834 E92.9664
G0 F3600 X123.977 Y109.834
G1 F1800 X113.92 Y99.778 E93.43942
G0 F3600 X113.305 Y99.728
G1 F1800 X123.417 Y109.84 E93.91506
G0 F3600 X122.859 Y109.849
G1 F1800 X112.69 Y99.68 E94.39338
G0 F3600 X112.076 Y99.631
G1 F1800 X122.302 Y109.857 E94.87438
G0 F3600 X121.745 Y109.866
G1 F1800 X111.46 Y99.581 E95.35815
G0 F3600 X110.836 Y99.522
G1 F1800 X121.19 Y109.876 E95.84517
G0 F3600 X120.641 Y109.893
G1 F1800 X110.211 Y99.463 E96.33577
G0 F3600 X109.586 Y99.404
G1 F1800 X120.092 Y109.91 E96.82994
G0 F3600 X119.544 Y109.927
G1 F1800 X108.96 Y99.343 E97.32778
G0 F3600 X108.325 Y99.274
G1 F1800 X118.995 Y109.944 E97.82966
G0 F3600 X118.453 Y109.967
G1 F1800 X107.689 Y99.204 E98.33594
G0 F3600 X107.053 Y99.134
G1 F1800 X117.913 Y109.993 E98.84674
G0 F3600 X117.373 Y110.019
G1 F1800 X106.413 Y99.06 E99.36224
G0 F3600 X105.766 Y98.977
G1 F1800 X116.833 Y110.045 E99.88282
G0 F3600 X116.295 Y110.072
G1 F1800 X105.118 Y98.895 E100.40856
G0 F3600 X104.47 Y98.813
G1 F1800 X115.762 Y110.105 E100.9397
G0 F3600 X115.23 Y110.138
G1 F1800 X103.816 Y98.724 E101.47658
G0 F3600 X103.156 Y98.631
G1 F1800 X114.697 Y110.172 E102.01943
G0 F3600 X114.165 Y110.205
G1 F1800 X102.498 Y98.538 E102.56821
G0 F3600 X101.839 Y98.445
G1 F1800 X113.638 Y110.244 E103.1232
G0 F3600 X113.114 Y110.286
G1 F1800 X101.167 Y98.339 E103.68515
G0 F3600 X100.495 Y98.232
G1 F1800 X112.59 Y110.327 E104.25406
G0 F3600 X112.066 Y110.369
G1 F1800 X99.822 Y98.125 E104.82998
G0 F3600 X99.145 Y98.014
G1 F1800 X111.541 Y110.41 E105.41305
G0 F3600 X111.024 Y110.459
G1 F1800 X98.461 Y97.895 E106.004
G0 F3600 X97.776 Y97.776
G1 F1800 X110.508 Y110.508 E106.60287
G0 F3600 X109.991 Y110.556
G1 F1800 X97.091 Y97.657 E107.20963
G0 F3600 X96.394 Y97.526
G1 F1800 X109.474 Y110.605 E107.82485
G0 F3600 X108.958 Y110.655
G1 F1800 X95.695 Y97.392 E108.4487
G0 F3600 X94.995 Y97.258
G1 F1800 X108.448 Y110.711 E109.08148
G0 F3600 X107.939 Y110.767
G1 F1800 X94.291 Y97.12 E109.72342
G0 F3600 X93.579 Y96.974
G1 F1800 X107.429 Y110.823 E110.37486
G0 F3600 X106.92 Y110.88
G1 F1800 X92.867 Y96.827 E111.03587
G0 F3600 X92.155 Y96.681
G1 F1800 X106.413 Y110.939 E111.70652
G0 F3600 X105.911 Y111.003
G1 F1800 X91.426 Y96.517 E112.38787
G0 F3600 X90.697 Y96.353
G1 F1800 X105.409 Y111.066 E113.07991
G0 F3600 X104.907 Y111.13
G1 F1800 X89.967 Y96.189 E113.78266
G0 F3600 X89.381 Y96.169
G1 F1800 X104.405 Y111.193 E114.48934
G0 F3600 X103.907 Y111.261
G1 F1800 X88.815 Y96.169 E115.19923
G0 F3600 X88.249 Y96.169
G1 F1800 X103.411 Y111.331 E115.9124
G0 F3600 X102.915 Y111.401
G1 F1800 X87.684 Y96.169 E116.62884
G0 F3600 X87.118 Y96.169
G1 F1800 X102.42 Y111.471 E117.3486
G0 F3600 X101.924 Y111.541
G1 F1800 X86.552 Y96.169 E118.07165
G0 F3600 X85.987 Y96.169
G1 F1800 X101.434 Y111.616 E118.79823
G0 F3600 X100.946 Y111.694
G1 F1800 X85.421 Y96.169 E119.52848
G0 F3600 X84.855 Y96.169
G1 F1800 X100.458 Y111.772 E120.2624
G0 F3600 X99.97 Y111.85
G1 F1800 X84.289 Y96.169 E120.99998
G0 F3600 X83.724 Y96.169
G1 F1800 X99.482 Y111.927 E121.74119
G0 F3600 X98.999 Y112.009
G1 F1800 X83.158 Y96.169 E122.48628
G0 F3600 X82.592 Y96.169
G1 F1800 X98.516 Y112.093 E123.2353
G0 F3600 X98.034 Y112.176
G1 F1800 X82.027 Y96.169 E123.98822
G0 F3600 X81.461 Y96.169
G1 F1800 X97.553 Y112.26 E124.74511
G0 F3600 X97.07 Y112.344
G1 F1800 X80.895 Y96.169 E125.50593
G0 F3600 X80.33 Y96.169
G1 F1800 X96.594 Y112.433 E126.27094
G0 F3600 X96.119 Y112.524
G1 F1800 X79.764 Y96.169 E127.04023
G0 F3600 X79.198 Y96.169
G1 F1800 X95.644 Y112.615 E127.8138
G0 F3600 X95.17 Y112.706
G1 F1800 X78.633 Y96.169 E128.59165
G0 F3600 X78.067 Y96.169
G1 F1800 X94.695 Y112.797 E129.37378
G0 F3600 X94.224 Y112.891
G1 F1800 X77.501 Y96.169 E130.16036
G0 F3600 X76.936 Y96.169
G1 F1800 X93.755 Y112.988 E130.95147
G0 F3600 X93.285 Y113.084
G1 F1800 X76.37 Y96.169 E131.7471
G0 F3600 X76.169 Y96.534
G1 F1800 X92.816 Y113.181 E132.53012
G0 F3600 X92.347 Y113.277
G1 F1800 X76.169 Y97.099 E133.29109
G0 F3600 X76.169 Y97.665
G1 F1800 X91.882 Y113.378 E134.03018
G0 F3600 X91.42 Y113.482
G1 F1800 X76.169 Y98.231 E134.74754
G0 F3600 X76.169 Y98.796
G1 F1800 X90.957 Y113.585 E135.44315
G0 F3600 X90.496 Y113.689
G1 F1800 X76.169 Y99.362 E136.11704
G0 F3600 X76.169 Y99.928
G1 F1800 X90.034 Y113.793 E136.76921
G0 F3600 X89.504 Y113.829
G1 F1800 X76.169 Y100.494 E137.39645
G0 F3600 X76.169 Y101.059
G1 F1800 X88.939 Y113.829 E137.99711
G0 F3600 X88.373 Y113.829
G1 F1800 X76.169 Y101.625 E138.57115
G0 F3600 X76.169 Y102.191
G1 F1800 X87.807 Y113.829 E139.11856
G0 F3600 X87.242 Y113.829
G1 F1800 X76.169 Y102.756 E139.6394
G0 F3600 X76.169 Y103.322
G1 F1800 X86.676 Y113.829 E140.13362
G0 F3600 X86.11 Y113.829
G1 F1800 X76.169 Y103.888 E140.60122
G0 F3600 X76.169 Y104.453
G1 F1800 X85.545 Y113.829 E141.04223
G0 F3600 X84.979 Y113.829
G1 F1800 X76.169 Y105.019 E141.45663
G0 F3600 X76.169 Y105.585
G1 F1800 X84.413 Y113.829 E141.8444
G0 F3600 X83.848 Y113.829
G1 F1800 X76.169 Y106.15 E142.2056
G0 F3600 X76.169 Y106.716
G1 F1800 X83.282 Y113.829 E142.54017
G0 F3600 X82.716 Y113.829
G1 F1800 X76.169 Y107.282 E142.84812
G0 F3600 X76.169 Y107.847
G1 F1800 X82.15 Y113.829 E143.12947
G0 F3600 X81.585 Y113.829
G1 F1800 X76.169 Y108.413 E143.38423
G0 F3600 X76.169 Y108.979
G1 F1800 X81.019 Y113.829 E143.61236
G0 F3600 X80.453 Y113.829
G1 F1800 X76.169 Y109.544 E143.81389
G0 F3600 X76.169 Y110.11
G1 F1800 X79.888 Y113.829 E143.98882
G0 F3600 X79.322 Y113.829
G1 F1800 X76.169 Y110.676 E144.13712
G0 F3600 X76.169 Y111.242
G1 F1800 X78.756 Y113.829 E144.25881
G0 F3600 X78.191 Y113.829
G1 F1800 X76.169 Y111.807 E144.35392
G0 F3600 X76.169 Y112.373
G1 F1800 X77.625 Y113.829 E144.4224
G0 F3600 X77.059 Y113.829
G1 F1800 X76.169 Y112.939 E144.46427
G0 F3600 X76.169 Y113.504
M104 S200
G1 F1800 X76.494 Y113.829 E144.47955
;MESH:NONMESH
G0 F600 X76.494 Y113.829 Z0.4
G0 F3600 X114.009 Y110.749
G0 X118.89 Y110.48
G0 X126.222 Y110.365
G0 X131.11 Y110.48
G0 X138.43 Y110.941
G0 X145.719 Y111.745
G0 X149.634 Y112.332
G0 X157.771 Y113.785
G0 X157.75 Y113.882
;TIME_ELAPSED:163.164760
;LAYER:1
M106 S255
;TYPE:WALL-INNER
;MESH:Pruefk??rper_V1.stl
A7.800124445910786; rotate laser by 10.822672668701216 degrees
M index:2=100 ;activate laser
G1 F2700 X155.357 Y113.388 E144.56082

M index:2=0 ;deactivate laser
A-8.486138907146351; rotate laser by -11.774517733665562 degrees
M index:2=100 ;activate laser
G1 X152.956 Y112.929 E144.64213

M index:2=0 ;deactivate laser
A7.869528067740924; rotate laser by 10.918970193990532 degrees
M index:2=100 ;activate laser
G1 X150.548 Y112.51 E144.72342

M index:2=0 ;deactivate laser
A-8.552890648478247; rotate laser by -11.867135774763568 degrees
M index:2=100 ;activate laser
G1 X148.134 Y112.127 E144.80471

M index:2=0 ;deactivate laser
A7.922097868273393; rotate laser by 10.991910792229334 degrees
M index:2=100 ;activate laser
G1 X145.714 Y111.784 E144.88601

M index:2=0 ;deactivate laser
A-8.569509679059468; rotate laser by -11.890194679695014 degrees
M index:2=100 ;activate laser
G1 X143.289 Y111.478 E144.9673

M index:2=0 ;deactivate laser
A7.927292433999268; rotate laser by 10.999118252173986 degrees
M index:2=100 ;activate laser
G1 X140.859 Y111.21 E145.04862

M index:2=0 ;deactivate laser
A-8.575655721936196; rotate laser by -11.898722314186472 degrees
M index:2=100 ;activate laser
G1 X138.427 Y110.98 E145.12986

M index:2=0 ;deactivate laser
A7.917328959473203; rotate laser by 10.98529393126907 degrees
M index:2=100 ;activate laser
G1 X135.989 Y110.788 E145.2112

M index:2=0 ;deactivate laser
A-8.54346356230262; rotate laser by -11.854055692694885 degrees
M index:2=100 ;activate laser
G1 X133.55 Y110.635 E145.29248

M index:2=0 ;deactivate laser
A7.866794355789225; rotate laser by 10.91517716865755 degrees
M index:2=100 ;activate laser
G1 X131.109 Y110.519 E145.37376

M index:2=0 ;deactivate laser
A-8.50901224657149; rotate laser by -11.806254492117944 degrees
M index:2=100 ;activate laser
G1 X128.666 Y110.443 E145.45506

M index:2=0 ;deactivate laser
A7.867009268615146; rotate laser by 10.915475360203516 degrees
M index:2=100 ;activate laser
G1 X126.222 Y110.405 E145.53636

M index:2=0 ;deactivate laser
A-8.50901224657151; rotate laser by -11.806254492117972 degrees
M index:2=100 ;activate laser
G1 X123.778 Y110.405 E145.61764

M index:2=0 ;deactivate laser
A7.866794355789245; rotate laser by 10.915177168657578 degrees
M index:2=100 ;activate laser
G1 X121.334 Y110.443 E145.69894

M index:2=0 ;deactivate laser
A-8.543463562302641; rotate laser by -11.854055692694914 degrees
M index:2=100 ;activate laser
G1 X118.891 Y110.519 E145.78024

M index:2=0 ;deactivate laser
A7.917328959473243; rotate laser by 10.985293931269126 degrees
M index:2=100 ;activate laser
G1 X116.45 Y110.635 E145.86151

M index:2=0 ;deactivate laser
A-8.575655721936196; rotate laser by -11.898722314186472 degrees
M index:2=100 ;activate laser
G1 X114.011 Y110.788 E145.9428

M index:2=0 ;deactivate laser
A7.927292433999186; rotate laser by 10.999118252173872 degrees
M index:2=100 ;activate laser
G1 X111.573 Y110.98 E146.02413

M index:2=0 ;deactivate laser
A-8.569509679059305; rotate laser by -11.890194679694787 degrees
M index:2=100 ;activate laser
G1 X109.141 Y111.21 E146.10538

M index:2=0 ;deactivate laser
A7.922097868273168; rotate laser by 10.991910792229021 degrees
M index:2=100 ;activate laser
G1 X106.711 Y111.478 E146.1867

M index:2=0 ;deactivate laser
A-8.55289064847794; rotate laser by -11.867135774763142 degrees
M index:2=100 ;activate laser
G1 X104.286 Y111.784 E146.26799

M index:2=0 ;deactivate laser
A7.8695280677405135; rotate laser by 10.918970193989963 degrees
M index:2=100 ;activate laser
G1 X101.866 Y112.127 E146.34929

M index:2=0 ;deactivate laser
A-8.486138907145838; rotate laser by -11.774517733664851 degrees
M index:2=100 ;activate laser
G1 X99.452 Y112.51 E146.43058

M index:2=0 ;deactivate laser
A7.800124445910171; rotate laser by 10.822672668700363 degrees
M index:2=100 ;activate laser
G1 X97.044 Y112.929 E146.51187

M index:2=0 ;deactivate laser
A-8.406509136475403; rotate laser by -11.664031426859623 degrees
M index:2=100 ;activate laser
G1 X94.643 Y113.388 E146.59318

M index:2=0 ;deactivate laser
A7.719025765639994; rotate laser by 10.710148249825494 degrees
M index:2=100 ;activate laser
G1 X92.25 Y113.882 E146.67445

M index:2=0 ;deactivate laser
A1.3749667416714717; rotate laser by 1.9077663540691674 degrees
M index:2=100 ;activate laser
G1 X89.936 Y114.4 E146.75332

M index:2=0 ;deactivate laser
A-1.37496674167139; rotate laser by -1.9077663540690537 degrees
M index:3=100 ;activate laser
G1 X75.6 Y114.4 E147.23013

M index:3=0 ;deactivate laser
A-63.48989812319355; rotate laser by -88.09223364593106 degrees
M index:1=100 ;activate laser
G1 X75.6 Y95.6 E147.85542

M index:1=0 ;deactivate laser
A7.719025765640149; rotate laser by 10.710148249825707 degrees
M index:2=100 ;activate laser
G1 X89.936 Y95.6 E148.33224

M index:2=0 ;deactivate laser
A-8.40650913647553; rotate laser by -11.664031426859799 degrees
M index:2=100 ;activate laser
G1 X92.25 Y96.118 E148.41111

M index:2=0 ;deactivate laser
A7.8001244459102885; rotate laser by 10.822672668700525 degrees
M index:2=100 ;activate laser
G1 X94.643 Y96.612 E148.49238

M index:2=0 ;deactivate laser
A-8.486138907145948; rotate laser by -11.774517733665006 degrees
M index:2=100 ;activate laser
G1 X97.044 Y97.071 E148.57368

M index:2=0 ;deactivate laser
A-56.99533679712416; rotate laser by -79.08102980600978 degrees
M index:3=100 ;activate laser
G1 X99.452 Y97.49 E148.65498

M index:3=0 ;deactivate laser
A-8.55289064847788; rotate laser by -11.86713577476306 degrees
M index:0=100 ;activate laser
G1 X101.866 Y97.873 E148.73627

M index:0=0 ;deactivate laser
A-56.94276699659204; rotate laser by -79.00808920777146 degrees
M index:1=100 ;activate laser
G1 X104.286 Y98.216 E148.81757

M index:1=0 ;deactivate laser
A-8.569509679059024; rotate laser by -11.890194679694396 degrees
M index:2=100 ;activate laser
G1 X106.711 Y98.522 E148.89886

M index:2=0 ;deactivate laser
A-56.93757243086579; rotate laser by -79.00088174782628 degrees
M index:3=100 ;activate laser
G1 X109.141 Y98.79 E148.98017
M index:3=0 ;deactivate laser

A-56.94753590539227;; rotate laser by -11.898722314186028 degrees
M index:0=100 ;activate laser
G1 X111.573 Y99.02 E149.06142
M index:0=0 ;deactivate laser

A-56.94753590539227; rotate laser by -79.01470606873178 degrees
M index:1=100 ;activate laser
G1 X114.011 Y99.212 E149.14276

M index:1=0 ;deactivate laser
A-8.543463562302055; rotate laser by -11.854055692694102 degrees
M index:2=100 ;activate laser
G1 X116.45 Y99.365 E149.22404

M index:2=0 ;deactivate laser
A-56.99807050907601; rotate laser by -79.08482283134296 degrees
M index:3=100 ;activate laser
G1 X118.891 Y99.481 E149.30532

M index:3=0 ;deactivate laser
A-8.509012246570926; rotate laser by -11.80625449211716 degrees
M index:0=100 ;activate laser
G1 X121.334 Y99.557 E149.38662

M index:0=0 ;deactivate laser
A-56.99785559625064; rotate laser by -79.08452463979776 degrees
M index:1=100 ;activate laser
G1 X123.778 Y99.595 E149.46791

M index:1=0 ;deactivate laser
A56.35585261829431; rotate laser by 78.19374550788336 degrees
M index:1=100 ;activate laser
G1 X126.222 Y99.595 E149.5492

M index:1=0 ;deactivate laser
A7.866794355788589; rotate laser by 10.915177168656669 degrees
M index:0=100 ;activate laser
G1 X128.666 Y99.557 E149.6305

M index:0=0 ;deactivate laser
A56.32140130256265; rotate laser by 78.14594430730568 degrees
M index:3=100 ;activate laser
G1 X131.109 Y99.481 E149.71179

M index:3=0 ;deactivate laser
A7.917328959472526; rotate laser by 10.985293931268131 degrees
M index:2=100 ;activate laser
G1 X133.55 Y99.365 E149.79307

M index:2=0 ;deactivate laser
A56.28920914292955; rotate laser by 78.10127768581475 degrees
M index:1=100 ;activate laser
G1 X135.989 Y99.212 E149.87435

M index:1=0 ;deactivate laser
A7.9272924339987565; rotate laser by 10.999118252173275 degrees
M index:0=100 ;activate laser
G1 X138.427 Y99.02 E149.95569

M index:0=0 ;deactivate laser
A56.295355185805555; rotate laser by 78.10980532030521 degrees
M index:3=100 ;activate laser
G1 X140.859 Y98.79 E150.03694

M index:3=0 ;deactivate laser
A7.922097868273126; rotate laser by 10.991910792228964 degrees
M index:2=100 ;activate laser
G1 X143.289 Y98.522 E150.11825

M index:2=0 ;deactivate laser
A56.311974216387; rotate laser by 78.13286422523697 degrees
M index:1=100 ;activate laser
G1 X145.714 Y98.216 E150.19955

M index:1=0 ;deactivate laser
A7.869528067740903; rotate laser by 10.918970193990504 degrees
M index:0=100 ;activate laser
G1 X148.134 Y97.873 E150.28084

M index:0=0 ;deactivate laser
A56.37872595771822; rotate laser by 78.22548226633404 degrees
M index:3=100 ;activate laser
G1 X150.548 Y97.49 E150.36214

M index:3=0 ;deactivate laser
A7.800124445910949; rotate laser by 10.822672668701443 degrees
M index:2=100 ;activate laser
G1 X152.956 Y97.071 E150.44343

M index:2=0 ;deactivate laser
A56.45835572838878; rotate laser by 78.33596857313944 degrees
M index:1=100 ;activate laser
G1 X155.357 Y96.612 E150.52474

M index:1=0 ;deactivate laser
A7.719025765641203; rotate laser by 10.71014824982717 degrees
M index:0=100 ;activate laser
G1 X157.75 Y96.118 E150.60601

M index:0=0 ;deactivate laser
A-63.48989812319495; rotate laser by -88.09223364593299 degrees
M index:1=100 ;activate laser
G1 X160.064 Y95.6 E150.68487

M index:1=0 ;deactivate laser
A-1.374966741669915; rotate laser by -1.9077663540670073 degrees
M index:3=100 ;activate laser
G1 X174.4 Y95.6 E151.16169

M index:3=0 ;deactivate laser
A1.374966741670243; rotate laser by 1.907766354067462 degrees
M index:0=100 ;activate laser
G1 X174.4 Y114.4 E151.78698

M index:0=0 ;deactivate laser
A7.7190257656412244; rotate laser by 10.7101482498272 degrees
M index:0=100 ;activate laser
G1 X160.064 Y114.4 E152.2638

M index:0=0 ;deactivate laser
G0 F5400 X157.666 Y114.273
;TYPE:WALL-OUTER
A-9.027083154228338; rotate laser by -12.525077876491821 degrees
M index:0=100 ;activate laser
G1 F1800 X155.279 Y113.78 E152.42374

M index:0=0 ;deactivate laser
A8.355992551984428; rotate laser by 11.593939665878395 degrees
M index:0=100 ;activate laser
G1 X152.884 Y113.323 E152.50483

M index:0=0 ;deactivate laser
A-8.97148700343807; rotate laser by -12.44793821727032 degrees
M index:0=100 ;activate laser
G1 X150.482 Y112.905 E152.58592

M index:0=0 ;deactivate laser
A8.300533618877628; rotate laser by 11.51699039619271 degrees
M index:0=100 ;activate laser
G1 X148.075 Y112.523 E152.66698

M index:0=0 ;deactivate laser
A-8.94966784803771; rotate laser by -12.417664139152322 degrees
M index:0=100 ;activate laser
G1 X145.661 Y112.18 E152.74808

M index:0=0 ;deactivate laser
A8.300643880872816; rotate laser by 11.517143384711034 degrees
M index:0=100 ;activate laser
G1 X143.242 Y111.875 E152.82917

M index:0=0 ;deactivate laser
A-8.94446542438429; rotate laser by -12.410445776333205 degrees
M index:0=100 ;activate laser
G1 X140.818 Y111.608 E152.91028

M index:0=0 ;deactivate laser
A8.312706230488706; rotate laser by 11.533879894803079 degrees
M index:0=100 ;activate laser
G1 X138.392 Y111.379 E152.99133

M index:0=0 ;deactivate laser
A-8.97397620191857; rotate laser by -12.451391980162015 degrees
M index:0=100 ;activate laser
G1 X135.961 Y111.187 E153.07244

M index:0=0 ;deactivate laser
A8.329382420452818; rotate laser by 11.557018108378287 degrees
M index:0=100 ;activate laser
G1 X133.528 Y111.034 E153.15352

M index:0=0 ;deactivate laser
A-8.990267644906634; rotate laser by -12.473996357307954 degrees
M index:0=100 ;activate laser
G1 X131.093 Y110.919 E153.2346

M index:0=0 ;deactivate laser
A8.345941588872089; rotate laser by 11.579993954560024 degrees
M index:0=100 ;activate laser
G1 X128.657 Y110.843 E153.31566

M index:0=0 ;deactivate laser
A-8.989524302222405; rotate laser by -12.472964969333589 degrees
M index:0=100 ;activate laser
G1 X126.219 Y110.805 E153.39676

M index:0=0 ;deactivate laser
A8.345941588872027; rotate laser by 11.579993954559939 degrees
M index:0=100 ;activate laser
G1 X123.781 Y110.805 E153.47784

M index:0=0 ;deactivate laser
A-8.99026764490651; rotate laser by -12.473996357307783 degrees
M index:0=100 ;activate laser
G1 X121.343 Y110.843 E153.55894

M index:0=0 ;deactivate laser
A8.32938242045284; rotate laser by 11.557018108378315 degrees
M index:0=100 ;activate laser
G1 X118.907 Y110.919 E153.64

M index:0=0 ;deactivate laser
A-8.973976201918651; rotate laser by -12.451391980162128 degrees
M index:0=100 ;activate laser
G1 X116.472 Y111.034 E153.72108

M index:0=0 ;deactivate laser
A8.312706230488622; rotate laser by 11.533879894802965 degrees
M index:0=100 ;activate laser
G1 X114.039 Y111.187 E153.80216

M index:0=0 ;deactivate laser
A-8.944465424384434; rotate laser by -12.410445776333404 degrees
M index:0=100 ;activate laser
G1 X111.608 Y111.379 E153.88327

M index:0=0 ;deactivate laser
A8.300643880872899; rotate laser by 11.517143384711147 degrees
M index:0=100 ;activate laser
G1 X109.182 Y111.608 E153.96432

M index:0=0 ;deactivate laser
A-8.949667848037729; rotate laser by -12.41766413915235 degrees
M index:0=100 ;activate laser
G1 X106.758 Y111.875 E154.04543

M index:0=0 ;deactivate laser
A8.300533618877772; rotate laser by 11.51699039619291 degrees
M index:0=100 ;activate laser
G1 X104.339 Y112.18 E154.12652

M index:0=0 ;deactivate laser
A-8.97148700343817; rotate laser by -12.447938217270462 degrees
M index:0=100 ;activate laser
G1 X101.925 Y112.523 E154.20762

M index:0=0 ;deactivate laser
A8.35599255198457; rotate laser by 11.593939665878594 degrees
M index:0=100 ;activate laser
G1 X99.518 Y112.905 E154.28868

M index:0=0 ;deactivate laser
A-9.027083154228768; rotate laser by -12.525077876492418 degrees
M index:0=100 ;activate laser
G1 X97.116 Y113.323 E154.36977

M index:0=0 ;deactivate laser
A8.402550024184308; rotate laser by 11.658538158555729 degrees
M index:0=100 ;activate laser
G1 X94.721 Y113.78 E154.45086

M index:0=0 ;deactivate laser
A-9.079365950814756; rotate laser by -12.597620256755476 degrees
M index:0=100 ;activate laser
G1 X92.334 Y114.273 E154.53193

M index:0=0 ;deactivate laser
A18.16665012621367; rotate laser by 25.20622705012147 degrees
M index:0=100 ;activate laser
G1 X89.978 Y114.8 E154.61223

M index:0=0 ;deactivate laser
A-18.166650126213998; rotate laser by -25.206227050121925 degrees
M index:1=100 ;activate laser
G1 X75.2 Y114.8 E155.10375

M index:1=0 ;deactivate laser
A-46.69821473865086; rotate laser by -64.79377294987808 degrees
M index:3=100 ;activate laser
G1 X75.2 Y95.2 E155.75565

M index:3=0 ;deactivate laser
A-9.079365950814596; rotate laser by -12.597620256755254 degrees
M index:0=100 ;activate laser
G1 X89.978 Y95.2 E156.24716

M index:0=0 ;deactivate laser
A8.402550024184368; rotate laser by 11.658538158555812 degrees
M index:0=100 ;activate laser
G1 X92.334 Y95.727 E156.32746

M index:0=0 ;deactivate laser
A-9.027083154228633; rotate laser by -12.52507787649223 degrees
M index:0=100 ;activate laser
G1 X94.721 Y96.22 E156.40853

M index:0=0 ;deactivate laser
A-56.508872312880484; rotate laser by -78.40606033412168 degrees
M index:1=100 ;activate laser
G1 X97.116 Y96.677 E156.48962

M index:1=0 ;deactivate laser
A-8.971487003438515; rotate laser by -12.44793821727094 degrees
M index:2=100 ;activate laser
G1 X99.518 Y97.095 E156.57072

M index:2=0 ;deactivate laser
A-56.5643312459866; rotate laser by -78.48300960380642 degrees
M index:3=100 ;activate laser
G1 X101.925 Y97.477 E156.65178

M index:3=0 ;deactivate laser
A-8.949667848037489; rotate laser by -12.417664139152016 degrees
M index:0=100 ;activate laser
G1 X104.339 Y97.82 E156.73287

M index:0=0 ;deactivate laser
A-56.564220983992485; rotate laser by -78.48285661528958 degrees
M index:1=100 ;activate laser
G1 X106.758 Y98.125 E156.81397

M index:1=0 ;deactivate laser
A-8.944465424384504; rotate laser by -12.4104457763335 degrees
M index:2=100 ;activate laser
G1 X109.182 Y98.392 E156.89508

M index:2=0 ;deactivate laser
A-56.5521586343757; rotate laser by -78.4661201051963 degrees
M index:3=100 ;activate laser
G1 X111.608 Y98.621 E156.97612

M index:3=0 ;deactivate laser
A-8.973976201918369; rotate laser by -12.451391980161738 degrees
M index:0=100 ;activate laser
G1 X114.039 Y98.813 E157.05723

M index:0=0 ;deactivate laser
A-56.53548244441254; rotate laser by -78.4429818916224 degrees
M index:1=100 ;activate laser
G1 X116.472 Y98.966 E157.13831

M index:1=0 ;deactivate laser
A-8.990267644906982; rotate laser by -12.47399635730844 degrees
M index:2=100 ;activate laser
G1 X118.907 Y99.081 E157.21939

M index:2=0 ;deactivate laser
A-56.518923275991895; rotate laser by -78.42000604543877 degrees
M index:3=100 ;activate laser
G1 X121.343 Y99.157 E157.30045

M index:3=0 ;deactivate laser
A-8.989524302222652; rotate laser by -12.47296496933393 degrees
M index:0=100 ;activate laser
G1 X123.781 Y99.195 E157.38155

M index:0=0 ;deactivate laser
A8.345941588872314; rotate laser by 11.579993954560337 degrees
M index:0=100 ;activate laser
G1 X126.219 Y99.195 E157.46264

M index:0=0 ;deactivate laser
A55.874597219957366; rotate laser by 77.52600364269085 degrees
M index:3=100 ;activate laser
G1 X128.657 Y99.157 E157.54374

M index:3=0 ;deactivate laser
A8.329382420453372; rotate laser by 11.557018108379054 degrees
M index:2=100 ;activate laser
G1 X131.093 Y99.081 E157.6248

M index:2=0 ;deactivate laser
A55.890888662946516; rotate laser by 77.5486080198383 degrees
M index:1=100 ;activate laser
G1 X133.528 Y98.966 E157.70588

M index:1=0 ;deactivate laser
A8.312706230488581; rotate laser by 11.533879894802908 degrees
M index:0=100 ;activate laser
G1 X135.961 Y98.813 E157.78696

M index:0=0 ;deactivate laser
A55.92039944047985; rotate laser by 77.5895542236658 degrees
M index:3=100 ;activate laser
G1 X138.392 Y98.621 E157.86806

M index:3=0 ;deactivate laser
A8.300643880873286; rotate laser by 11.517143384711687 degrees
M index:2=100 ;activate laser
G1 X140.818 Y98.392 E157.94911

M index:2=0 ;deactivate laser
A55.9151970168275; rotate laser by 77.58233586084816 degrees
M index:1=100 ;activate laser
G1 X143.242 Y98.125 E158.03022

M index:1=0 ;deactivate laser
A8.300533618877568; rotate laser by 11.516990396192625 degrees
M index:0=100 ;activate laser
G1 X145.661 Y97.82 E158.11132

M index:0=0 ;deactivate laser
A55.89337786142628; rotate laser by 77.55206178272897 degrees
M index:3=100 ;activate laser
G1 X148.075 Y97.477 E158.19241

M index:3=0 ;deactivate laser
A8.355992551984674; rotate laser by 11.593939665878736 degrees
M index:2=100 ;activate laser
G1 X150.482 Y97.095 E158.27347

M index:2=0 ;deactivate laser
A55.837781710637096; rotate laser by 77.47492212350897 degrees
M index:1=100 ;activate laser
G1 X152.884 Y96.677 E158.35456

M index:1=0 ;deactivate laser
A8.40255002418347; rotate laser by 11.658538158554563 degrees
M index:0=100 ;activate laser
G1 X155.279 Y96.22 E158.43566

M index:0=0 ;deactivate laser
A-9.079365950813978; rotate laser by -12.597620256754396 degrees
M index:0=100 ;activate laser
G1 X157.666 Y95.727 E158.51673

M index:0=0 ;deactivate laser
A-46.69821473865185; rotate laser by -64.79377294987944 degrees
M index:1=100 ;activate laser
G1 X160.022 Y95.2 E158.59702

M index:1=0 ;deactivate laser
A-18.166650126213508; rotate laser by -25.206227050121242 degrees
M index:3=100 ;activate laser
G1 X174.8 Y95.2 E159.08854

M index:3=0 ;deactivate laser
A18.166650126214165; rotate laser by 25.206227050122152 degrees
M index:0=100 ;activate laser
G1 X174.8 Y114.8 E159.74044

M index:0=0 ;deactivate laser
A-9.079365950815022; rotate laser by -12.597620256755846 degrees
M index:0=100 ;activate laser
G1 X160.022 Y114.8 E160.23196

M index:0=0 ;deactivate laser
G0 X157.832 Y113.5
;TYPE:SKIN
A7.8063229582030615; rotate laser by 10.83127310450675 degrees
M index:0=100 ;activate laser
G1 F1800 X155.433 Y113.006 E160.39372

M index:0=0 ;deactivate laser
A-8.523789752925621; rotate laser by -11.8267582821843 degrees
M index:0=100 ;activate laser
G1 X153.026 Y112.545 E160.47523

M index:0=0 ;deactivate laser
A7.9419579258377535; rotate laser by 11.019466622099884 degrees
M index:0=100 ;activate laser
G1 X150.612 Y112.126 E160.55672

M index:0=0 ;deactivate laser
A-8.656954887516337; rotate laser by -12.011524906428917 degrees
M index:0=100 ;activate laser
G1 X148.192 Y111.741 E160.63823

M index:0=0 ;deactivate laser
A8.059015901825115; rotate laser by 11.181884563782347 degrees
M index:0=100 ;activate laser
G1 X145.766 Y111.398 E160.71972

M index:0=0 ;deactivate laser
A-8.736173464950207; rotate laser by -12.121440682618413 degrees
M index:0=100 ;activate laser
G1 X143.334 Y111.09 E160.80125

M index:0=0 ;deactivate laser
A8.095513070304913; rotate laser by 11.232524385048066 degrees
M index:0=100 ;activate laser
G1 X140.898 Y110.822 E160.88276

M index:0=0 ;deactivate laser
A-8.708702025217315; rotate laser by -12.083324059989025 degrees
M index:0=100 ;activate laser
G1 X138.46 Y110.592 E160.96421

M index:0=0 ;deactivate laser
A8.018395012963172; rotate laser by 11.125523080486403 degrees
M index:0=100 ;activate laser
G1 X136.016 Y110.398 E161.04575

M index:0=0 ;deactivate laser
A-8.642998495541665; rotate laser by -11.992160412564061 degrees
M index:0=100 ;activate laser
G1 X133.571 Y110.245 E161.12723

M index:0=0 ;deactivate laser
A7.967985864113887; rotate laser by 11.055580386458018 degrees
M index:0=100 ;activate laser
G1 X131.124 Y110.129 E161.20871

M index:0=0 ;deactivate laser
A-8.608631460601417; rotate laser by -11.944476151584468 degrees
M index:0=100 ;activate laser
G1 X128.675 Y110.053 E161.29021

M index:0=0 ;deactivate laser
A7.968200482425124; rotate laser by 11.05587816936486 degrees
M index:0=100 ;activate laser
G1 X126.225 Y110.015 E161.3717

M index:0=0 ;deactivate laser
A-8.608631460601417; rotate laser by -11.944476151584468 degrees
M index:0=100 ;activate laser
G1 X123.775 Y110.015 E161.45319

M index:0=0 ;deactivate laser
A7.9679858641140715; rotate laser by 11.055580386458274 degrees
M index:0=100 ;activate laser
G1 X121.325 Y110.053 E161.53469

M index:0=0 ;deactivate laser
A-8.642998495542013; rotate laser by -11.992160412564544 degrees
M index:0=100 ;activate laser
G1 X118.876 Y110.129 E161.61618

M index:0=0 ;deactivate laser
A8.018395012963438; rotate laser by 11.125523080486772 degrees
M index:0=100 ;activate laser
G1 X116.429 Y110.245 E161.69766

M index:0=0 ;deactivate laser
A-8.708702025217745; rotate laser by -12.083324059989621 degrees
M index:0=100 ;activate laser
G1 X113.984 Y110.398 E161.77914

M index:0=0 ;deactivate laser
A8.095513070305179; rotate laser by 11.232524385048436 degrees
M index:0=100 ;activate laser
G1 X111.54 Y110.592 E161.86068

M index:0=0 ;deactivate laser
A-8.736173464950555; rotate laser by -12.121440682618896 degrees
M index:0=100 ;activate laser
G1 X109.102 Y110.822 E161.94213

M index:0=0 ;deactivate laser
A8.059015901825607; rotate laser by 11.18188456378303 degrees
M index:0=100 ;activate laser
G1 X106.666 Y111.09 E162.02364

M index:0=0 ;deactivate laser
A-8.65695488751691; rotate laser by -12.011524906429713 degrees
M index:0=100 ;activate laser
G1 X104.234 Y111.398 E162.10518

M index:0=0 ;deactivate laser
A7.941957925838348; rotate laser by 11.019466622100708 degrees
M index:0=100 ;activate laser
G1 X101.808 Y111.741 E162.18667

M index:0=0 ;deactivate laser
A-8.523789752926296; rotate laser by -11.826758282185239 degrees
M index:0=100 ;activate laser
G1 X99.388 Y112.126 E162.26817

M index:0=0 ;deactivate laser
A7.8063229582038405; rotate laser by 10.83127310450783 degrees
M index:0=100 ;activate laser
G1 X96.974 Y112.545 E162.34966

M index:0=0 ;deactivate laser
A-8.37813988864793; rotate laser by -11.624669095499002 degrees
M index:0=100 ;activate laser
G1 X94.567 Y113.006 E162.43117

M index:0=0 ;deactivate laser
A7.653706372690673; rotate laser by 10.61951759210831 degrees
M index:0=100 ;activate laser
G1 X92.168 Y113.5 E162.51264

M index:0=0 ;deactivate laser
A1.4567852564977255; rotate laser by 2.021289543390594 degrees
M index:0=100 ;activate laser
G1 X89.894 Y114.01 E162.59015

M index:0=0 ;deactivate laser
A-1.4567852564969062; rotate laser by -2.0212895433894573 degrees
M index:1=100 ;activate laser
G1 X75.99 Y114.01 E163.0526

M index:1=0 ;deactivate laser
A-63.40807960836943; rotate laser by -87.97871045661259 degrees
M index:3=100 ;activate laser
G1 X75.99 Y95.99 E163.65195

M index:3=0 ;deactivate laser
A7.653706372693794; rotate laser by 10.61951759211264 degrees
M index:0=100 ;activate laser
G1 X89.894 Y95.99 E164.1144

M index:0=0 ;deactivate laser
A-8.378139888651235; rotate laser by -11.62466909550359 degrees
M index:0=100 ;activate laser
G1 X92.168 Y96.5 E164.19191

M index:0=0 ;deactivate laser
A7.806322958207057; rotate laser by 10.831273104512292 degrees
M index:0=100 ;activate laser
G1 X94.567 Y96.994 E164.27337

M index:0=0 ;deactivate laser
A-8.523789752929522; rotate laser by -11.826758282189713 degrees
M index:0=100 ;activate laser
G1 X96.974 Y97.455 E164.35489

M index:0=0 ;deactivate laser
A-56.92290693902224; rotate laser by -78.98053337789337 degrees
M index:1=100 ;activate laser
G1 X99.388 Y97.874 E164.43638

M index:1=0 ;deactivate laser
A-8.656954887522984; rotate laser by -12.01152490643814 degrees
M index:2=100 ;activate laser
G1 X101.808 Y98.259 E164.51788

M index:2=0 ;deactivate laser
A-56.80584896303273; rotate laser by -78.81811543620792 degrees
M index:3=100 ;activate laser
G1 X104.234 Y98.602 E164.59937

M index:3=0 ;deactivate laser
A-8.736173464956577; rotate laser by -12.121440682627252 degrees
M index:0=100 ;activate laser
G1 X106.666 Y98.91 E164.6809

M index:0=0 ;deactivate laser
A-56.769351794552584; rotate laser by -78.76747561494172 degrees
M index:1=100 ;activate laser
G1 X109.102 Y99.178 E164.76242

M index:1=0 ;deactivate laser
A-8.708702025226529; rotate laser by -12.08332406000181 degrees
M index:2=100 ;activate laser
G1 X111.54 Y99.408 E164.84386

M index:2=0 ;deactivate laser
A-56.84646985189222; rotate laser by -78.87447691950047 degrees
M index:3=100 ;activate laser
G1 X113.984 Y99.602 E164.92541

M index:3=0 ;deactivate laser
A-8.642998495550698; rotate laser by -11.992160412576595 degrees
M index:0=100 ;activate laser
G1 X116.429 Y99.755 E165.00689

M index:0=0 ;deactivate laser
A-56.896879000741066; rotate laser by -78.94441961352824 degrees
M index:1=100 ;activate laser
G1 X118.876 Y99.871 E165.08837

M index:1=0 ;deactivate laser
A-8.608631460612921; rotate laser by -11.94447615160043 degrees
M index:2=100 ;activate laser
G1 X121.325 Y99.947 E165.16986

M index:2=0 ;deactivate laser
A-56.89666438242791; rotate laser by -78.94412183061873 degrees
M index:3=100 ;activate laser
G1 X123.775 Y99.985 E165.25136

M index:3=0 ;deactivate laser
A56.25623340425157; rotate laser by 78.05552384839905 degrees
M index:3=100 ;activate laser
G1 X126.225 Y99.985 E165.33284

M index:3=0 ;deactivate laser
A7.967985864125604; rotate laser by 11.055580386474276 degrees
M index:2=100 ;activate laser
G1 X128.675 Y99.947 E165.41434

M index:2=0 ;deactivate laser
A56.22186636931326; rotate laser by 78.00783958742215 degrees
M index:1=100 ;activate laser
G1 X131.124 Y99.871 E165.49583

M index:1=0 ;deactivate laser
A8.018395012972103; rotate laser by 11.125523080498795 degrees
M index:0=100 ;activate laser
G1 X133.571 Y99.755 E165.57731

M index:0=0 ;deactivate laser
A56.15616283963796; rotate laser by 77.91667593999767 degrees
M index:3=100 ;activate laser
G1 X136.016 Y99.602 E165.65879

M index:3=0 ;deactivate laser
A8.095513070313965; rotate laser by 11.232524385060628 degrees
M index:2=100 ;activate laser
G1 X138.46 Y99.408 E165.74034

M index:2=0 ;deactivate laser
A56.128691399907396; rotate laser by 77.87855931737153 degrees
M index:1=100 ;activate laser
G1 X140.898 Y99.178 E165.82178

M index:1=0 ;deactivate laser
A8.059015901831609; rotate laser by 11.181884563791357 degrees
M index:0=100 ;activate laser
G1 X143.334 Y98.91 E165.9033

M index:0=0 ;deactivate laser
A56.2079099773416; rotate laser by 77.98847509356148 degrees
M index:3=100 ;activate laser
G1 X145.766 Y98.602 E165.98483

M index:3=0 ;deactivate laser
A7.941957925844411; rotate laser by 11.019466622109121 degrees
M index:2=100 ;activate laser
G1 X148.192 Y98.259 E166.06632

M index:2=0 ;deactivate laser
A56.341075111934366; rotate laser by 78.17324171780893 degrees
M index:1=100 ;activate laser
G1 X150.612 Y97.874 E166.14782

M index:1=0 ;deactivate laser
A7.80632295820716; rotate laser by 10.831273104512434 degrees
M index:0=100 ;activate laser
G1 X153.026 Y97.455 E166.22931

M index:0=0 ;deactivate laser
A-8.378139888651186; rotate laser by -11.62466909550352 degrees
M index:0=100 ;activate laser
G1 X155.433 Y96.994 E166.31083

M index:0=0 ;deactivate laser
A7.65370637269395; rotate laser by 10.619517592112857 degrees
M index:0=100 ;activate laser
G1 X157.832 Y96.5 E166.39229

M index:0=0 ;deactivate laser
A-63.40807960836976; rotate laser by -87.97871045661304 degrees
M index:1=100 ;activate laser
G1 X160.106 Y95.99 E166.4698

M index:1=0 ;deactivate laser
A-1.4567852564964143; rotate laser by -2.021289543388775 degrees
M index:3=100 ;activate laser
G1 X174.01 Y95.99 E166.93225

M index:3=0 ;deactivate laser
A1.45678525649707; rotate laser by 2.0212895433896847 degrees
M index:0=100 ;activate laser
G1 X174.01 Y114.01 E167.5316

M index:0=0 ;deactivate laser
A7.653706372691471; rotate laser by 10.619517592109418 degrees
M index:0=100 ;activate laser
G1 X160.106 Y114.01 E167.99405

M index:0=0 ;deactivate laser
A-16.663518283600627; rotate laser by -23.12063161849587 degrees
M index:2=100 ;activate laser
G1 X157.832 Y113.5 E168.07156

M index:2=0 ;deactivate laser
A-15.869593867111261; rotate laser by -22.019061490616878 degrees
M index:0=100 ;activate laser
G0 F5400 X173.828 Y112.408

M index:0=0 ;deactivate laser
A15.859205375378789; rotate laser by 22.00464745833807 degrees
M index:2=100 ;activate laser
G0 F5400 X171.841 Y113.83

M index:2=0 ;deactivate laser
A-15.856902698210023; rotate laser by -22.001452493766408 degrees
M index:0=100 ;activate laser
G0 F5400 X173.828 Y111.276

M index:0=0 ;deactivate laser
A15.86498851277324; rotate laser by 22.01267156147287 degrees
M index:2=100 ;activate laser
G0 F5400 X170.709 Y113.83

M index:2=0 ;deactivate laser
A-15.870592292831153; rotate laser by -22.020446806303227 degrees
M index:0=100 ;activate laser
G0 F5400 X173.828 Y110.145

M index:0=0 ;deactivate laser
A15.8713384966845; rotate laser by 22.021482164149745 degrees
M index:2=100 ;activate laser
G0 F5400 X169.578 Y113.83

M index:2=0 ;deactivate laser
A-15.870767669711853; rotate laser by -22.020690141725197 degrees
M index:0=100 ;activate laser
G0 F5400 X173.828 Y109.013

M index:0=0 ;deactivate laser
A15.87505441894373; rotate laser by 22.02663800628443 degrees
M index:2=100 ;activate laser
G0 F5400 X168.446 Y113.83

M index:2=0 ;deactivate laser
A-15.878525983079872; rotate laser by -22.031454801523324 degrees
M index:0=100 ;activate laser
G0 F5400 X173.828 Y107.882

M index:0=0 ;deactivate laser
A15.878827649662934; rotate laser by 22.031873363907323 degrees
M index:2=100 ;activate laser
G0 F5400 X167.315 Y113.83

M index:2=0 ;deactivate laser
A-15.875657752109282; rotate laser by -22.02747513105163 degrees
M index:0=100 ;activate laser
G0 F5400 X173.828 Y106.751

M index:0=0 ;deactivate laser
A15.872956839331792; rotate laser by 22.023727614572863 degrees
M index:2=100 ;activate laser
G0 F5400 X166.184 Y113.83

M index:2=0 ;deactivate laser
A-15.872770648888679; rotate laser by -22.023469275333042 degrees
M index:0=100 ;activate laser
G0 F5400 X173.828 Y105.619

M index:0=0 ;deactivate laser
A15.875285371222521; rotate laser by 22.02695845257125 degrees
M index:2=100 ;activate laser
G0 F5400 X165.052 Y113.83

M index:2=0 ;deactivate laser
A-15.877495629503144; rotate laser by -22.030025185935614 degrees
M index:0=100 ;activate laser
G0 F5400 X173.828 Y104.488

M index:0=0 ;deactivate laser
A15.877621898105659; rotate laser by 22.030200383621604 degrees
M index:2=100 ;activate laser
G0 F5400 X163.921 Y113.83

M index:2=0 ;deactivate laser
A-15.87553790842702; rotate laser by -22.027308847942493 degrees
M index:0=100 ;activate laser
G0 F5400 X173.828 Y103.357

M index:0=0 ;deactivate laser
A15.873667443441441; rotate laser by 22.024713577775003 degrees
M index:2=100 ;activate laser
G0 F5400 X162.79 Y113.83

M index:2=0 ;deactivate laser
A-15.873576213040561; rotate laser by -22.02458699559378 degrees
M index:0=100 ;activate laser
G0 F5400 X173.828 Y102.225

M index:0=0 ;deactivate laser
A15.87535544762501; rotate laser by 22.027055683579704 degrees
M index:2=100 ;activate laser
G0 F5400 X161.658 Y113.83

M index:2=0 ;deactivate laser
A-15.876976673940026; rotate laser by -22.02930513509179 degrees
M index:0=100 ;activate laser
G0 F5400 X173.828 Y101.094

M index:0=0 ;deactivate laser
A15.877045659700128; rotate laser by 22.02940085283393 degrees
M index:2=100 ;activate laser
G0 F5400 X160.527 Y113.83

M index:2=0 ;deactivate laser
A-15.876985533164127; rotate laser by -22.029317427265227 degrees
M index:0=100 ;activate laser
G0 F5400 X173.828 Y99.962

M index:0=0 ;deactivate laser
A15.878477647183038; rotate laser by 22.031387735466467 degrees
M index:2=100 ;activate laser
G0 F5400 X159.528 Y113.697

M index:2=0 ;deactivate laser
A-15.879876361930057; rotate laser by -22.033328452177955 degrees
M index:0=100 ;activate laser
G0 F5400 X173.828 Y98.831

M index:0=0 ;deactivate laser
A15.881275076677074; rotate laser by 22.035269168889442 degrees
M index:2=100 ;activate laser
G0 F5400 X158.604 Y113.489

M index:2=0 ;deactivate laser
A-15.881275076676625; rotate laser by -22.035269168888817 degrees
M index:0=100 ;activate laser
G0 F5400 X173.828 Y97.7

M index:0=0 ;deactivate laser
A15.881275076676173; rotate laser by 22.035269168888192 degrees
M index:2=100 ;activate laser
G0 F5400 X157.677 Y113.285

M index:2=0 ;deactivate laser
A-15.88127507667564; rotate laser by -22.035269168887453 degrees
M index:0=100 ;activate laser
G0 F5400 X173.828 Y96.568

M index:0=0 ;deactivate laser
A15.88127507667515; rotate laser by 22.03526916888677 degrees
M index:2=100 ;activate laser
G0 F5400 X156.739 Y113.092

M index:2=0 ;deactivate laser
A-15.880047943588181; rotate laser by -22.033566521728602 degrees
M index:0=100 ;activate laser
G0 F5400 X173.096 Y96.17

M index:0=0 ;deactivate laser
A15.878820810501214; rotate laser by 22.031863874570433 degrees
M index:2=100 ;activate laser
G0 F5400 X155.801 Y112.899

M index:2=0 ;deactivate laser
A-15.878820810500782; rotate laser by -22.031863874569837 degrees
M index:0=100 ;activate laser
G0 F5400 X171.964 Y96.17

M index:0=0 ;deactivate laser
A15.880068861260172; rotate laser by 22.03359554499849 degrees
M index:2=100 ;activate laser
G0 F5400 X154.855 Y112.713

M index:2=0 ;deactivate laser
A-15.881316912019502; rotate laser by -22.03532721542706 degrees
M index:0=100 ;activate laser
G0 F5400 X170.833 Y96.17

M index:0=0 ;deactivate laser
A15.881316912018969; rotate laser by 22.03532721542632 degrees
M index:2=100 ;activate laser
G0 F5400 X153.906 Y112.531

M index:2=0 ;deactivate laser
A-15.88004784242533; rotate laser by -22.033566381365148 degrees
M index:0=100 ;activate laser
G0 F5400 X169.702 Y96.17

M index:0=0 ;deactivate laser
A15.880054822876174; rotate laser by 22.033576066740693 degrees
M index:2=100 ;activate laser
G0 F5400 X152.955 Y112.35

M index:2=0 ;deactivate laser
A-15.881330872920184; rotate laser by -22.035346586176757 degrees
M index:0=100 ;activate laser
G0 F5400 X168.57 Y96.17

M index:0=0 ;deactivate laser
A15.882620230508117; rotate laser by 22.037135569830014 degrees
M index:2=100 ;activate laser
G0 F5400 X151.991 Y112.183

M index:2=0 ;deactivate laser
A-15.882613431421701; rotate laser by -22.037126136097612 degrees
M index:0=100 ;activate laser
G0 F5400 X167.439 Y96.17

M index:0=0 ;deactivate laser
A15.881317274746635; rotate laser by 22.03532771871096 degrees
M index:2=100 ;activate laser
G0 F5400 X151.027 Y112.016

M index:2=0 ;deactivate laser
A-15.881317274746001; rotate laser by -22.03532771871008 degrees
M index:0=100 ;activate laser
G0 F5400 X166.307 Y96.17

M index:0=0 ;deactivate laser
A15.882633510218223; rotate laser by 22.037153995427786 degrees
M index:2=100 ;activate laser
G0 F5400 X150.055 Y111.856

M index:2=0 ;deactivate laser
A-15.88262693262427; rotate laser by -22.037144869016174 degrees
M index:0=100 ;activate laser
G0 F5400 X165.176 Y96.17

M index:0=0 ;deactivate laser
A15.881304119557335; rotate laser by 22.035309465885803 degrees
M index:2=100 ;activate laser
G0 F5400 X149.08 Y111.7

M index:2=0 ;deactivate laser
A-15.881304119556718; rotate laser by -22.03530946588495 degrees
M index:0=100 ;activate laser
G0 F5400 X164.045 Y96.17

M index:0=0 ;deactivate laser
A15.882646891171477; rotate laser by 22.037172561500427 degrees
M index:2=100 ;activate laser
G0 F5400 X148.102 Y111.546

M index:2=0 ;deactivate laser
A-15.883989662786338; rotate laser by -22.039035657116045 degrees
M index:0=100 ;activate laser
G0 F5400 X162.913 Y96.17

M index:0=0 ;deactivate laser
A15.88534468347445; rotate laser by 22.0409157483208 degrees
M index:2=100 ;activate laser
G0 F5400 X147.11 Y111.407

M index:2=0 ;deactivate laser
A-15.886699704162538; rotate laser by -22.042795839525525 degrees
M index:0=100 ;activate laser
G0 F5400 X161.782 Y96.17

M index:0=0 ;deactivate laser
A15.88669970416176; rotate laser by 22.042795839524445 degrees
M index:2=100 ;activate laser
G0 F5400 X146.119 Y111.267

M index:2=0 ;deactivate laser
A-15.885325930732305; rotate laser by -22.040889728891074 degrees
M index:0=100 ;activate laser
G0 F5400 X160.651 Y96.17

M index:0=0 ;deactivate laser
A15.883952157302847; rotate laser by 22.038983618257703 degrees
M index:2=100 ;activate laser
G0 F5400 X145.12 Y111.135

M index:2=0 ;deactivate laser
A-15.883952157301946; rotate laser by -22.038983618256452 degrees
M index:0=100 ;activate laser
G0 F5400 X159.345 Y96.344

M index:0=0 ;deactivate laser
A15.883952157301085; rotate laser by 22.03898361825526 degrees
M index:2=100 ;activate laser
G0 F5400 X144.116 Y111.007

M index:2=0 ;deactivate laser
A-15.883952157300328; rotate laser by -22.038983618254207 degrees
M index:0=100 ;activate laser
G0 F5400 X157.886 Y96.672

M index:0=0 ;deactivate laser
A15.883952157299488; rotate laser by 22.03898361825304 degrees
M index:2=100 ;activate laser
G0 F5400 X143.108 Y110.884

M index:2=0 ;deactivate laser
A-15.883952157298669; rotate laser by -22.038983618251905 degrees
M index:0=100 ;activate laser
G0 F5400 X156.461 Y96.965

M index:0=0 ;deactivate laser
A15.88395215729785; rotate laser by 22.038983618250768 degrees
M index:2=100 ;activate laser
G0 F5400 X142.088 Y110.772

M index:2=0 ;deactivate laser
A-15.88395215729705; rotate laser by -22.03898361824966 degrees
M index:0=100 ;activate laser
G0 F5400 X155.045 Y97.25

M index:0=0 ;deactivate laser
A15.883952157296251; rotate laser by 22.03898361824855 degrees
M index:2=100 ;activate laser
G0 F5400 X141.069 Y110.66

M index:2=0 ;deactivate laser
A-15.88237489685898; rotate laser by -22.036795169391837 degrees
M index:0=100 ;activate laser
G0 F5400 X153.645 Y97.519

M index:0=0 ;deactivate laser
A15.880797636421626; rotate laser by 22.03460672053501 degrees
M index:2=100 ;activate laser
G0 F5400 X140.037 Y110.561

M index:2=0 ;deactivate laser
A-15.88079763642085; rotate laser by -22.03460672053393 degrees
M index:0=100 ;activate laser
G0 F5400 X152.263 Y97.769

M index:0=0 ;deactivate laser
A15.880797636420072; rotate laser by 22.03460672053285 degrees
M index:2=100 ;activate laser
G0 F5400 X139.003 Y110.463

M index:2=0 ;deactivate laser
A-15.879133686083412; rotate laser by -22.032297989440735 degrees
M index:0=100 ;activate laser
G0 F5400 X150.895 Y98.006

M index:0=0 ;deactivate laser
A15.877469735746917; rotate laser by 22.02998925834885 degrees
M index:2=100 ;activate laser
G0 F5400 X137.962 Y110.373

M index:2=0 ;deactivate laser
A-15.877469735746262; rotate laser by -22.02998925834794 degrees
M index:0=100 ;activate laser
G0 F5400 X149.544 Y98.225

M index:0=0 ;deactivate laser
A15.879196445153159; rotate laser by 22.03238506765001 degrees
M index:2=100 ;activate laser
G0 F5400 X136.914 Y110.289

M index:2=0 ;deactivate laser
A-15.879174657482443; rotate laser by -22.03235483725689 degrees
M index:0=100 ;activate laser
G0 F5400 X148.199 Y98.439

M index:0=0 ;deactivate laser
A15.87742616040417; rotate laser by 22.029928797560785 degrees
M index:2=100 ;activate laser
G0 F5400 X135.864 Y110.208

M index:2=0 ;deactivate laser
A-15.877426160403514; rotate laser by -22.029928797559876 degrees
M index:0=100 ;activate laser
G0 F5400 X146.882 Y98.625

M index:0=0 ;deactivate laser
A15.877426160402898; rotate laser by 22.029928797559023 degrees
M index:2=100 ;activate laser
G0 F5400 X134.8 Y110.141

M index:2=0 ;deactivate laser
A-15.877426160402202; rotate laser by -22.029928797558057 degrees
M index:0=100 ;activate laser
G0 F5400 X145.568 Y98.807

M index:0=0 ;deactivate laser
A15.877426160401546; rotate laser by 22.029928797557147 degrees
M index:2=100 ;activate laser
G0 F5400 X133.735 Y110.075

M index:2=0 ;deactivate laser
A-15.875561944091226; rotate laser by -22.027342197426577 degrees
M index:0=100 ;activate laser
G0 F5400 X144.272 Y98.972

M index:0=0 ;deactivate laser
A15.873697727780863; rotate laser by 22.02475559729595 degrees
M index:2=100 ;activate laser
G0 F5400 X132.657 Y110.021

M index:2=0 ;deactivate laser
A-15.873697727780188; rotate laser by -22.024755597295012 degrees
M index:0=100 ;activate laser
G0 F5400 X142.984 Y99.129

M index:0=0 ;deactivate laser
A15.873697727779552; rotate laser by 22.02475559729413 degrees
M index:2=100 ;activate laser
G0 F5400 X131.577 Y109.97

M index:2=0 ;deactivate laser
A-15.873697727779103; rotate laser by -22.024755597293506 degrees
M index:0=100 ;activate laser
G0 F5400 X141.712 Y99.269

M index:0=0 ;deactivate laser
A15.87369772777861; rotate laser by 22.024755597292824 degrees
M index:2=100 ;activate laser
G0 F5400 X130.487 Y109.928

M index:2=0 ;deactivate laser
A-15.87369772777812; rotate laser by -22.024755597292142 degrees
M index:0=100 ;activate laser
G0 F5400 X140.449 Y99.4

M index:0=0 ;deactivate laser
A15.873697727777587; rotate laser by 22.024755597291403 degrees
M index:2=100 ;activate laser
G0 F5400 X129.389 Y109.895

M index:2=0 ;deactivate laser
A-15.873697727777156; rotate laser by -22.024755597290806 degrees
M index:0=100 ;activate laser
G0 F5400 X139.2 Y99.518

M index:0=0 ;deactivate laser
A15.871691106683617; rotate laser by 22.02197141052352 degrees
M index:2=100 ;activate laser
G0 F5400 X128.286 Y109.867

M index:2=0 ;deactivate laser
A-15.867666489427641; rotate laser by -22.016387254080854 degrees
M index:0=100 ;activate laser
G0 F5400 X137.96 Y99.627

M index:0=0 ;deactivate laser
A15.865648493264734; rotate laser by 22.01358728440482 degrees
M index:2=100 ;activate laser
G0 F5400 X127.172 Y109.849

M index:2=0 ;deactivate laser
A-15.865648493264242; rotate laser by -22.01358728440414 degrees
M index:0=100 ;activate laser
G0 F5400 X136.73 Y99.726

M index:0=0 ;deactivate laser
A15.863596196883327; rotate laser by 22.010739723175618 degrees
M index:2=100 ;activate laser
G0 F5400 X126.055 Y109.835

M index:2=0 ;deactivate laser
A-15.861543900502493; rotate laser by -22.00789216194721 degrees
M index:0=100 ;activate laser
G0 F5400 X135.511 Y99.813

M index:0=0 ;deactivate laser
A15.863611818548478; rotate laser by 22.010761398236014 degrees
M index:2=100 ;activate laser
G0 F5400 X124.923 Y109.835

M index:2=0 ;deactivate laser
A-15.86567973659446; rotate laser by -22.013630634524816 degrees
M index:0=100 ;activate laser
G0 F5400 X134.304 Y99.889

M index:0=0 ;deactivate laser
A15.865679736594133; rotate laser by 22.01363063452436 degrees
M index:2=100 ;activate laser
G0 F5400 X123.792 Y109.835

M index:2=0 ;deactivate laser
A-15.865679736593826; rotate laser by -22.013630634523935 degrees
M index:0=100 ;activate laser
G0 F5400 X133.105 Y99.957

M index:0=0 ;deactivate laser
A15.865679736593478; rotate laser by 22.01363063452345 degrees
M index:2=100 ;activate laser
G0 F5400 X122.643 Y109.853

M index:2=0 ;deactivate laser
A-15.865679736593151; rotate laser by -22.013630634522997 degrees
M index:0=100 ;activate laser
G0 F5400 X131.917 Y100.013

M index:0=0 ;deactivate laser
A15.867780477065391; rotate laser by 22.016545411928234 degrees
M index:2=100 ;activate laser
G0 F5400 X121.494 Y109.87

M index:2=0 ;deactivate laser
A-15.86777919384371; rotate laser by -22.01654363145815 degrees
M index:0=100 ;activate laser
G0 F5400 X130.736 Y100.063

M index:0=0 ;deactivate laser
A15.865677170149455; rotate laser by 22.01362707358237 degrees
M index:2=100 ;activate laser
G0 F5400 X120.329 Y109.904

M index:2=0 ;deactivate laser
A-15.86567717014917; rotate laser by -22.013627073581972 degrees
M index:0=100 ;activate laser
G0 F5400 X129.568 Y100.099

M index:0=0 ;deactivate laser
A15.865677170148922; rotate laser by 22.01362707358163 degrees
M index:2=100 ;activate laser
G0 F5400 X119.162 Y109.94

M index:2=0 ;deactivate laser
A-15.865677170148553; rotate laser by -22.01362707358112 degrees
M index:0=100 ;activate laser
G0 F5400 X128.405 Y100.131

M index:0=0 ;deactivate laser
A15.863581334211048; rotate laser by 22.01071910121783 degrees
M index:2=100 ;activate laser
G0 F5400 X117.98 Y109.991

M index:2=0 ;deactivate laser
A-15.863577299877708; rotate laser by -22.01071350358032 degrees
M index:0=100 ;activate laser
G0 F5400 X127.256 Y100.148

M index:0=0 ;deactivate laser
A15.865669101481583; rotate laser by 22.0136158783057 degrees
M index:2=100 ;activate laser
G0 F5400 X116.792 Y110.047

M index:2=0 ;deactivate laser
A-15.865669101481256; rotate laser by -22.013615878305245 degrees
M index:0=100 ;activate laser
G0 F5400 X126.109 Y100.164

M index:0=0 ;deactivate laser
A15.86359453451436; rotate laser by 22.010737416638676 degrees
M index:2=100 ;activate laser
G0 F5400 X115.591 Y110.117

M index:2=0 ;deactivate laser
A-15.861519967547464; rotate laser by -22.007858954972107 degrees
M index:0=100 ;activate laser
G0 F5400 X124.978 Y100.164

M index:0=0 ;deactivate laser
A15.861519967547176; rotate laser by 22.00785895497171 degrees
M index:2=100 ;activate laser
G0 F5400 X114.384 Y110.192

M index:2=0 ;deactivate laser
A-15.861519967546807; rotate laser by -22.007858954971198 degrees
M index:0=100 ;activate laser
G0 F5400 X123.846 Y100.164

M index:0=0 ;deactivate laser
A15.86151996754652; rotate laser by 22.0078589549708 degrees
M index:2=100 ;activate laser
G0 F5400 X113.163 Y110.282

M index:2=0 ;deactivate laser
A-15.861519967546174; rotate laser by -22.007858954970317 degrees
M index:0=100 ;activate laser
G0 F5400 X122.731 Y100.148

M index:0=0 ;deactivate laser
A15.859503744926243; rotate laser by 22.005061446085165 degrees
M index:2=100 ;activate laser
G0 F5400 X111.934 Y110.38

M index:2=0 ;deactivate laser
A-15.857487522306336; rotate laser by -22.00226393720004 degrees
M index:0=100 ;activate laser
G0 F5400 X121.617 Y100.131

M index:0=0 ;deactivate laser
A15.857487522305966; rotate laser by 22.00226393719953 degrees
M index:2=100 ;activate laser
G0 F5400 X110.691 Y110.491

M index:2=0 ;deactivate laser
A-15.85748752230568; rotate laser by -22.00226393719913 degrees
M index:0=100 ;activate laser
G0 F5400 X120.515 Y100.101

M index:0=0 ;deactivate laser
A15.857487522305394; rotate laser by 22.002263937198734 degrees
M index:2=100 ;activate laser
G0 F5400 X109.442 Y110.609

M index:2=0 ;deactivate laser
A-15.857487522305025; rotate laser by -22.002263937198222 degrees
M index:0=100 ;activate laser
G0 F5400 X119.418 Y100.067

M index:0=0 ;deactivate laser
A15.855556350089614; rotate laser by 21.99958443574934 degrees
M index:2=100 ;activate laser
G0 F5400 X108.178 Y110.742

M index:2=0 ;deactivate laser
A-15.853625177874122; rotate laser by -21.996904934300346 degrees
M index:0=100 ;activate laser
G0 F5400 X118.329 Y100.025

M index:0=0 ;deactivate laser
A15.853625177873754; rotate laser by 21.996904934299835 degrees
M index:2=100 ;activate laser
G0 F5400 X106.906 Y110.882

M index:2=0 ;deactivate laser
A-15.855504838098152; rotate laser by -21.99951296286119 degrees
M index:0=100 ;activate laser
G0 F5400 X117.248 Y99.974

M index:0=0 ;deactivate laser
A15.855523139049296; rotate laser by 21.9995383554309 degrees
M index:2=100 ;activate laser
G0 F5400 X105.616 Y111.041

M index:2=0 ;deactivate laser
A-15.855504697412043; rotate laser by -21.999512767659212 degrees
M index:0=100 ;activate laser
G0 F5400 X116.171 Y99.919

M index:0=0 ;deactivate laser
A15.857347615048008; rotate laser by 22.00206981587911 degrees
M index:2=100 ;activate laser
G0 F5400 X104.32 Y111.205

M index:2=0 ;deactivate laser
A-15.857347615047718; rotate laser by -22.002069815878713 degrees
M index:0=100 ;activate laser
G0 F5400 X115.107 Y99.852

M index:0=0 ;deactivate laser
A15.857347615047432; rotate laser by 22.002069815878315 degrees
M index:2=100 ;activate laser
G0 F5400 X103.005 Y111.389

M index:2=0 ;deactivate laser
A-15.857347615047065; rotate laser by -22.002069815877803 degrees
M index:0=100 ;activate laser
G0 F5400 X114.042 Y99.786

M index:0=0 ;deactivate laser
A15.857347615046736; rotate laser by 22.00206981587735 degrees
M index:2=100 ;activate laser
G0 F5400 X101.686 Y111.577

M index:2=0 ;deactivate laser
A-15.85734761504641; rotate laser by -22.002069815876894 degrees
M index:0=100 ;activate laser
G0 F5400 X112.994 Y99.703

M index:0=0 ;deactivate laser
A15.85734761504608; rotate laser by 22.00206981587644 degrees
M index:2=100 ;activate laser
G0 F5400 X100.339 Y111.792

M index:2=0 ;deactivate laser
A-15.855666184389674; rotate laser by -21.999736830840675 degrees
M index:0=100 ;activate laser
G0 F5400 X111.946 Y99.62

M index:0=0 ;deactivate laser
A15.853984753733268; rotate laser by 21.99740384580491 degrees
M index:2=100 ;activate laser
G0 F5400 X98.987 Y112.012

M index:2=0 ;deactivate laser
A-15.85398475373292; rotate laser by -21.997403845804428 degrees
M index:0=100 ;activate laser
G0 F5400 X110.906 Y99.528

M index:0=0 ;deactivate laser
A15.853984753732611; rotate laser by 21.997403845804 degrees
M index:2=100 ;activate laser
G0 F5400 X97.619 Y112.249

M index:2=0 ;deactivate laser
A-15.853984753732284; rotate laser by -21.997403845803547 degrees
M index:0=100 ;activate laser
G0 F5400 X109.872 Y99.431

M index:0=0 ;deactivate laser
A15.853984753731998; rotate laser by 21.99740384580315 degrees
M index:2=100 ;activate laser
G0 F5400 X96.235 Y112.502

M index:2=0 ;deactivate laser
A-15.853984753731629; rotate laser by -21.997403845802637 degrees
M index:0=100 ;activate laser
G0 F5400 X108.842 Y99.33

M index:0=0 ;deactivate laser
A15.8539847537313; rotate laser by 21.997403845802182 degrees
M index:2=100 ;activate laser
G0 F5400 X94.835 Y112.771

M index:2=0 ;deactivate laser
A-15.853984753730973; rotate laser by -21.997403845801728 degrees
M index:0=100 ;activate laser
G0 F5400 X107.822 Y99.218

M index:0=0 ;deactivate laser
A15.853984753730646; rotate laser by 21.997403845801273 degrees
M index:2=100 ;activate laser
G0 F5400 X93.416 Y113.058

M index:2=0 ;deactivate laser
A-15.853984753730298; rotate laser by -21.99740384580079 degrees
M index:0=100 ;activate laser
G0 F5400 X106.803 Y99.105

M index:0=0 ;deactivate laser
A15.855427650249357; rotate laser by 21.999405864720984 degrees
M index:2=100 ;activate laser
G0 F5400 X91.988 Y113.354

M index:2=0 ;deactivate laser
A-15.856870546768395; rotate laser by -22.00140788364115 degrees
M index:0=100 ;activate laser
G0 F5400 X105.797 Y98.98

M index:0=0 ;deactivate laser
A15.856870546768068; rotate laser by 22.001407883640695 degrees
M index:2=100 ;activate laser
G0 F5400 X90.53 Y113.682

M index:2=0 ;deactivate laser
A-15.85687054676772; rotate laser by -22.001407883640212 degrees
M index:0=100 ;activate laser
G0 F5400 X104.793 Y98.853

M index:0=0 ;deactivate laser
A15.856870546767412; rotate laser by 22.001407883639786 degrees
M index:2=100 ;activate laser
G0 F5400 X89.251 Y113.829

M index:2=0 ;deactivate laser
A-15.856870546767084; rotate laser by -22.00140788363933 degrees
M index:0=100 ;activate laser
G0 F5400 X103.794 Y98.721

M index:0=0 ;deactivate laser
A15.856870546766757; rotate laser by 22.001407883638876 degrees
M index:2=100 ;activate laser
G0 F5400 X88.12 Y113.829

M index:2=0 ;deactivate laser
A-15.856870546766409; rotate laser by -22.001407883638393 degrees
M index:0=100 ;activate laser
G0 F5400 X102.802 Y98.581

M index:0=0 ;deactivate laser
A15.858218402479471; rotate laser by 22.003278033440267 degrees
M index:2=100 ;activate laser
G0 F5400 X86.988 Y113.829

M index:2=0 ;deactivate laser
A-15.85956625819241; rotate laser by -22.00514818324197 degrees
M index:0=100 ;activate laser
G0 F5400 X101.811 Y98.441

M index:0=0 ;deactivate laser
A15.859566258192103; rotate laser by 22.005148183241545 degrees
M index:2=100 ;activate laser
G0 F5400 X85.857 Y113.829

M index:2=0 ;deactivate laser
A-15.859566258191775; rotate laser by -22.00514818324109 degrees
M index:0=100 ;activate laser
G0 F5400 X100.835 Y98.285

M index:0=0 ;deactivate laser
A15.858244545952155; rotate laser by 22.003314307508617 degrees
M index:2=100 ;activate laser
G0 F5400 X84.726 Y113.829

M index:2=0 ;deactivate laser
A-15.856922833712536; rotate laser by -22.001480431776145 degrees
M index:0=100 ;activate laser
G0 F5400 X99.859 Y98.13

M index:0=0 ;deactivate laser
A15.858231560473254; rotate laser by 22.00329629015664 degrees
M index:2=100 ;activate laser
G0 F5400 X83.594 Y113.829

M index:2=0 ;deactivate laser
A-15.860842082747695; rotate laser by -22.006918389812427 degrees
M index:0=100 ;activate laser
G0 F5400 X98.889 Y97.968

M index:0=0 ;deactivate laser
A15.86214387826113; rotate laser by 22.00872463108732 degrees
M index:2=100 ;activate laser
G0 F5400 X82.463 Y113.829

M index:2=0 ;deactivate laser
A-15.86214387826076; rotate laser by -22.008724631086807 degrees
M index:0=100 ;activate laser
G0 F5400 X97.925 Y97.801

M index:0=0 ;deactivate laser
A15.860862363333457; rotate laser by 22.006946529125173 degrees
M index:2=100 ;activate laser
G0 F5400 X81.332 Y113.829

M index:2=0 ;deactivate laser
A-15.859580848406072; rotate laser by -22.005168427163426 degrees
M index:0=100 ;activate laser
G0 F5400 X96.962 Y97.633

M index:0=0 ;deactivate laser
A15.859580848405786; rotate laser by 22.005168427163028 degrees
M index:2=100 ;activate laser
G0 F5400 X80.2 Y113.829

M index:2=0 ;deactivate laser
A-15.859580848405416; rotate laser by -22.005168427162516 degrees
M index:0=100 ;activate laser
G0 F5400 X96.012 Y97.452

M index:0=0 ;deactivate laser
A15.85958084840513; rotate laser by 22.00516842716212 degrees
M index:2=100 ;activate laser
G0 F5400 X79.069 Y113.829

M index:2=0 ;deactivate laser
A-15.859580848404761; rotate laser by -22.005168427161607 degrees
M index:0=100 ;activate laser
G0 F5400 X95.062 Y97.27

M index:0=0 ;deactivate laser
A15.858340743431555; rotate laser by 22.003447781511284 degrees
M index:2=100 ;activate laser
G0 F5400 X77.938 Y113.829

M index:2=0 ;deactivate laser
A-15.857100638458432; rotate laser by -22.001727135861074 degrees
M index:0=100 ;activate laser
G0 F5400 X94.118 Y97.083

M index:0=0 ;deactivate laser
A15.857100638458101; rotate laser by 22.00172713586062 degrees
M index:2=100 ;activate laser
G0 F5400 X76.806 Y113.829

M index:2=0 ;deactivate laser
A-15.857100638457755; rotate laser by -22.001727135860136 degrees
M index:0=100 ;activate laser
G0 F5400 X93.179 Y96.89

M index:0=0 ;deactivate laser
A15.857100638457407; rotate laser by 22.001727135859653 degrees
M index:2=100 ;activate laser
G0 F5400 X76.17 Y113.334

M index:2=0 ;deactivate laser
A-15.85710063845714; rotate laser by -22.001727135859284 degrees
M index:0=100 ;activate laser
G0 F5400 X92.24 Y96.698

M index:0=0 ;deactivate laser
A15.857100638456792; rotate laser by 22.0017271358588 degrees
M index:2=100 ;activate laser
G0 F5400 X76.17 Y112.202

M index:2=0 ;deactivate laser
A-15.858463890098543; rotate laser by -22.00361864751173 degrees
M index:0=100 ;activate laser
G0 F5400 X91.315 Y96.491

M index:0=0 ;deactivate laser
A15.859827141740334; rotate laser by 22.005510159164714 degrees
M index:2=100 ;activate laser
G0 F5400 X76.17 Y111.071

M index:2=0 ;deactivate laser
A-15.859827141739984; rotate laser by -22.00551015916423 degrees
M index:0=100 ;activate laser
G0 F5400 X90.391 Y96.284

M index:0=0 ;deactivate laser
A15.8583265692085; rotate laser by 22.003428114776796 degrees
M index:2=100 ;activate laser
G0 F5400 X76.17 Y109.94

M index:2=0 ;deactivate laser
A-15.856825996677056; rotate laser by -22.001346070389417 degrees
M index:0=100 ;activate laser
G0 F5400 X89.376 Y96.168

M index:0=0 ;deactivate laser
A15.856825996676749; rotate laser by 22.00134607038899 degrees
M index:2=100 ;activate laser
G0 F5400 X76.17 Y108.808

M index:2=0 ;deactivate laser
A-15.858535974542203; rotate laser by -22.003718664677308 degrees
M index:0=100 ;activate laser
G0 F5400 X88.244 Y96.168

M index:0=0 ;deactivate laser
A15.860245952407658; rotate laser by 22.006091258965625 degrees
M index:2=100 ;activate laser
G0 F5400 X76.17 Y107.677

M index:2=0 ;deactivate laser
A-15.860245952407329; rotate laser by -22.00609125896517 degrees
M index:0=100 ;activate laser
G0 F5400 X87.113 Y96.168

M index:0=0 ;deactivate laser
A15.858256347228807; rotate laser by 22.00333068177997 degrees
M index:2=100 ;activate laser
G0 F5400 X76.17 Y106.546

M index:2=0 ;deactivate laser
A-15.856266742050284; rotate laser by -22.00057010459477 degrees
M index:0=100 ;activate laser
G0 F5400 X85.982 Y96.168

M index:0=0 ;deactivate laser
A15.856266742049957; rotate laser by 22.000570104594317 degrees
M index:2=100 ;activate laser
G0 F5400 X76.17 Y105.414

M index:2=0 ;deactivate laser
A-15.858645306386897; rotate laser by -22.00387036261182 degrees
M index:0=100 ;activate laser
G0 F5400 X84.85 Y96.168

M index:0=0 ;deactivate laser
A15.861023870723876; rotate laser by 22.00717062062938 degrees
M index:2=100 ;activate laser
G0 F5400 X76.17 Y104.283

M index:2=0 ;deactivate laser
A-15.861023870723631; rotate laser by -22.00717062062904 degrees
M index:0=100 ;activate laser
G0 F5400 X83.719 Y96.168

M index:0=0 ;deactivate laser
A15.858067312018205; rotate laser by 22.00306839542526 degrees
M index:2=100 ;activate laser
G0 F5400 X76.17 Y103.152

M index:2=0 ;deactivate laser
A-15.858328069668195; rotate laser by -22.003430196664624 degrees
M index:0=100 ;activate laser
G0 F5400 X82.587 Y96.168

M index:0=0 ;deactivate laser
A15.861545386023167; rotate laser by 22.007894223107144 degrees
M index:2=100 ;activate laser
G0 F5400 X76.17 Y102.02

M index:2=0 ;deactivate laser
A-15.861545386022735; rotate laser by -22.007894223106547 degrees
M index:0=100 ;activate laser
G0 F5400 X81.456 Y96.168

M index:0=0 ;deactivate laser
A15.857171457905679; rotate laser by 22.00182539784413 degrees
M index:2=100 ;activate laser
G0 F5400 X76.17 Y100.889

M index:2=0 ;deactivate laser
A-15.852797529788722; rotate laser by -21.995756572581854 degrees
M index:0=100 ;activate laser
G0 F5400 X80.325 Y96.168

M index:0=0 ;deactivate laser
A15.852797529788393; rotate laser by 21.9957565725814 degrees
M index:2=100 ;activate laser
G0 F5400 X76.17 Y99.757

M index:2=0 ;deactivate laser
A-15.85962641272647; rotate laser by -22.00523164765798 degrees
M index:0=100 ;activate laser
G0 F5400 X79.193 Y96.168

M index:0=0 ;deactivate laser
A15.86645529566471; rotate laser by 22.014706722734786 degrees
M index:2=100 ;activate laser
G0 F5400 X76.17 Y98.626

M index:2=0 ;deactivate laser
A-15.866455295664627; rotate laser by -22.014706722734672 degrees
M index:0=100 ;activate laser
G0 F5400 X78.062 Y96.168

M index:0=0 ;deactivate laser
G1 F1800 X76.365 Y96.168 E280.27819
;MESH:NONMESH
G0 X157.75 Y113.882
;TIME_ELAPSED:309.549952
;LAYER:2
;TYPE:WALL-INNER
;MESH:Pruefk??rper_V1.stl
A-8.765852690856361; rotate laser by -12.162620608563202 degrees
M index:1=100 ;activate laser
G1 F3600 X155.357 Y113.388 E280.35946

M index:1=0 ;deactivate laser
A8.079838229620798; rotate laser by 11.210775543598857 degrees
M index:1=100 ;activate laser
G1 X152.956 Y112.929 E280.44076

M index:1=0 ;deactivate laser
A-8.696449069026224; rotate laser by -12.066323083273886 degrees
M index:1=100 ;activate laser
G1 X150.548 Y112.51 E280.52206

M index:1=0 ;deactivate laser
A8.013086488288941; rotate laser by 11.118157502500907 degrees
M index:1=100 ;activate laser
G1 X148.134 Y112.127 E280.60335

M index:1=0 ;deactivate laser
A-8.643879268493835; rotate laser by -11.993382485035198 degrees
M index:1=100 ;activate laser
G1 X145.714 Y111.784 E280.68465

M index:1=0 ;deactivate laser
A7.996467457707801; rotate laser by 11.095098597569574 degrees
M index:1=100 ;activate laser
G1 X143.289 Y111.478 E280.76594

M index:1=0 ;deactivate laser
A-8.638684702768083; rotate laser by -11.986175025090716 degrees
M index:1=100 ;activate laser
G1 X140.859 Y111.21 E280.84725

M index:1=0 ;deactivate laser
A7.990321414831115; rotate laser by 11.086570963078174 degrees
M index:1=100 ;activate laser
G1 X138.427 Y110.98 E280.9285

M index:1=0 ;deactivate laser
A-8.648648177294149; rotate laser by -11.999999345995633 degrees
M index:1=100 ;activate laser
G1 X135.989 Y110.788 E281.00984

M index:1=0 ;deactivate laser
A8.022513574464774; rotate laser by 11.131237584569874 degrees
M index:1=100 ;activate laser
G1 X133.55 Y110.635 E281.09112

M index:1=0 ;deactivate laser
A-8.699182780978086; rotate laser by -12.070116108607095 degrees
M index:1=100 ;activate laser
G1 X131.109 Y110.519 E281.1724

M index:1=0 ;deactivate laser
A8.056964890195779; rotate laser by 11.179038785146645 degrees
M index:1=100 ;activate laser
G1 X128.666 Y110.443 E281.2537

M index:1=0 ;deactivate laser
A-8.698967868152124; rotate laser by -12.069817917061073 degrees
M index:1=100 ;activate laser
G1 X126.222 Y110.405 E281.335

M index:1=0 ;deactivate laser
A8.05696489019576; rotate laser by 11.179038785146616 degrees
M index:1=100 ;activate laser
G1 X123.778 Y110.405 E281.41628

M index:1=0 ;deactivate laser
A-8.699182780978067; rotate laser by -12.070116108607067 degrees
M index:1=100 ;activate laser
G1 X121.334 Y110.443 E281.49758

M index:1=0 ;deactivate laser
A8.022513574464671; rotate laser by 11.131237584569732 degrees
M index:1=100 ;activate laser
G1 X118.891 Y110.519 E281.57887

M index:1=0 ;deactivate laser
A-8.648648177294026; rotate laser by -11.999999345995462 degrees
M index:1=100 ;activate laser
G1 X116.45 Y110.635 E281.66015

M index:1=0 ;deactivate laser
A7.990321414831033; rotate laser by 11.08657096307806 degrees
M index:1=100 ;activate laser
G1 X114.011 Y110.788 E281.74143

M index:1=0 ;deactivate laser
A-8.638684702768083; rotate laser by -11.986175025090716 degrees
M index:1=100 ;activate laser
G1 X111.573 Y110.98 E281.82277

M index:1=0 ;deactivate laser
A7.996467457707923; rotate laser by 11.095098597569745 degrees
M index:1=100 ;activate laser
G1 X109.141 Y111.21 E281.90402

M index:1=0 ;deactivate laser
A-8.64387926849406; rotate laser by -11.99338248503551 degrees
M index:1=100 ;activate laser
G1 X106.711 Y111.478 E281.98534

M index:1=0 ;deactivate laser
A8.013086488289208; rotate laser by 11.118157502501276 degrees
M index:1=100 ;activate laser
G1 X104.286 Y111.784 E282.06663

M index:1=0 ;deactivate laser
A-8.696449069026633; rotate laser by -12.066323083274455 degrees
M index:1=100 ;activate laser
G1 X101.866 Y112.127 E282.14793

M index:1=0 ;deactivate laser
A8.07983822962135; rotate laser by 11.210775543599624 degrees
M index:1=100 ;activate laser
G1 X99.452 Y112.51 E282.22922

M index:1=0 ;deactivate laser
A-8.765852690857058; rotate laser by -12.162620608564168 degrees
M index:1=100 ;activate laser
G1 X97.044 Y112.929 E282.31051

M index:1=0 ;deactivate laser
A8.159468000291744; rotate laser by 11.321261850404795 degrees
M index:1=100 ;activate laser
G1 X94.643 Y113.388 E282.39182

M index:1=0 ;deactivate laser
A-8.84695137112711; rotate laser by -12.275145027438867 degrees
M index:1=100 ;activate laser
G1 X92.25 Y113.882 E282.47309

M index:1=0 ;deactivate laser
A17.940943878438535; rotate laser by 24.89305963133347 degrees
M index:1=100 ;activate laser
G1 X89.936 Y114.4 E282.55196

M index:1=0 ;deactivate laser
A-17.940943878439356; rotate laser by -24.89305963133461 degrees
M index:2=100 ;activate laser
G1 X75.6 Y114.4 E283.02877

M index:2=0 ;deactivate laser
A-46.923920986425344; rotate laser by -65.10694036866516 degrees
M index:0=100 ;activate laser
G1 X75.6 Y95.6 E283.65406

M index:0=0 ;deactivate laser
A-8.846951371127409; rotate laser by -12.27514502743928 degrees
M index:1=100 ;activate laser
G1 X89.936 Y95.6 E284.13088

M index:1=0 ;deactivate laser
A8.159468000292048; rotate laser by 11.321261850405216 degrees
M index:1=100 ;activate laser
G1 X92.25 Y96.118 E284.20975

M index:1=0 ;deactivate laser
A-8.765852690857297; rotate laser by -12.1626206085645 degrees
M index:1=100 ;activate laser
G1 X94.643 Y96.612 E284.29102

M index:1=0 ;deactivate laser
A-56.785026635244115; rotate laser by -78.78922445640121 degrees
M index:2=100 ;activate laser
G1 X97.044 Y97.071 E284.37232

M index:2=0 ;deactivate laser
A-8.696449069025531; rotate laser by -12.066323083272927 degrees
M index:3=100 ;activate laser
G1 X99.452 Y97.49 E284.45362

M index:3=0 ;deactivate laser
A-56.851778376577066; rotate laser by -78.88184249750068 degrees
M index:0=100 ;activate laser
G1 X101.866 Y97.873 E284.53491

M index:0=0 ;deactivate laser
A-8.64387926849199; rotate laser by -11.993382485032637 degrees
M index:1=100 ;activate laser
G1 X104.286 Y98.216 E284.6162

M index:1=0 ;deactivate laser
A-56.8683974071599; rotate laser by -78.90490140243436 degrees
M index:2=100 ;activate laser
G1 X106.711 Y98.522 E284.6975

M index:2=0 ;deactivate laser
A-8.638684702764595; rotate laser by -11.986175025085876 degrees
M index:3=100 ;activate laser
G1 X109.141 Y98.79 E284.77881

M index:3=0 ;deactivate laser
A-56.87454345003749; rotate laser by -78.91342903692703 degrees
M index:0=100 ;activate laser
G1 X111.573 Y99.02 E284.86006

M index:0=0 ;deactivate laser
A-8.64864817728976; rotate laser by -11.999999345989542 degrees
M index:1=100 ;activate laser
G1 X114.011 Y99.212 E284.9414

M index:1=0 ;deactivate laser
A-56.84235129040536; rotate laser by -78.86876241543744 degrees
M index:2=100 ;activate laser
G1 X116.45 Y99.365 E285.02268

M index:2=0 ;deactivate laser
A-8.699182780972391; rotate laser by -12.070116108599192 degrees
M index:3=100 ;activate laser
G1 X118.891 Y99.481 E285.10396

M index:3=0 ;deactivate laser
A-56.80789997467498; rotate laser by -78.82096121486154 degrees
M index:0=100 ;activate laser
G1 X121.334 Y99.557 E285.18526

M index:0=0 ;deactivate laser
A-8.698967868145651; rotate laser by -12.069817917052092 degrees
M index:1=100 ;activate laser
G1 X123.778 Y99.595 E285.26655

M index:1=0 ;deactivate laser
A8.056964890189306; rotate laser by 11.179038785137664 degrees
M index:1=100 ;activate laser
G1 X126.222 Y99.595 E285.34784

M index:1=0 ;deactivate laser
A56.16568208389269; rotate laser by 77.92988389140112 degrees
M index:0=100 ;activate laser
G1 X128.666 Y99.557 E285.42914

M index:0=0 ;deactivate laser
A8.022513574458957; rotate laser by 11.131237584561802 degrees
M index:3=100 ;activate laser
G1 X131.109 Y99.481 E285.51043

M index:3=0 ;deactivate laser
A56.21621668757593; rotate laser by 78.00000065401161 degrees
M index:2=100 ;activate laser
G1 X133.55 Y99.365 E285.59171

M index:2=0 ;deactivate laser
A7.990321414826917; rotate laser by 11.086570963072347 degrees
M index:1=100 ;activate laser
G1 X135.989 Y99.212 E285.67299

M index:1=0 ;deactivate laser
A56.226180162100405; rotate laser by 78.01382497491431 degrees
M index:0=100 ;activate laser
G1 X138.427 Y99.02 E285.75433

M index:0=0 ;deactivate laser
A7.996467457704564; rotate laser by 11.095098597565084 degrees
M index:3=100 ;activate laser
G1 X140.859 Y98.79 E285.83558

M index:3=0 ;deactivate laser
A56.22098559637362; rotate laser by 78.00661751496841 degrees
M index:2=100 ;activate laser
G1 X143.289 Y98.522 E285.91689

M index:2=0 ;deactivate laser
A8.013086488287323; rotate laser by 11.118157502498661 degrees
M index:1=100 ;activate laser
G1 X145.714 Y98.216 E285.99819

M index:1=0 ;deactivate laser
A56.16841579583959; rotate laser by 77.93367691672745 degrees
M index:0=100 ;activate laser
G1 X148.134 Y97.873 E286.07948

M index:0=0 ;deactivate laser
A8.079838229620183; rotate laser by 11.210775543598004 degrees
M index:3=100 ;activate laser
G1 X150.548 Y97.49 E286.16078

M index:3=0 ;deactivate laser
A56.0990121740085; rotate laser by 77.8373793914368 degrees
M index:2=100 ;activate laser
G1 X152.956 Y97.071 E286.24207

M index:2=0 ;deactivate laser
A8.159468000291888; rotate laser by 11.321261850404994 degrees
M index:1=100 ;activate laser
G1 X155.357 Y96.612 E286.32338

M index:1=0 ;deactivate laser
A-8.84695137112709; rotate laser by -12.275145027438839 degrees
M index:1=100 ;activate laser
G1 X157.75 Y96.118 E286.40464

M index:1=0 ;deactivate laser
A-46.923920986427305; rotate laser by -65.10694036866789 degrees
M index:2=100 ;activate laser
G1 X160.064 Y95.6 E286.48351

M index:2=0 ;deactivate laser
A-17.940943878437224; rotate laser by -24.893059631331653 degrees
M index:0=100 ;activate laser
G1 X174.4 Y95.6 E286.96033

M index:0=0 ;deactivate laser
A17.94094387843788; rotate laser by 24.893059631332562 degrees
M index:1=100 ;activate laser
G1 X174.4 Y114.4 E287.58562

M index:1=0 ;deactivate laser
A-8.846951371126416; rotate laser by -12.275145027437901 degrees
M index:1=100 ;activate laser
G1 X160.064 Y114.4 E288.06244

M index:1=0 ;deactivate laser
G0 F7200 X157.666 Y114.273
;TYPE:WALL-OUTER
A7.5388939825392995; rotate laser by 10.46021540077328 degrees
M index:1=100 ;activate laser
G1 F1800 X155.279 Y113.78 E288.22238

M index:1=0 ;deactivate laser
A-8.20998458478321; rotate laser by -11.391353611386705 degrees
M index:1=100 ;activate laser
G1 X152.884 Y113.323 E288.30347

M index:1=0 ;deactivate laser
A7.594490133329571; rotate laser by 10.53735505999478 degrees
M index:1=100 ;activate laser
G1 X150.482 Y112.905 E288.38456

M index:1=0 ;deactivate laser
A-8.265443517890011; rotate laser by -11.46830288107239 degrees
M index:1=100 ;activate laser
G1 X148.075 Y112.523 E288.46562

M index:1=0 ;deactivate laser
A7.61630928872993; rotate laser by 10.567629138112778 degrees
M index:1=100 ;activate laser
G1 X145.661 Y112.18 E288.54672

M index:1=0 ;deactivate laser
A-8.265333255894822; rotate laser by -11.468149892554067 degrees
M index:1=100 ;activate laser
G1 X143.242 Y111.875 E288.62781

M index:1=0 ;deactivate laser
A7.621511712383348; rotate laser by 10.574847500931895 degrees
M index:1=100 ;activate laser
G1 X140.818 Y111.608 E288.70892

M index:1=0 ;deactivate laser
A-8.253270906278933; rotate laser by -11.451413382462022 degrees
M index:1=100 ;activate laser
G1 X138.392 Y111.379 E288.78997

M index:1=0 ;deactivate laser
A7.59200093484907; rotate laser by 10.533901297103085 degrees
M index:1=100 ;activate laser
G1 X135.961 Y111.187 E288.87108

M index:1=0 ;deactivate laser
A-8.23659471631482; rotate laser by -11.428275168886813 degrees
M index:1=100 ;activate laser
G1 X133.528 Y111.034 E288.95216

M index:1=0 ;deactivate laser
A7.575709491861006; rotate laser by 10.511296919957147 degrees
M index:1=100 ;activate laser
G1 X131.093 Y110.919 E289.03324

M index:1=0 ;deactivate laser
A-8.22003554789555; rotate laser by -11.405299322705076 degrees
M index:1=100 ;activate laser
G1 X128.657 Y110.843 E289.1143

M index:1=0 ;deactivate laser
A7.576452834545233; rotate laser by 10.512328307931512 degrees
M index:1=100 ;activate laser
G1 X126.219 Y110.805 E289.1954

M index:1=0 ;deactivate laser
A-8.22003554789561; rotate laser by -11.405299322705162 degrees
M index:1=100 ;activate laser
G1 X123.781 Y110.805 E289.27648

M index:1=0 ;deactivate laser
A7.575709491861129; rotate laser by 10.511296919957317 degrees
M index:1=100 ;activate laser
G1 X121.343 Y110.843 E289.35758

M index:1=0 ;deactivate laser
A-8.2365947163148; rotate laser by -11.428275168886785 degrees
M index:1=100 ;activate laser
G1 X118.907 Y110.919 E289.43864

M index:1=0 ;deactivate laser
A7.592000934848988; rotate laser by 10.533901297102972 degrees
M index:1=100 ;activate laser
G1 X116.472 Y111.034 E289.51972

M index:1=0 ;deactivate laser
A-8.253270906279017; rotate laser by -11.451413382462135 degrees
M index:1=100 ;activate laser
G1 X114.039 Y111.187 E289.6008

M index:1=0 ;deactivate laser
A7.621511712383205; rotate laser by 10.574847500931696 degrees
M index:1=100 ;activate laser
G1 X111.608 Y111.379 E289.68191

M index:1=0 ;deactivate laser
A-8.26533325589474; rotate laser by -11.468149892553953 degrees
M index:1=100 ;activate laser
G1 X109.182 Y111.608 E289.76296

M index:1=0 ;deactivate laser
A7.616309288729909; rotate laser by 10.56762913811275 degrees
M index:1=100 ;activate laser
G1 X106.758 Y111.875 E289.84407

M index:1=0 ;deactivate laser
A-8.265443517889866; rotate laser by -11.46830288107219 degrees
M index:1=100 ;activate laser
G1 X104.339 Y112.18 E289.92516

M index:1=0 ;deactivate laser
A7.594490133329468; rotate laser by 10.537355059994638 degrees
M index:1=100 ;activate laser
G1 X101.925 Y112.523 E290.00626

M index:1=0 ;deactivate laser
A-8.209984584783067; rotate laser by -11.391353611386506 degrees
M index:1=100 ;activate laser
G1 X99.518 Y112.905 E290.08732

M index:1=0 ;deactivate laser
A7.53889398253887; rotate laser by 10.460215400772682 degrees
M index:1=100 ;activate laser
G1 X97.116 Y113.323 E290.16841

M index:1=0 ;deactivate laser
A-8.163427112583332; rotate laser by -11.326755118709372 degrees
M index:1=100 ;activate laser
G1 X94.721 Y113.78 E290.2495

M index:1=0 ;deactivate laser
A7.486611185952881; rotate laser by 10.387673020509624 degrees
M index:1=100 ;activate laser
G1 X92.334 Y114.273 E290.33057

M index:1=0 ;deactivate laser
A1.600672989446032; rotate laser by 2.2209337728563696 degrees
M index:1=100 ;activate laser
G1 X89.978 Y114.8 E290.41087

M index:1=0 ;deactivate laser
A-1.6006729894465237; rotate laser by -2.2209337728570517 degrees
M index:2=100 ;activate laser
G1 X75.2 Y114.8 E290.90239

M index:2=0 ;deactivate laser
A-63.264191875418504; rotate laser by -87.77906622714318 degrees
M index:0=100 ;activate laser
G1 X75.2 Y95.2 E291.55429

M index:0=0 ;deactivate laser
A7.486611185953369; rotate laser by 10.3876730205103 degrees
M index:1=100 ;activate laser
G1 X89.978 Y95.2 E292.0458

M index:1=0 ;deactivate laser
A-8.163427112583598; rotate laser by -11.326755118709743 degrees
M index:1=100 ;activate laser
G1 X92.334 Y95.727 E292.1261

M index:1=0 ;deactivate laser
A7.538893982539333; rotate laser by 10.460215400773325 degrees
M index:1=100 ;activate laser
G1 X94.721 Y96.22 E292.20717

M index:1=0 ;deactivate laser
A-8.209984584783262; rotate laser by -11.391353611386776 degrees
M index:1=100 ;activate laser
G1 X97.116 Y96.677 E292.28826

M index:1=0 ;deactivate laser
A-57.2703747315359; rotate laser by -79.46264494000607 degrees
M index:2=100 ;activate laser
G1 X99.518 Y97.095 E292.36936

M index:2=0 ;deactivate laser
