;FLAVOR:Marlin
;TIME:148
;Filament used: 0.130436m
;Layer height: 0.15
;MINX:80.429
;MINY:73.42
;MINZ:0.2
;MAXX:169.566
;MAXY:136.577
;MAXZ:3.05
;Generated with Cura_SteamEngine 5.2.1
M82 ;absolute extrusion mode
G21 ; set units to millimeters
G90 ; use absolute positioning
M82 ; absolute extrusion mode
M104 S200.0 ; set extruder temp
M140 S45 ; set bed temp
M190 S45 ; wait for bed temp
M109 S200.0 ; wait for extruder temp
G28 W ; home all without mesh bed level
G80 ; mesh bed leveling
G92 E0.0 ; reset extruder distance position
G1 Y-3.0 F1000.0 ; go outside print area
G1 X60.0 E9.0 F1000.0 ; intro line
G1 X100.0 E21.5 F1000.0 ; intro line
G92 E0.0 ; reset extruder distance position
G92 E0
G92 E0
G1 F2100 E-0.8
;LAYER_COUNT:20
;LAYER:0
M107
G0 F3600 X87.618 Y78.032 Z0.2
;TYPE:SKIRT
G1 F2100 E0
G1 F1800 X88.005 Y77.706 E0.01683
G1 X88.438 Y77.445 E0.03365
G1 X89.06 Y77.211 E0.05575
G1 X89.739 Y77.035 E0.07908
G1 X92.364 Y76.309 E0.16966
G1 X95.001 Y75.5 E0.26141
G1 X97.584 Y74.626 E0.3521
G1 X99.303 Y74.007 E0.41287
G1 X99.859 Y73.824 E0.43234
G1 X100.477 Y73.668 E0.45354
G1 X101.132 Y73.542 E0.47572
G1 X102.491 Y73.42 E0.5211
G1 X103.782 Y73.457 E0.56406
G1 X105.003 Y73.639 E0.60512
G1 X106.571 Y73.926 E0.65814
G1 X109.349 Y74.394 E0.75184
G1 X111.995 Y74.763 E0.8407
G1 X114.775 Y75.07 E0.93372
G1 X117.479 Y75.292 E1.02396
G1 X120.194 Y75.437 E1.11439
G1 X122.948 Y75.507 E1.20602
G1 X125.7 Y75.498 E1.29755
G1 X128.417 Y75.414 E1.38796
G1 X131.13 Y75.251 E1.47836
G1 X133.899 Y75.007 E1.57081
G1 X136.464 Y74.725 E1.65664
G1 X137.135 Y74.702 E1.67897
G1 X137.979 Y74.724 E1.70705
G1 X138.973 Y74.892 E1.74058
G1 X140.633 Y75.231 E1.79693
G1 X143.335 Y75.73 E1.88832
G1 X146.032 Y76.149 E1.9791
G1 X148.761 Y76.495 E2.07059
G1 X151.501 Y76.763 E2.16216
G1 X154.215 Y76.952 E2.25265
G1 X156.93 Y77.064 E2.34302
G1 X159.603 Y77.1 E2.43194
G1 X161.059 Y77.1 E2.48036
G1 X161.761 Y77.11 E2.50371
G1 X162.264 Y77.157 E2.52052
G1 X162.754 Y77.283 E2.53734
G1 X163.217 Y77.485 E2.55415
G1 X163.644 Y77.756 E2.57097
G1 X164.022 Y78.092 E2.58779
G1 X164.366 Y78.518 E2.606
G1 X164.956 Y79.391 E2.64104
G1 X165.424 Y80.102 E2.66936
G1 X166.988 Y82.342 E2.76022
G1 X168.777 Y84.751 E2.86002
G1 X169.046 Y85.18 E2.87686
G1 X169.305 Y85.771 E2.89833
G1 X169.462 Y86.252 E2.91515
G1 X169.566 Y87.017 E2.94083
G1 X169.512 Y87.796 E2.9668
G1 X169.416 Y88.344 E2.98531
G1 X168.977 Y91.059 E3.07678
G1 X168.62 Y93.748 E3.167
G1 X168.336 Y96.48 E3.25836
G1 X168.087 Y99.918 E3.37301
G1 X168.044 Y100.702 E3.39912
G1 X167.672 Y103.661 E3.49832
G1 X167.403 Y106.366 E3.58873
G1 X167.21 Y109.109 E3.68019
G1 X167.095 Y111.828 E3.7707
G1 X167.058 Y115.264 E3.88499
G1 X167.065 Y116.716 E3.93328
G1 X167.044 Y117.26 E3.95139
G1 X166.971 Y117.825 E3.97034
G1 X166.731 Y118.915 E4.00746
G1 X166.178 Y121.603 E4.09874
G1 X165.707 Y124.277 E4.18904
G1 X165.308 Y126.989 E4.28022
G1 X164.935 Y130.21 E4.38806
G1 X164.896 Y130.606 E4.4013
G1 X164.806 Y131.103 E4.4181
G1 X164.64 Y131.581 E4.43493
G1 X164.401 Y132.026 E4.45173
G1 X164.094 Y132.428 E4.46855
G1 X163.728 Y132.777 E4.48537
G1 X163.311 Y133.063 E4.50219
G1 X162.655 Y133.35 E4.526
G1 X160.328 Y134.068 E4.607
G1 X157.73 Y134.946 E4.69821
G1 X155.825 Y135.655 E4.76582
G1 X155.74 Y135.679 E4.76876
G1 X154.514 Y136.137 E4.81229
G1 X154.021 Y136.289 E4.82944
G1 X152.918 Y136.515 E4.86689
G1 X151.747 Y136.577 E4.90589
G1 X150.846 Y136.527 E4.93591
G1 X147.701 Y136.011 E5.04191
G1 X144.957 Y135.643 E5.13399
G1 X142.294 Y135.363 E5.22305
G1 X139.507 Y135.149 E5.31602
G1 X136.796 Y135.018 E5.40629
G1 X134.076 Y134.963 E5.49678
G1 X131.323 Y134.986 E5.58835
G1 X127.048 Y135.162 E5.73066
G1 X126.31 Y135.157 E5.7552
G1 X124.888 Y135.091 E5.80255
G1 X124.173 Y135.049 E5.82637
G1 X121.452 Y134.963 E5.91692
G1 X118.7 Y134.954 E6.00845
G1 X115.948 Y135.023 E6.10001
G1 X113.233 Y135.168 E6.19044
G1 X110.527 Y135.39 E6.28075
G1 X107.749 Y135.698 E6.37371
G1 X105.066 Y136.071 E6.4638
G1 X103.102 Y136.378 E6.52992
G1 X102.54 Y136.412 E6.54865
G1 X101.512 Y136.412 E6.58284
G1 X100.541 Y136.293 E6.61537
G1 X99.717 Y136.086 E6.64363
G1 X98.997 Y135.882 E6.66852
G1 X96.941 Y135.27 E6.73987
G1 X94.283 Y134.561 E6.83137
G1 X91.615 Y133.929 E6.92256
G1 X90.536 Y133.71 E6.95918
G1 X89.192 Y133.42 E7.00491
G1 X88.708 Y133.275 E7.02172
G1 X88.253 Y133.055 E7.03852
G1 X87.838 Y132.766 E7.05534
G1 X87.473 Y132.416 E7.07216
G1 X87.052 Y131.814 E7.0966
G1 X85.672 Y129.26 E7.19315
G1 X84.286 Y126.866 E7.28516
G1 X82.852 Y124.54 E7.37604
G1 X81.574 Y122.573 E7.45406
G1 X81.319 Y122.133 E7.47097
G1 X80.914 Y121.26 E7.50298
G1 X80.663 Y120.42 E7.53214
G1 X80.484 Y119.567 E7.56113
G1 X80.429 Y118.518 E7.59607
G1 X80.519 Y117.566 E7.62787
G1 X80.919 Y114.765 E7.72198
G1 X81.238 Y112.016 E7.81403
G1 X81.479 Y109.268 E7.90578
G1 X81.637 Y106.589 E7.99503
G1 X81.722 Y103.806 E8.08764
G1 X81.729 Y101.086 E8.17811
G1 X81.658 Y98.355 E8.26897
G1 X81.522 Y95.959 E8.34879
G1 X81.524 Y95.854 E8.35228
G1 X81.428 Y94.32 E8.40341
G1 X81.512 Y93.358 E8.43552
G1 X81.78 Y92.187 E8.47548
G1 X82.191 Y91.177 E8.51175
G1 X82.627 Y90.219 E8.54675
G1 X83.732 Y87.699 E8.63827
G1 X84.756 Y85.17 E8.72902
G1 X85.719 Y82.587 E8.82071
G1 X86.597 Y80.008 E8.91132
G1 X86.826 Y79.31 E8.93575
G1 X87.022 Y78.844 E8.95257
G1 X87.288 Y78.414 E8.96939
G1 X87.618 Y78.032 E8.98618
G1 F2100 E8.18618
;MESH:K??rperLaserTest.stl
G0 F3600 X161.62 Y84.912
M104 S200
;TYPE:WALL-OUTER
G1 F2100 E8.98618
G1 F2117.6 X161.62 Y80.4 E9.11374
G1 X154.902 Y80.404 E9.30366
G1 X154.458 Y80.812 E9.32071
G1 X153.938 Y81.264 E9.34019
G1 X153.477 Y81.635 E9.35692
G1 X153.026 Y81.971 E9.37282
G1 X152.577 Y82.277 E9.38818
G1 X151.96 Y82.656 E9.40865
G1 X151.471 Y82.912 E9.42425
G1 X150.625 Y83.263 E9.45015
G1 X149.992 Y83.437 E9.46871
G1 X149.193 Y83.579 E9.49165
G1 X148.405 Y83.6 E9.51393
G1 X147.418 Y83.487 E9.54202
G1 X146.437 Y83.16 E9.57125
G1 X145.737 Y82.832 E9.59311
G1 X144.985 Y82.391 E9.61775
G1 X144.278 Y81.906 E9.64199
G1 X143.579 Y81.38 E9.66672
G1 X142.2 Y80.283 E9.71654
G1 X141.511 Y79.753 E9.74112
G1 X140.85 Y79.284 E9.76403
G1 X140.149 Y78.849 E9.78735
G1 X139.228 Y78.385 E9.81651
G1 X138.342 Y78.124 E9.84262
G1 X137.459 Y77.991 E9.86787
G1 X136.814 Y78.006 E9.88611
G1 X136.011 Y78.1 E9.90896
G1 X135.307 Y78.248 E9.9293
G1 X134.288 Y78.59 E9.95969
G1 X133.378 Y78.968 E9.98755
G1 X132.446 Y79.403 E10.01662
G1 X130.007 Y80.612 E10.09358
G1 X128.978 Y81.102 E10.1258
G1 X128.454 Y81.336 E10.14203
G1 X127.923 Y81.56 E10.15832
G1 X127.384 Y81.772 E10.1747
G1 X126.85 Y81.969 E10.19079
G1 X126.296 Y82.153 E10.20729
G1 X125.742 Y82.318 E10.22363
G1 X125.17 Y82.464 E10.24032
G1 X124.635 Y82.582 E10.25581
G1 X124.051 Y82.685 E10.27258
G1 X123.479 Y82.762 E10.28889
G1 X122.905 Y82.814 E10.30519
G1 X122.326 Y82.84 E10.32157
G1 X121.746 Y82.84 E10.33797
G1 X121.193 Y82.818 E10.35362
G1 X120.576 Y82.766 E10.37112
G1 X120.018 Y82.698 E10.38701
G1 X119.398 Y82.597 E10.40477
G1 X118.852 Y82.488 E10.42051
G1 X118.222 Y82.339 E10.43882
G1 X117.632 Y82.179 E10.4561
G1 X117.058 Y82.006 E10.47305
G1 X116.456 Y81.805 E10.49099
G1 X115.869 Y81.593 E10.50863
G1 X115.283 Y81.366 E10.5264
G1 X114.113 Y80.874 E10.56228
G1 X112.967 Y80.355 E10.59785
G1 X109.599 Y78.751 E10.70331
G1 X108.519 Y78.259 E10.73686
G1 X107.985 Y78.031 E10.75328
G1 X106.942 Y77.615 E10.78503
G1 X106.43 Y77.433 E10.80039
G1 X105.925 Y77.267 E10.81542
G1 X105.426 Y77.121 E10.83011
G1 X104.678 Y76.928 E10.85195
G1 X103.795 Y76.779 E10.87727
G1 X102.733 Y76.704 E10.90737
G1 X101.72 Y76.78 E10.93609
G1 X100.881 Y76.959 E10.96034
G1 X100.07 Y77.24 E10.98461
G1 X99.289 Y77.633 E11.00932
G1 X98.533 Y78.143 E11.03511
G1 X97.992 Y78.582 E11.0548
G1 X97.627 Y78.934 E11.06914
G1 X97.111 Y79.504 E11.09088
G1 X96.777 Y79.918 E11.10591
G1 X96.424 Y80.4 E11.1228
G1 X89.959 Y80.4 E11.30558
G1 X89.959 Y87.614 E11.50952
G1 X89.404 Y88.026 E11.52907
G1 X88.918 Y88.403 E11.54645
G1 X88.459 Y88.774 E11.56314
G1 X88.027 Y89.141 E11.57917
G1 X87.609 Y89.516 E11.59504
G1 X87.044 Y90.057 E11.61716
G1 X86.404 Y90.747 E11.64376
G1 X85.732 Y91.589 E11.67422
G1 X85.236 Y92.435 E11.70194
G1 X84.931 Y93.191 E11.72499
G1 X84.784 Y93.782 E11.74221
G1 X84.72 Y94.28 E11.7564
G1 X84.783 Y95.074 E11.77892
G1 X85.012 Y95.768 E11.79958
G1 X85.276 Y96.297 E11.8163
G1 X85.695 Y96.935 E11.83787
G1 X86.265 Y97.578 E11.86217
G1 X86.772 Y98.073 E11.8822
G1 X87.329 Y98.561 E11.90313
G1 X87.924 Y99.04 E11.92473
G1 X88.54 Y99.514 E11.9467
G1 X89.79 Y100.453 E11.9909
G1 X90.396 Y100.921 E12.01255
G1 X90.97 Y101.388 E12.03347
G1 X91.509 Y101.865 E12.05382
G1 X91.989 Y102.347 E12.07305
G1 X92.397 Y102.828 E12.09088
G1 X92.792 Y103.411 E12.11079
G1 X92.982 Y103.833 E12.12387
G1 X93.15 Y104.37 E12.13978
G1 X93.224 Y105.042 E12.15889
G1 X93.208 Y105.295 E12.16606
G1 X93.052 Y105.976 E12.18581
G1 X92.816 Y106.564 E12.20372
G1 X92.501 Y107.141 E12.22231
G1 X92.105 Y107.727 E12.2423
G1 X91.637 Y108.321 E12.26368
G1 X91.265 Y108.753 E12.2798
G1 X90.52 Y109.54 E12.31044
G1 X89.896 Y110.161 E12.33533
G1 X87.91 Y112.063 E12.41307
G1 X87.253 Y112.706 E12.43906
G1 X86.619 Y113.352 E12.46465
G1 X86.022 Y114 E12.48956
G1 X85.474 Y114.648 E12.51355
G1 X84.984 Y115.296 E12.53652
G1 X84.567 Y115.941 E12.55823
G1 X84.226 Y116.583 E12.57878
G1 X83.966 Y117.235 E12.59862
G1 X83.776 Y117.948 E12.61949
G1 X83.708 Y118.793 E12.64345
G1 X83.805 Y119.416 E12.66128
G1 X83.982 Y120.037 E12.67953
G1 X84.207 Y120.575 E12.69602
G1 X84.712 Y121.367 E12.72257
G1 X85.153 Y121.88 E12.7417
G1 X85.638 Y122.389 E12.76158
G1 X86.298 Y122.964 E12.78632
G1 X86.912 Y123.425 E12.80803
G1 X87.33 Y123.717 E12.82244
G1 X87.788 Y124.017 E12.83792
G1 X88.272 Y124.314 E12.85398
G1 X88.789 Y124.615 E12.87089
G1 X89.334 Y124.914 E12.88846
G1 X89.959 Y125.239 E12.90838
G1 X89.959 Y130.2 E13.04863
G1 X96.24 Y130.203 E13.2262
G1 X97.198 Y131.026 E13.26191
G1 X97.951 Y131.595 E13.28859
G1 X98.685 Y132.075 E13.31339
G1 X99.286 Y132.405 E13.33277
G1 X99.757 Y132.626 E13.34748
G1 X100.251 Y132.813 E13.36241
G1 X101.133 Y133.042 E13.38817
G1 X101.585 Y133.114 E13.40111
G1 X102.434 Y133.128 E13.42512
G1 X102.853 Y133.084 E13.43703
G1 X103.695 Y132.89 E13.46146
G1 X104.491 Y132.581 E13.4856
G1 X105.286 Y132.157 E13.51107
G1 X106.065 Y131.646 E13.53741
G1 X106.839 Y131.073 E13.56463
G1 X108.391 Y129.861 E13.6203
G1 X109.177 Y129.287 E13.64782
G1 X109.988 Y128.767 E13.67506
G1 X110.82 Y128.339 E13.70151
G1 X111.687 Y128.023 E13.7276
G1 X112.568 Y127.854 E13.75296
G1 X113.018 Y127.806 E13.76575
G1 X114.088 Y127.835 E13.79601
G1 X114.777 Y127.954 E13.81578
G1 X115.44 Y128.126 E13.83514
G1 X115.947 Y128.285 E13.85017
G1 X116.463 Y128.469 E13.86565
G1 X116.987 Y128.675 E13.88157
G1 X118.067 Y129.141 E13.91482
G1 X119.724 Y129.904 E13.9664
G1 X120.862 Y130.415 E14.00167
G1 X121.441 Y130.658 E14.01942
G1 X122.021 Y130.887 E14.03705
G1 X122.618 Y131.104 E14.055
G1 X123.19 Y131.289 E14.072
G1 X123.781 Y131.458 E14.08938
G1 X124.381 Y131.606 E14.10685
G1 X124.961 Y131.719 E14.12355
G1 X125.553 Y131.804 E14.14046
G1 X126.146 Y131.856 E14.15729
G1 X126.738 Y131.874 E14.17404
G1 X127.323 Y131.859 E14.19058
G1 X127.916 Y131.812 E14.2074
G1 X128.499 Y131.735 E14.22402
G1 X129.084 Y131.627 E14.24084
G1 X129.667 Y131.492 E14.25776
G1 X130.247 Y131.332 E14.27477
G1 X130.821 Y131.151 E14.29178
G1 X131.395 Y130.947 E14.30901
G1 X131.963 Y130.728 E14.32622
G1 X132.527 Y130.496 E14.34346
G1 X135.271 Y129.29 E14.4282
G1 X135.82 Y129.06 E14.44502
G1 X136.331 Y128.859 E14.46055
G1 X136.852 Y128.67 E14.47622
G1 X137.365 Y128.502 E14.49148
G1 X137.877 Y128.36 E14.5065
G1 X138.635 Y128.198 E14.52841
G1 X139.369 Y128.117 E14.54929
G1 X140.346 Y128.118 E14.57691
G1 X141.407 Y128.266 E14.6072
G1 X142.207 Y128.521 E14.63093
G1 X143.065 Y128.855 E14.65696
G1 X143.99 Y129.369 E14.68688
G1 X144.427 Y129.633 E14.70131
G1 X145.289 Y130.198 E14.73045
G1 X146.99 Y131.372 E14.78888
G1 X147.894 Y131.969 E14.81951
G1 X148.674 Y132.398 E14.84468
G1 X149.519 Y132.794 E14.87106
G1 X150.359 Y133.08 E14.89615
G1 X150.776 Y133.178 E14.90826
G1 X151.642 Y133.287 E14.93293
G1 X152.495 Y133.234 E14.95709
G1 X152.928 Y133.157 E14.96953
G1 X153.817 Y132.885 E14.99581
G1 X154.56 Y132.559 E15.01875
G1 X155.394 Y132.049 E15.04639
G1 X156.171 Y131.453 E15.07407
G1 X156.759 Y130.928 E15.09636
G1 X157.5 Y130.2 E15.12572
G1 X161.62 Y130.2 E15.2422
G1 X161.616 Y125.357 E15.37912
G1 X160.684 Y124.687 E15.41157
G1 X160.095 Y124.188 E15.43339
G1 X159.724 Y123.832 E15.44793
G1 X159.282 Y123.319 E15.46707
G1 X158.934 Y122.776 E15.48531
G1 X158.77 Y122.254 E15.50077
G1 X158.766 Y121.784 E15.51406
G1 X158.852 Y121.459 E15.52357
G1 X159.172 Y120.951 E15.54054
G1 X159.688 Y120.451 E15.56085
G1 X160.387 Y119.984 E15.58462
G1 X161.798 Y119.157 E15.63086
G1 X162.429 Y118.751 E15.65207
G1 X163.016 Y118.29 E15.67317
G1 X163.466 Y117.778 E15.69244
G1 X163.685 Y117.37 E15.70553
G1 X163.778 Y116.773 E15.72261
G1 X163.695 Y116.103 E15.7417
G1 X163.439 Y115.454 E15.76142
G1 X163.04 Y114.717 E15.78512
G1 X162.576 Y114.025 E15.80867
G1 X161.577 Y112.628 E15.85723
G1 X160.923 Y111.686 E15.88965
G1 X160.616 Y111.208 E15.90571
G1 X160.332 Y110.727 E15.9215
G1 X159.961 Y110.018 E15.94412
G1 X159.589 Y109.031 E15.97394
G1 X159.46 Y108.099 E16.00054
G1 X159.465 Y107.642 E16.01346
G1 X159.587 Y106.972 E16.03271
G1 X159.763 Y106.447 E16.04837
G1 X160.16 Y105.721 E16.07176
G1 X160.649 Y105.052 E16.09519
G1 X161.147 Y104.522 E16.11575
G1 X161.525 Y104.155 E16.13064
G1 X161.913 Y103.8 E16.14551
G1 X163.29 Y102.6 E16.19715
G1 X163.923 Y102.001 E16.22179
G1 X164.432 Y101.401 E16.24403
G1 X164.688 Y100.85 E16.26121
G1 X164.75 Y100.572 E16.26926
G1 X164.75 Y100.276 E16.27763
G1 X164.583 Y99.716 E16.29415
G1 X164.325 Y99.297 E16.30806
G1 X163.79 Y98.706 E16.3306
G1 X163.117 Y98.112 E16.35598
G1 X161.53 Y96.845 E16.41339
G1 X160.79 Y96.204 E16.44106
G1 X160.236 Y95.632 E16.46358
G1 X159.75 Y94.953 E16.48718
G1 X159.575 Y94.529 E16.50015
G1 X159.498 Y94.199 E16.50973
G1 X159.483 Y93.863 E16.51924
G1 X159.532 Y93.52 E16.52904
G1 X159.644 Y93.184 E16.53905
G1 X159.934 Y92.681 E16.55546
G1 X160.3 Y92.202 E16.57251
G1 X160.859 Y91.666 E16.5944
G1 X161.416 Y91.226 E16.61447
G1 X161.823 Y90.927 E16.62874
G1 X162.288 Y90.605 E16.64474
G1 X164.089 Y89.42 E16.70568
G1 X164.752 Y88.964 E16.72843
G1 X165.444 Y88.418 E16.75335
G1 X165.92 Y87.93 E16.77263
G1 X166.21 Y87.449 E16.7885
G1 X166.269 Y87.228 E16.79497
G1 X166.262 Y87.022 E16.8008
G1 X166.131 Y86.701 E16.8106
G1 X165.797 Y86.354 E16.82422
G1 X165.25 Y86.003 E16.84259
G1 X164.719 Y85.778 E16.85889
G1 X163.939 Y85.489 E16.88241
G1 X162.882 Y85.201 E16.91338
G1 X161.62 Y84.912 E16.94998
;TIME_ELAPSED:22.427476
;LAYER:1
M106 S255
;MESH:K??rperLaserTest.stl
G0 F5400 X161.62 Y84.912 Z0.35
;TYPE:WALL-OUTER
G1 F2470.6 X161.62 Y80.4 E17.04565
G1 X154.902 Y80.404 E17.1881
G1 X154.458 Y80.812 E17.20088
G1 X153.938 Y81.264 E17.21549
G1 X153.477 Y81.635 E17.22804
G1 X153.026 Y81.971 E17.23996
G1 X152.577 Y82.277 E17.25149
G1 X151.96 Y82.656 E17.26684
G1 X151.471 Y82.912 E17.27854
G1 X150.594 Y83.276 E17.29868
G1 X149.619 Y83.514 E17.31996
G1 X149.168 Y83.574 E17.3296
G1 X148.368 Y83.598 E17.34657
G1 X147.415 Y83.486 E17.36692
G1 X146.437 Y83.16 E17.38878
G1 X145.737 Y82.832 E17.40517
G1 X144.985 Y82.391 E17.42365
G1 X144.278 Y81.906 E17.44183
G1 X143.579 Y81.38 E17.46038
G1 X142.2 Y80.283 E17.49774
G1 X141.511 Y79.753 E17.51617
G1 X140.85 Y79.284 E17.53336
G1 X140.149 Y78.849 E17.55085
G1 X139.228 Y78.385 E17.57272
G1 X138.342 Y78.124 E17.5923
G1 X137.459 Y77.991 E17.61124
G1 X136.814 Y78.006 E17.62492
G1 X136.011 Y78.1 E17.64206
G1 X135.318 Y78.244 E17.65707
G1 X134.288 Y78.59 E17.68011
G1 X133.378 Y78.968 E17.701
G1 X132.489 Y79.382 E17.72179
G1 X130.007 Y80.612 E17.78053
G1 X128.978 Y81.102 E17.80469
G1 X128.454 Y81.336 E17.81686
G1 X127.923 Y81.56 E17.82908
G1 X127.384 Y81.772 E17.84136
G1 X126.85 Y81.969 E17.85343
G1 X126.296 Y82.153 E17.86581
G1 X125.742 Y82.317 E17.87806
G1 X125.17 Y82.464 E17.89058
G1 X124.635 Y82.582 E17.9022
G1 X124.051 Y82.685 E17.91477
G1 X123.458 Y82.764 E17.92746
G1 X122.905 Y82.814 E17.93923
G1 X122.326 Y82.84 E17.95152
G1 X121.746 Y82.84 E17.96382
G1 X121.161 Y82.815 E17.97623
G1 X120.576 Y82.766 E17.98868
G1 X120.018 Y82.698 E18.0006
G1 X119.429 Y82.603 E18.01325
G1 X118.852 Y82.488 E18.02572
G1 X118.221 Y82.339 E18.03947
G1 X117.66 Y82.188 E18.05179
G1 X117.057 Y82.006 E18.06514
G1 X116.456 Y81.805 E18.07858
G1 X115.869 Y81.593 E18.09181
G1 X115.283 Y81.366 E18.10514
G1 X114.113 Y80.874 E18.13205
G1 X112.967 Y80.355 E18.15873
G1 X109.599 Y78.751 E18.23782
G1 X108.519 Y78.259 E18.26299
G1 X107.985 Y78.031 E18.2753
G1 X106.942 Y77.615 E18.29911
G1 X106.43 Y77.433 E18.31063
G1 X105.925 Y77.267 E18.3219
G1 X105.426 Y77.121 E18.33292
G1 X104.678 Y76.928 E18.3493
G1 X103.795 Y76.779 E18.36829
G1 X102.733 Y76.704 E18.39087
G1 X101.72 Y76.78 E18.41241
G1 X100.881 Y76.959 E18.4306
G1 X100.07 Y77.24 E18.44879
G1 X99.289 Y77.633 E18.46733
G1 X98.533 Y78.143 E18.48667
G1 X97.992 Y78.582 E18.50144
G1 X97.627 Y78.934 E18.51219
G1 X97.111 Y79.504 E18.5285
G1 X96.777 Y79.918 E18.53977
G1 X96.424 Y80.4 E18.55244
G1 X89.959 Y80.4 E18.68952
G1 X89.959 Y87.614 E18.84248
G1 X89.404 Y88.026 E18.85714
G1 X88.918 Y88.403 E18.87018
G1 X88.459 Y88.774 E18.88269
G1 X88.027 Y89.141 E18.89471
G1 X87.621 Y89.504 E18.90626
G1 X87.049 Y90.052 E18.92306
G1 X86.402 Y90.749 E18.94322
G1 X85.729 Y91.595 E18.96614
G1 X85.236 Y92.435 E18.98679
G1 X84.931 Y93.191 E19.00408
G1 X84.784 Y93.782 E19.01699
G1 X84.72 Y94.28 E19.02764
G1 X84.783 Y95.074 E19.04453
G1 X85.012 Y95.768 E19.06002
G1 X85.276 Y96.297 E19.07256
G1 X85.695 Y96.935 E19.08874
G1 X86.265 Y97.578 E19.10696
G1 X86.772 Y98.073 E19.12199
G1 X87.329 Y98.561 E19.13769
G1 X87.924 Y99.04 E19.15388
G1 X88.54 Y99.514 E19.17036
G1 X89.79 Y100.453 E19.20351
G1 X90.396 Y100.921 E19.21975
G1 X90.97 Y101.388 E19.23544
G1 X91.509 Y101.865 E19.2507
G1 X91.989 Y102.347 E19.26512
G1 X92.397 Y102.828 E19.2785
G1 X92.792 Y103.411 E19.29343
G1 X92.982 Y103.833 E19.30324
G1 X93.18 Y104.462 E19.31722
G1 X93.215 Y105.167 E19.33219
G1 X93.132 Y105.713 E19.3439
G1 X92.922 Y106.364 E19.3584
G1 X92.667 Y106.857 E19.37017
G1 X92.226 Y107.573 E19.388
G1 X91.637 Y108.321 E19.40819
G1 X91.265 Y108.753 E19.42028
G1 X90.52 Y109.54 E19.44326
G1 X89.896 Y110.161 E19.46192
G1 X87.91 Y112.063 E19.52023
G1 X87.253 Y112.706 E19.53972
G1 X86.619 Y113.352 E19.55891
G1 X86.022 Y114 E19.57759
G1 X85.474 Y114.648 E19.59559
G1 X84.984 Y115.296 E19.61281
G1 X84.567 Y115.941 E19.6291
G1 X84.226 Y116.583 E19.64451
G1 X83.925 Y117.334 E19.66167
G1 X83.734 Y118.174 E19.67993
G1 X83.731 Y118.94 E19.69618
G1 X83.805 Y119.416 E19.70639
G1 X83.982 Y120.037 E19.72008
G1 X84.207 Y120.575 E19.73245
G1 X84.712 Y121.368 E19.75238
G1 X85.153 Y121.88 E19.76671
G1 X85.638 Y122.388 E19.7816
G1 X86.293 Y122.96 E19.80004
G1 X86.898 Y123.415 E19.81609
G1 X87.33 Y123.717 E19.82727
G1 X87.788 Y124.017 E19.83888
G1 X88.272 Y124.314 E19.85092
G1 X88.789 Y124.615 E19.8636
G1 X89.334 Y124.914 E19.87678
G1 X89.959 Y125.239 E19.89172
G1 X89.959 Y130.2 E19.99691
G1 X96.24 Y130.203 E20.13009
G1 X97.198 Y131.026 E20.15686
G1 X97.951 Y131.595 E20.17688
G1 X98.685 Y132.076 E20.19548
G1 X99.286 Y132.405 E20.21001
G1 X99.757 Y132.626 E20.22104
G1 X100.452 Y132.886 E20.23678
G1 X101.127 Y133.041 E20.25146
G1 X102.005 Y133.13 E20.27017
G1 X102.854 Y133.084 E20.2882
G1 X103.695 Y132.89 E20.3065
G1 X104.491 Y132.581 E20.32461
G1 X105.286 Y132.157 E20.34371
G1 X106.065 Y131.646 E20.36346
G1 X106.839 Y131.073 E20.38388
G1 X108.391 Y129.861 E20.42564
G1 X109.177 Y129.287 E20.44627
G1 X109.988 Y128.767 E20.4667
G1 X110.82 Y128.339 E20.48654
G1 X111.687 Y128.023 E20.50611
G1 X112.568 Y127.854 E20.52513
G1 X113.018 Y127.806 E20.53472
G1 X114.088 Y127.835 E20.55742
G1 X114.777 Y127.954 E20.57224
G1 X115.44 Y128.126 E20.58677
G1 X115.947 Y128.285 E20.59803
G1 X116.463 Y128.469 E20.60965
G1 X116.987 Y128.675 E20.62159
G1 X118.067 Y129.141 E20.64653
G1 X119.724 Y129.904 E20.68521
G1 X120.862 Y130.415 E20.71166
G1 X121.441 Y130.658 E20.72497
G1 X122.021 Y130.887 E20.73819
G1 X122.618 Y131.104 E20.75166
G1 X123.19 Y131.289 E20.76441
G1 X123.781 Y131.458 E20.77744
G1 X124.381 Y131.606 E20.79055
G1 X124.961 Y131.719 E20.80307
G1 X125.553 Y131.804 E20.81576
G1 X126.146 Y131.856 E20.82838
G1 X126.738 Y131.874 E20.84094
G1 X127.323 Y131.859 E20.85334
G1 X127.916 Y131.812 E20.86596
G1 X128.499 Y131.735 E20.87843
G1 X129.084 Y131.627 E20.89104
G1 X129.667 Y131.492 E20.90373
G1 X130.247 Y131.332 E20.91649
G1 X130.821 Y131.151 E20.92925
G1 X131.395 Y130.947 E20.94216
G1 X131.963 Y130.728 E20.95507
G1 X132.527 Y130.496 E20.968
G1 X135.271 Y129.29 E21.03156
G1 X135.82 Y129.06 E21.04418
G1 X136.331 Y128.859 E21.05582
G1 X136.852 Y128.67 E21.06757
G1 X137.365 Y128.502 E21.07902
G1 X137.877 Y128.36 E21.09028
G1 X138.635 Y128.198 E21.10672
G1 X139.369 Y128.117 E21.12237
G1 X140.346 Y128.118 E21.14309
G1 X141.289 Y128.252 E21.16329
G1 X142.194 Y128.518 E21.18329
G1 X142.785 Y128.738 E21.19666
G1 X143.315 Y128.994 E21.20914
G1 X143.99 Y129.369 E21.22551
G1 X144.427 Y129.633 E21.23634
G1 X145.289 Y130.198 E21.25819
G1 X146.99 Y131.372 E21.30201
G1 X147.894 Y131.969 E21.32498
G1 X148.674 Y132.398 E21.34386
G1 X149.519 Y132.794 E21.36364
G1 X150.359 Y133.08 E21.38246
G1 X150.776 Y133.178 E21.39154
G1 X151.642 Y133.287 E21.41005
G1 X152.495 Y133.234 E21.42817
G1 X152.928 Y133.157 E21.4375
G1 X153.817 Y132.885 E21.45721
G1 X154.563 Y132.557 E21.47449
G1 X155.4 Y132.046 E21.49528
G1 X156.171 Y131.452 E21.51592
G1 X156.759 Y130.928 E21.53262
G1 X157.5 Y130.2 E21.55464
G1 X161.62 Y130.2 E21.642
G1 X161.616 Y125.357 E21.74469
G1 X160.684 Y124.687 E21.76903
G1 X160.095 Y124.188 E21.78539
G1 X159.724 Y123.832 E21.7963
G1 X159.282 Y123.319 E21.81065
G1 X158.934 Y122.776 E21.82433
G1 X158.77 Y122.254 E21.83593
G1 X158.752 Y121.978 E21.8418
G1 X158.823 Y121.553 E21.85093
G1 X158.968 Y121.245 E21.85815
G1 X159.171 Y120.95 E21.86574
G1 X159.689 Y120.45 E21.88101
G1 X160.387 Y119.984 E21.8988
G1 X161.798 Y119.157 E21.93348
G1 X162.429 Y118.751 E21.94939
G1 X163.016 Y118.29 E21.96522
G1 X163.466 Y117.778 E21.97967
G1 X163.672 Y117.403 E21.98874
G1 X163.79 Y116.794 E22.00189
G1 X163.769 Y116.512 E22.00789
G1 X163.659 Y116.001 E22.01897
G1 X163.456 Y115.478 E22.03087
G1 X163.008 Y114.666 E22.05053
G1 X162.576 Y114.025 E22.06692
G1 X161.577 Y112.628 E22.10334
G1 X160.923 Y111.686 E22.12765
G1 X160.616 Y111.208 E22.1397
G1 X160.332 Y110.727 E22.15154
G1 X159.96 Y110.017 E22.16854
G1 X159.635 Y109.152 E22.18813
G1 X159.486 Y108.344 E22.20555
G1 X159.461 Y107.689 E22.21945
G1 X159.523 Y107.214 E22.22961
G1 X159.729 Y106.555 E22.24425
G1 X160.058 Y105.893 E22.25992
G1 X160.51 Y105.2 E22.27747
G1 X161.147 Y104.522 E22.29719
G1 X161.525 Y104.155 E22.30836
G1 X161.913 Y103.8 E22.31951
G1 X163.29 Y102.6 E22.35824
G1 X163.923 Y102 E22.37673
G1 X164.394 Y101.447 E22.39214
G1 X164.694 Y100.839 E22.40651
G1 X164.753 Y100.572 E22.41231
G1 X164.759 Y100.299 E22.4181
G1 X164.589 Y99.728 E22.43073
G1 X164.325 Y99.297 E22.44145
G1 X163.79 Y98.706 E22.45835
G1 X163.117 Y98.112 E22.47738
G1 X161.53 Y96.845 E22.52044
G1 X160.79 Y96.204 E22.5412
G1 X160.236 Y95.632 E22.55808
G1 X159.75 Y94.953 E22.57579
G1 X159.575 Y94.529 E22.58552
G1 X159.498 Y94.199 E22.5927
G1 X159.483 Y93.863 E22.59983
G1 X159.532 Y93.52 E22.60718
G1 X159.644 Y93.184 E22.61469
G1 X159.934 Y92.681 E22.627
G1 X160.3 Y92.202 E22.63978
G1 X160.859 Y91.666 E22.6562
G1 X161.416 Y91.226 E22.67125
G1 X161.823 Y90.927 E22.68196
G1 X162.288 Y90.605 E22.69395
G1 X164.089 Y89.42 E22.73967
G1 X164.752 Y88.964 E22.75673
G1 X165.444 Y88.418 E22.77542
G1 X165.92 Y87.93 E22.78987
G1 X166.247 Y87.352 E22.80395
G1 X166.265 Y87.021 E22.81098
G1 X166.131 Y86.701 E22.81834
G1 X165.797 Y86.354 E22.82855
G1 X165.25 Y86.003 E22.84233
G1 X164.719 Y85.778 E22.85456
G1 X163.939 Y85.489 E22.8722
G1 X162.882 Y85.201 E22.89542
G1 X161.62 Y84.912 E22.92288
;TIME_ELAPSED:29.621575
;LAYER:2
;MESH:K??rperLaserTest.stl
G0 F7200 X161.62 Y84.912 Z0.5
;TYPE:WALL-OUTER
G1 F2823.5 X161.62 Y80.4 E23.01855
G1 X154.902 Y80.404 E23.16099
G1 X154.458 Y80.812 E23.17377
G1 X153.938 Y81.264 E23.18838
G1 X153.477 Y81.635 E23.20093
G1 X153.026 Y81.971 E23.21286
G1 X152.577 Y82.277 E23.22438
G1 X151.96 Y82.656 E23.23973
G1 X151.471 Y82.912 E23.25143
G1 X150.594 Y83.276 E23.27157
G1 X149.619 Y83.514 E23.29285
G1 X149.168 Y83.574 E23.30249
G1 X148.368 Y83.598 E23.31946
G1 X147.415 Y83.486 E23.33981
G1 X146.437 Y83.16 E23.36167
G1 X145.737 Y82.832 E23.37806
G1 X144.985 Y82.391 E23.39654
G1 X144.278 Y81.906 E23.41472
G1 X143.579 Y81.38 E23.43327
G1 X142.2 Y80.283 E23.47063
G1 X141.511 Y79.753 E23.48907
G1 X140.85 Y79.284 E23.50625
G1 X140.149 Y78.849 E23.52374
G1 X139.228 Y78.385 E23.54561
G1 X138.342 Y78.124 E23.56519
G1 X137.459 Y77.991 E23.58413
G1 X136.814 Y78.006 E23.59781
G1 X136.011 Y78.101 E23.61495
G1 X135.308 Y78.247 E23.63018
G1 X134.288 Y78.59 E23.65299
G1 X133.378 Y78.968 E23.67389
G1 X132.446 Y79.403 E23.6957
G1 X130.007 Y80.612 E23.75342
G1 X128.978 Y81.102 E23.77758
G1 X128.454 Y81.336 E23.78975
G1 X127.923 Y81.56 E23.80197
G1 X127.384 Y81.772 E23.81425
G1 X126.85 Y81.969 E23.82632
G1 X126.296 Y82.153 E23.8387
G1 X125.742 Y82.317 E23.85095
G1 X125.17 Y82.464 E23.86347
G1 X124.635 Y82.582 E23.87509
G1 X124.051 Y82.685 E23.88766
G1 X123.479 Y82.762 E23.8999
G1 X122.905 Y82.814 E23.91212
G1 X122.326 Y82.84 E23.92441
G1 X121.746 Y82.84 E23.9367
G1 X121.161 Y82.815 E23.94912
G1 X120.576 Y82.766 E23.96157
G1 X120.018 Y82.698 E23.97349
G1 X119.398 Y82.597 E23.98681
G1 X118.852 Y82.488 E23.99861
G1 X118.222 Y82.339 E24.01234
G1 X117.632 Y82.179 E24.0253
G1 X117.058 Y82.006 E24.03801
G1 X116.456 Y81.805 E24.05147
G1 X115.869 Y81.593 E24.0647
G1 X115.283 Y81.366 E24.07803
G1 X114.113 Y80.874 E24.10494
G1 X112.967 Y80.355 E24.13161
G1 X109.599 Y78.751 E24.21071
G1 X108.519 Y78.259 E24.23587
G1 X107.985 Y78.031 E24.24819
G1 X106.942 Y77.615 E24.272
G1 X106.43 Y77.433 E24.28352
G1 X105.925 Y77.267 E24.29479
G1 X105.426 Y77.121 E24.30581
G1 X104.678 Y76.928 E24.32219
G1 X103.795 Y76.779 E24.34118
G1 X102.733 Y76.704 E24.36375
G1 X101.72 Y76.78 E24.38529
G1 X100.881 Y76.959 E24.40348
G1 X100.07 Y77.24 E24.42168
G1 X99.289 Y77.633 E24.44022
G1 X98.533 Y78.143 E24.45956
G1 X97.992 Y78.582 E24.47433
G1 X97.627 Y78.934 E24.48508
G1 X97.111 Y79.504 E24.50138
G1 X96.777 Y79.918 E24.51266
G1 X96.424 Y80.4 E24.52533
G1 X89.959 Y80.4 E24.66241
G1 X89.959 Y87.614 E24.81537
G1 X89.404 Y88.026 E24.83003
G1 X88.918 Y88.403 E24.84307
G1 X88.459 Y88.774 E24.85558
G1 X88.027 Y89.141 E24.8676
G1 X87.621 Y89.504 E24.87915
G1 X87.049 Y90.052 E24.89594
G1 X86.402 Y90.749 E24.91611
G1 X85.729 Y91.595 E24.93903
G1 X85.236 Y92.435 E24.95968
G1 X84.931 Y93.191 E24.97697
G1 X84.784 Y93.782 E24.98988
G1 X84.72 Y94.28 E25.00053
G1 X84.783 Y95.074 E25.01741
G1 X85.012 Y95.768 E25.03291
G1 X85.276 Y96.297 E25.04545
G1 X85.695 Y96.935 E25.06163
G1 X86.265 Y97.578 E25.07985
G1 X86.772 Y98.073 E25.09487
G1 X87.329 Y98.561 E25.11057
G1 X87.924 Y99.04 E25.12677
G1 X88.54 Y99.514 E25.14325
G1 X89.79 Y100.453 E25.1764
G1 X90.396 Y100.921 E25.19264
G1 X90.97 Y101.388 E25.20833
G1 X91.509 Y101.865 E25.22359
G1 X91.989 Y102.347 E25.23801
G1 X92.397 Y102.828 E25.25138
G1 X92.792 Y103.411 E25.26632
G1 X92.982 Y103.833 E25.27613
G1 X93.15 Y104.37 E25.28806
G1 X93.228 Y105.092 E25.30346
G1 X93.132 Y105.713 E25.31678
G1 X92.922 Y106.364 E25.33128
G1 X92.667 Y106.857 E25.34305
G1 X92.226 Y107.573 E25.36088
G1 X91.637 Y108.321 E25.38107
G1 X91.265 Y108.753 E25.39316
G1 X90.52 Y109.54 E25.41614
G1 X89.896 Y110.161 E25.4348
G1 X87.91 Y112.063 E25.49311
G1 X87.253 Y112.706 E25.5126
G1 X86.619 Y113.352 E25.53179
G1 X86.022 Y114 E25.55047
G1 X85.474 Y114.648 E25.56847
G1 X84.984 Y115.296 E25.58569
G1 X84.567 Y115.941 E25.60198
G1 X84.226 Y116.583 E25.61739
G1 X83.966 Y117.235 E25.63228
G1 X83.776 Y117.948 E25.64792
G1 X83.708 Y118.801 E25.66607
G1 X83.805 Y119.416 E25.67927
G1 X83.982 Y120.037 E25.69296
G1 X84.207 Y120.575 E25.70532
G1 X84.712 Y121.368 E25.72526
G1 X85.153 Y121.88 E25.73959
G1 X85.638 Y122.388 E25.75448
G1 X86.293 Y122.96 E25.77292
G1 X86.898 Y123.415 E25.78897
G1 X87.33 Y123.717 E25.80014
G1 X87.788 Y124.017 E25.81175
G1 X88.272 Y124.314 E25.82379
G1 X88.789 Y124.615 E25.83648
G1 X89.334 Y124.914 E25.84966
G1 X89.959 Y125.239 E25.8646
G1 X89.959 Y130.2 E25.96979
G1 X96.24 Y130.203 E26.10296
G1 X97.198 Y131.026 E26.12974
G1 X97.951 Y131.595 E26.14975
G1 X98.685 Y132.075 E26.16835
G1 X99.286 Y132.405 E26.18289
G1 X99.757 Y132.626 E26.19392
G1 X100.452 Y132.886 E26.20965
G1 X101.127 Y133.041 E26.22434
G1 X102.005 Y133.13 E26.24305
G1 X102.854 Y133.084 E26.26108
G1 X103.695 Y132.89 E26.27938
G1 X104.491 Y132.581 E26.29748
G1 X105.286 Y132.157 E26.31659
G1 X106.065 Y131.646 E26.33634
G1 X106.839 Y131.073 E26.35676
G1 X108.391 Y129.861 E26.39851
G1 X109.177 Y129.287 E26.41915
G1 X109.988 Y128.767 E26.43958
G1 X110.82 Y128.339 E26.45942
G1 X111.687 Y128.023 E26.47898
G1 X112.568 Y127.854 E26.498
G1 X113.018 Y127.806 E26.5076
G1 X114.088 Y127.835 E26.53029
G1 X114.777 Y127.954 E26.54512
G1 X115.44 Y128.126 E26.55964
G1 X115.947 Y128.285 E26.57091
G1 X116.463 Y128.469 E26.58253
G1 X116.987 Y128.675 E26.59446
G1 X118.067 Y129.141 E26.6194
G1 X119.724 Y129.904 E26.65808
G1 X120.862 Y130.415 E26.68453
G1 X121.441 Y130.658 E26.69785
G1 X122.021 Y130.887 E26.71107
G1 X122.618 Y131.104 E26.72454
G1 X123.19 Y131.289 E26.73729
G1 X123.781 Y131.458 E26.75032
G1 X124.381 Y131.606 E26.76342
G1 X124.961 Y131.719 E26.77595
G1 X125.553 Y131.804 E26.78863
G1 X126.146 Y131.856 E26.80125
G1 X126.738 Y131.874 E26.81381
G1 X127.323 Y131.859 E26.82622
G1 X127.916 Y131.812 E26.83883
G1 X128.499 Y131.735 E26.8513
G1 X129.084 Y131.627 E26.86392
G1 X129.667 Y131.492 E26.8766
G1 X130.247 Y131.332 E26.88936
G1 X130.821 Y131.151 E26.90212
G1 X131.395 Y130.947 E26.91504
G1 X131.963 Y130.728 E26.92795
G1 X132.527 Y130.496 E26.94088
G1 X135.271 Y129.29 E27.00443
G1 X135.82 Y129.06 E27.01705
G1 X136.331 Y128.859 E27.0287
G1 X136.852 Y128.67 E27.04045
G1 X137.365 Y128.502 E27.05189
G1 X137.877 Y128.36 E27.06316
G1 X138.635 Y128.198 E27.07959
G1 X139.369 Y128.117 E27.09525
G1 X140.346 Y128.118 E27.11597
G1 X141.289 Y128.252 E27.13616
G1 X142.194 Y128.518 E27.15616
G1 X142.785 Y128.738 E27.16953
G1 X143.315 Y128.994 E27.18201
G1 X143.99 Y129.369 E27.19839
G1 X144.427 Y129.633 E27.20921
G1 X145.289 Y130.198 E27.23107
G1 X146.99 Y131.372 E27.27489
G1 X147.894 Y131.969 E27.29786
G1 X148.674 Y132.398 E27.31673
G1 X149.519 Y132.794 E27.33652
G1 X150.359 Y133.08 E27.35534
G1 X150.776 Y133.178 E27.36442
G1 X151.642 Y133.287 E27.38293
G1 X152.495 Y133.234 E27.40105
G1 X152.928 Y133.157 E27.41037
G1 X153.817 Y132.885 E27.43008
G1 X154.563 Y132.557 E27.44736
G1 X155.392 Y132.05 E27.46797
G1 X156.17 Y131.453 E27.48876
G1 X156.759 Y130.928 E27.50549
G1 X157.5 Y130.2 E27.52752
G1 X161.62 Y130.2 E27.61487
G1 X161.616 Y125.357 E27.71756
G1 X160.684 Y124.687 E27.7419
G1 X160.095 Y124.188 E27.75827
G1 X159.724 Y123.832 E27.76917
G1 X159.282 Y123.319 E27.78353
G1 X158.934 Y122.776 E27.7972
G1 X158.77 Y122.254 E27.8088
G1 X158.749 Y121.967 E27.81491
G1 X158.837 Y121.508 E27.82482
G1 X159.167 Y120.954 E27.83849
G1 X159.689 Y120.45 E27.85387
G1 X160.387 Y119.984 E27.87167
G1 X161.798 Y119.157 E27.90635
G1 X162.429 Y118.751 E27.92226
G1 X163.016 Y118.29 E27.93808
G1 X163.466 Y117.778 E27.95254
G1 X163.672 Y117.403 E27.96161
G1 X163.79 Y116.794 E27.97476
G1 X163.769 Y116.512 E27.98076
G1 X163.659 Y116.001 E27.99184
G1 X163.456 Y115.478 E28.00374
G1 X163.008 Y114.666 E28.0234
G1 X162.576 Y114.025 E28.03979
G1 X161.577 Y112.628 E28.0762
G1 X160.923 Y111.686 E28.10052
G1 X160.616 Y111.208 E28.11257
G1 X160.332 Y110.727 E28.12441
G1 X160.08 Y110.246 E28.13592
G1 X159.746 Y109.5 E28.15325
G1 X159.562 Y108.806 E28.16848
G1 X159.459 Y108.099 E28.18363
G1 X159.465 Y107.64 E28.19336
G1 X159.521 Y107.221 E28.20232
G1 X159.729 Y106.555 E28.21712
G1 X160.058 Y105.893 E28.23279
G1 X160.51 Y105.2 E28.25033
G1 X161.147 Y104.522 E28.27006
G1 X161.525 Y104.155 E28.28123
G1 X161.913 Y103.8 E28.29238
G1 X163.29 Y102.6 E28.33111
G1 X163.923 Y102.001 E28.34959
G1 X164.432 Y101.401 E28.36627
G1 X164.688 Y100.85 E28.37915
G1 X164.75 Y100.572 E28.38519
G1 X164.75 Y100.276 E28.39147
G1 X164.583 Y99.716 E28.40386
G1 X164.325 Y99.297 E28.41429
G1 X163.79 Y98.706 E28.4312
G1 X163.117 Y98.112 E28.45023
G1 X161.53 Y96.845 E28.49329
G1 X160.79 Y96.204 E28.51405
G1 X160.236 Y95.632 E28.53093
G1 X159.75 Y94.953 E28.54863
G1 X159.575 Y94.529 E28.55836
G1 X159.498 Y94.199 E28.56555
G1 X159.483 Y93.863 E28.57268
G1 X159.532 Y93.52 E28.58002
G1 X159.644 Y93.184 E28.58753
G1 X159.934 Y92.681 E28.59984
G1 X160.3 Y92.202 E28.61263
G1 X160.859 Y91.666 E28.62905
G1 X161.416 Y91.226 E28.6441
G1 X161.823 Y90.927 E28.65481
G1 X162.288 Y90.605 E28.6668
G1 X164.089 Y89.42 E28.71251
G1 X164.752 Y88.964 E28.72957
G1 X165.444 Y88.418 E28.74826
G1 X165.92 Y87.93 E28.76272
G1 X166.21 Y87.449 E28.77463
G1 X166.269 Y87.228 E28.77948
G1 X166.262 Y87.022 E28.78385
G1 X166.131 Y86.701 E28.7912
G1 X165.797 Y86.354 E28.80141
G1 X165.25 Y86.003 E28.81519
G1 X164.719 Y85.778 E28.82742
G1 X163.939 Y85.489 E28.84506
G1 X162.882 Y85.201 E28.86828
G1 X161.62 Y84.912 E28.89574
;MESH:NONMESH
G0 F600 X161.62 Y84.912 Z0.65
G0 F7200 X161.62 Y84.916
;TIME_ELAPSED:36.078836
;LAYER:3
;TYPE:WALL-OUTER
;MESH:K??rperLaserTest.stl
G1 F2823.5 X161.62 Y80.4 E28.99149
G1 X154.902 Y80.404 E29.13393
G1 X154.458 Y80.812 E29.14672
G1 X153.938 Y81.264 E29.16133
G1 X153.477 Y81.635 E29.17388
G1 X153.026 Y81.971 E29.1858
G1 X152.577 Y82.277 E29.19732
G1 X151.96 Y82.656 E29.21267
G1 X151.471 Y82.912 E29.22438
G1 X150.594 Y83.276 E29.24451
G1 X149.619 Y83.514 E29.26579
G1 X149.168 Y83.574 E29.27544
G1 X148.368 Y83.598 E29.29241
G1 X147.415 Y83.486 E29.31275
G1 X146.437 Y83.16 E29.33461
G1 X145.737 Y82.832 E29.351
G1 X144.985 Y82.391 E29.36949
G1 X144.278 Y81.906 E29.38767
G1 X143.579 Y81.38 E29.40622
G1 X142.2 Y80.283 E29.44358
G1 X141.511 Y79.753 E29.46201
G1 X140.85 Y79.284 E29.4792
G1 X140.149 Y78.849 E29.49669
G1 X139.228 Y78.385 E29.51855
G1 X138.342 Y78.124 E29.53814
G1 X137.459 Y77.991 E29.55707
G1 X136.814 Y78.006 E29.57075
G1 X136.011 Y78.101 E29.5879
G1 X135.308 Y78.247 E29.60312
G1 X134.288 Y78.59 E29.62594
G1 X133.378 Y78.968 E29.64683
G1 X132.446 Y79.403 E29.66864
G1 X130.007 Y80.612 E29.72636
G1 X128.978 Y81.102 E29.75053
G1 X128.454 Y81.336 E29.76269
G1 X127.923 Y81.56 E29.77491
G1 X127.384 Y81.772 E29.78719
G1 X126.85 Y81.969 E29.79926
G1 X126.296 Y82.153 E29.81164
G1 X125.742 Y82.317 E29.82389
G1 X125.17 Y82.464 E29.83641
G1 X124.635 Y82.582 E29.84803
G1 X124.051 Y82.685 E29.8606
G1 X123.479 Y82.762 E29.87284
G1 X122.905 Y82.814 E29.88506
G1 X122.326 Y82.84 E29.89735
G1 X121.746 Y82.84 E29.90965
G1 X121.161 Y82.815 E29.92206
G1 X120.576 Y82.766 E29.93451
G1 X120.018 Y82.698 E29.94643
G1 X119.398 Y82.597 E29.95975
G1 X118.852 Y82.488 E29.97156
G1 X118.222 Y82.339 E29.98528
G1 X117.632 Y82.179 E29.99824
G1 X117.058 Y82.006 E30.01096
G1 X116.456 Y81.805 E30.02441
G1 X115.869 Y81.593 E30.03765
G1 X115.283 Y81.366 E30.05097
G1 X114.113 Y80.874 E30.07788
G1 X112.967 Y80.355 E30.10456
G1 X109.599 Y78.751 E30.18366
G1 X108.519 Y78.259 E30.20882
G1 X107.985 Y78.031 E30.22113
G1 X106.942 Y77.615 E30.24494
G1 X106.43 Y77.433 E30.25646
G1 X105.925 Y77.267 E30.26773
G1 X105.426 Y77.121 E30.27876
G1 X104.678 Y76.928 E30.29514
G1 X103.795 Y76.779 E30.31412
G1 X102.733 Y76.704 E30.3367
G1 X101.72 Y76.78 E30.35824
G1 X100.881 Y76.959 E30.37643
G1 X100.07 Y77.24 E30.39463
G1 X99.289 Y77.633 E30.41316
G1 X98.533 Y78.143 E30.4325
G1 X97.992 Y78.582 E30.44727
G1 X97.627 Y78.934 E30.45802
G1 X97.111 Y79.504 E30.47433
G1 X96.777 Y79.918 E30.48561
G1 X96.424 Y80.4 E30.49827
G1 X89.959 Y80.4 E30.63535
G1 X89.959 Y87.614 E30.78831
G1 X89.404 Y88.026 E30.80297
G1 X88.918 Y88.403 E30.81601
G1 X88.459 Y88.774 E30.82853
G1 X88.027 Y89.141 E30.84054
G1 X87.621 Y89.504 E30.85209
G1 X87.049 Y90.052 E30.86889
G1 X86.402 Y90.749 E30.88905
G1 X85.729 Y91.595 E30.91197
G1 X85.236 Y92.435 E30.93263
G1 X84.931 Y93.191 E30.94991
G1 X84.784 Y93.782 E30.96282
G1 X84.72 Y94.28 E30.97347
G1 X84.783 Y95.074 E30.99036
G1 X85.012 Y95.768 E31.00585
G1 X85.276 Y96.297 E31.01839
G1 X85.695 Y96.935 E31.03457
G1 X86.265 Y97.578 E31.05279
G1 X86.772 Y98.073 E31.06782
G1 X87.329 Y98.561 E31.08352
G1 X87.924 Y99.04 E31.09972
G1 X88.54 Y99.514 E31.1162
G1 X89.79 Y100.453 E31.14935
G1 X90.396 Y100.921 E31.16558
G1 X90.97 Y101.388 E31.18127
G1 X91.509 Y101.865 E31.19653
G1 X91.989 Y102.347 E31.21096
G1 X92.397 Y102.828 E31.22433
G1 X92.792 Y103.411 E31.23926
G1 X92.982 Y103.833 E31.24907
G1 X93.15 Y104.37 E31.261
G1 X93.228 Y105.092 E31.2764
G1 X93.132 Y105.713 E31.28973
G1 X92.922 Y106.364 E31.30423
G1 X92.667 Y106.857 E31.316
G1 X92.226 Y107.573 E31.33383
G1 X91.637 Y108.321 E31.35402
G1 X91.265 Y108.753 E31.3661
G1 X90.52 Y109.54 E31.38908
G1 X89.896 Y110.161 E31.40775
G1 X87.91 Y112.063 E31.46605
G1 X87.253 Y112.706 E31.48555
G1 X86.619 Y113.352 E31.50474
G1 X86.022 Y114 E31.52342
G1 X85.474 Y114.648 E31.54141
G1 X84.984 Y115.296 E31.55864
G1 X84.567 Y115.941 E31.57493
G1 X84.226 Y116.583 E31.59034
G1 X83.966 Y117.235 E31.60522
G1 X83.776 Y117.948 E31.62087
G1 X83.708 Y118.801 E31.63901
G1 X83.805 Y119.416 E31.65221
G1 X83.982 Y120.037 E31.6659
G1 X84.207 Y120.575 E31.67827
G1 X84.712 Y121.368 E31.6982
G1 X85.153 Y121.88 E31.71253
G1 X85.638 Y122.388 E31.72742
G1 X86.293 Y122.96 E31.74586
G1 X86.898 Y123.415 E31.76191
G1 X87.33 Y123.717 E31.77309
G1 X87.788 Y124.017 E31.7847
G1 X88.272 Y124.314 E31.79674
G1 X88.789 Y124.615 E31.80942
G1 X89.334 Y124.914 E31.8226
G1 X89.959 Y125.239 E31.83754
G1 X89.959 Y130.2 E31.94273
G1 X96.24 Y130.203 E32.07591
G1 X97.198 Y131.026 E32.10269
G1 X97.95 Y131.595 E32.12268
G1 X98.685 Y132.075 E32.1413
G1 X99.286 Y132.405 E32.15583
G1 X99.757 Y132.626 E32.16687
G1 X100.452 Y132.886 E32.1826
G1 X101.127 Y133.041 E32.19728
G1 X102.005 Y133.13 E32.216
G1 X102.854 Y133.084 E32.23402
G1 X103.695 Y132.89 E32.25232
G1 X104.491 Y132.581 E32.27043
G1 X105.286 Y132.157 E32.28953
G1 X106.065 Y131.646 E32.30929
G1 X106.839 Y131.073 E32.32971
G1 X108.391 Y129.861 E32.37146
G1 X109.177 Y129.287 E32.3921
G1 X109.988 Y128.767 E32.41252
G1 X110.82 Y128.339 E32.43236
G1 X111.687 Y128.023 E32.45193
G1 X112.568 Y127.854 E32.47095
G1 X113.018 Y127.806 E32.48054
G1 X114.088 Y127.835 E32.50324
G1 X114.777 Y127.954 E32.51807
G1 X115.44 Y128.126 E32.53259
G1 X115.947 Y128.285 E32.54386
G1 X116.463 Y128.469 E32.55547
G1 X116.987 Y128.675 E32.56741
G1 X118.067 Y129.141 E32.59235
G1 X119.724 Y129.904 E32.63103
G1 X120.862 Y130.415 E32.65748
G1 X121.441 Y130.658 E32.67079
G1 X122.021 Y130.887 E32.68402
G1 X122.618 Y131.104 E32.69748
G1 X123.19 Y131.289 E32.71023
G1 X123.781 Y131.458 E32.72326
G1 X124.381 Y131.606 E32.73637
G1 X124.961 Y131.719 E32.7489
G1 X125.553 Y131.804 E32.76158
G1 X126.146 Y131.856 E32.7742
G1 X126.738 Y131.874 E32.78676
G1 X127.323 Y131.859 E32.79917
G1 X127.916 Y131.812 E32.81178
G1 X128.499 Y131.735 E32.82425
G1 X129.084 Y131.627 E32.83686
G1 X129.667 Y131.492 E32.84955
G1 X130.247 Y131.332 E32.86231
G1 X130.821 Y131.151 E32.87507
G1 X131.395 Y130.947 E32.88799
G1 X131.963 Y130.728 E32.90089
G1 X132.527 Y130.496 E32.91382
G1 X135.271 Y129.29 E32.97738
G1 X135.82 Y129.06 E32.99
G1 X136.331 Y128.859 E33.00164
G1 X136.852 Y128.67 E33.01339
G1 X137.365 Y128.502 E33.02484
G1 X137.877 Y128.36 E33.0361
G1 X138.635 Y128.198 E33.05254
G1 X139.369 Y128.117 E33.0682
G1 X140.346 Y128.118 E33.08891
G1 X141.289 Y128.252 E33.10911
G1 X142.194 Y128.518 E33.12911
G1 X142.785 Y128.738 E33.14248
G1 X143.315 Y128.994 E33.15496
G1 X143.99 Y129.369 E33.17133
G1 X144.427 Y129.633 E33.18216
G1 X145.289 Y130.198 E33.20401
G1 X146.99 Y131.372 E33.24784
G1 X147.894 Y131.969 E33.27081
G1 X148.674 Y132.398 E33.28968
G1 X149.519 Y132.794 E33.30947
G1 X150.359 Y133.08 E33.32828
G1 X150.776 Y133.178 E33.33736
G1 X151.642 Y133.287 E33.35587
G1 X152.495 Y133.234 E33.37399
G1 X152.928 Y133.157 E33.38332
G1 X153.817 Y132.885 E33.40303
G1 X154.563 Y132.557 E33.42031
G1 X155.392 Y132.05 E33.44091
G1 X156.17 Y131.453 E33.46171
G1 X156.759 Y130.928 E33.47844
G1 X157.5 Y130.2 E33.50046
G1 X161.62 Y130.2 E33.58782
G1 X161.616 Y125.357 E33.69051
G1 X160.684 Y124.687 E33.71485
G1 X160.095 Y124.188 E33.73121
G1 X159.724 Y123.832 E33.74212
G1 X159.282 Y123.319 E33.75647
G1 X158.934 Y122.776 E33.77015
G1 X158.77 Y122.254 E33.78175
G1 X158.749 Y121.967 E33.78785
G1 X158.837 Y121.508 E33.79776
G1 X159.167 Y120.954 E33.81143
G1 X159.689 Y120.45 E33.82682
G1 X160.387 Y119.984 E33.84461
G1 X161.798 Y119.157 E33.87929
G1 X162.429 Y118.751 E33.8952
G1 X163.016 Y118.29 E33.91103
G1 X163.477 Y117.763 E33.92587
G1 X163.686 Y117.362 E33.93546
G1 X163.754 Y117.121 E33.94077
G1 X163.79 Y116.616 E33.95151
G1 X163.659 Y116.002 E33.96482
G1 X163.456 Y115.478 E33.97673
G1 X163.008 Y114.666 E33.9964
G1 X162.576 Y114.025 E34.01279
G1 X161.577 Y112.628 E34.0492
G1 X160.923 Y111.686 E34.07352
G1 X160.616 Y111.208 E34.08556
G1 X160.332 Y110.727 E34.09741
G1 X159.961 Y110.018 E34.11437
G1 X159.589 Y109.031 E34.13674
G1 X159.46 Y108.099 E34.15669
G1 X159.465 Y107.641 E34.1664
G1 X159.529 Y107.188 E34.1761
G1 X159.729 Y106.555 E34.19018
G1 X160.058 Y105.893 E34.20585
G1 X160.51 Y105.2 E34.22339
G1 X161.147 Y104.522 E34.24312
G1 X161.525 Y104.155 E34.25429
G1 X161.913 Y103.8 E34.26544
G1 X163.29 Y102.6 E34.30417
G1 X163.923 Y102.001 E34.32265
G1 X164.432 Y101.401 E34.33933
G1 X164.688 Y100.85 E34.35221
G1 X164.75 Y100.572 E34.35825
G1 X164.75 Y100.276 E34.36453
G1 X164.583 Y99.716 E34.37692
G1 X164.325 Y99.297 E34.38735
G1 X163.79 Y98.706 E34.40426
G1 X163.117 Y98.112 E34.42329
G1 X161.53 Y96.845 E34.46635
G1 X160.79 Y96.204 E34.48711
G1 X160.236 Y95.632 E34.50399
G1 X159.75 Y94.953 E34.5217
G1 X159.575 Y94.529 E34.53142
G1 X159.498 Y94.199 E34.53861
G1 X159.483 Y93.863 E34.54574
G1 X159.532 Y93.52 E34.55308
G1 X159.644 Y93.184 E34.56059
G1 X159.934 Y92.681 E34.57291
G1 X160.3 Y92.202 E34.58569
G1 X160.859 Y91.666 E34.60211
G1 X161.416 Y91.226 E34.61716
G1 X161.823 Y90.927 E34.62787
G1 X162.288 Y90.605 E34.63986
G1 X164.089 Y89.42 E34.68557
G1 X164.752 Y88.964 E34.70263
G1 X165.444 Y88.418 E34.72132
G1 X165.92 Y87.93 E34.73578
G1 X166.21 Y87.449 E34.74769
G1 X166.269 Y87.228 E34.75254
G1 X166.262 Y87.022 E34.75691
G1 X166.131 Y86.701 E34.76426
G1 X165.797 Y86.354 E34.77447
G1 X165.25 Y86.003 E34.78825
G1 X164.719 Y85.778 E34.80048
G1 X164.19 Y85.582 E34.81244
G1 X163.427 Y85.344 E34.82939
G1 X162.511 Y85.112 E34.84942
G1 X161.62 Y84.916 E34.86877
;MESH:NONMESH
G0 F600 X161.62 Y84.916 Z0.8
G0 F7200 X161.62 Y84.912
;TIME_ELAPSED:42.496614
;LAYER:4
;TYPE:WALL-OUTER
;MESH:K??rperLaserTest.stl
G1 F2823.5 X161.62 Y80.4 E34.96444
G1 X154.902 Y80.404 E35.10688
G1 X154.458 Y80.812 E35.11967
G1 X153.938 Y81.264 E35.13428
G1 X153.477 Y81.635 E35.14682
G1 X153.026 Y81.971 E35.15875
G1 X152.577 Y82.277 E35.17027
G1 X151.96 Y82.656 E35.18562
G1 X151.471 Y82.912 E35.19732
G1 X150.594 Y83.276 E35.21746
G1 X149.619 Y83.514 E35.23874
G1 X149.168 Y83.574 E35.24839
G1 X148.368 Y83.598 E35.26536
G1 X147.415 Y83.486 E35.2857
G1 X146.437 Y83.16 E35.30756
G1 X145.737 Y82.832 E35.32395
G1 X144.985 Y82.391 E35.34244
G1 X144.278 Y81.906 E35.36061
G1 X143.579 Y81.38 E35.37916
G1 X142.2 Y80.283 E35.41653
G1 X141.511 Y79.753 E35.43496
G1 X140.85 Y79.284 E35.45214
G1 X140.149 Y78.849 E35.46963
G1 X139.228 Y78.385 E35.4915
G1 X138.342 Y78.124 E35.51109
G1 X137.459 Y77.991 E35.53002
G1 X136.814 Y78.006 E35.5437
G1 X136.011 Y78.101 E35.56084
G1 X135.308 Y78.247 E35.57607
G1 X134.288 Y78.59 E35.59889
G1 X133.378 Y78.968 E35.61978
G1 X132.446 Y79.403 E35.64159
G1 X130.007 Y80.612 E35.69931
G1 X128.978 Y81.102 E35.72347
G1 X128.454 Y81.336 E35.73564
G1 X127.923 Y81.56 E35.74786
G1 X127.384 Y81.772 E35.76014
G1 X126.85 Y81.969 E35.77221
G1 X126.296 Y82.153 E35.78459
G1 X125.742 Y82.317 E35.79684
G1 X125.17 Y82.464 E35.80936
G1 X124.635 Y82.582 E35.82098
G1 X124.051 Y82.685 E35.83355
G1 X123.479 Y82.762 E35.84579
G1 X122.905 Y82.814 E35.85801
G1 X122.326 Y82.84 E35.8703
G1 X121.746 Y82.84 E35.8826
G1 X121.161 Y82.815 E35.89501
G1 X120.576 Y82.766 E35.90746
G1 X120.018 Y82.698 E35.91938
G1 X119.398 Y82.597 E35.9327
G1 X118.852 Y82.488 E35.9445
G1 X118.222 Y82.339 E35.95823
G1 X117.632 Y82.179 E35.97119
G1 X117.058 Y82.006 E35.9839
G1 X116.456 Y81.805 E35.99736
G1 X115.869 Y81.593 E36.01059
G1 X115.283 Y81.366 E36.02392
G1 X114.113 Y80.874 E36.05083
G1 X112.967 Y80.355 E36.0775
G1 X109.599 Y78.751 E36.1566
G1 X108.519 Y78.259 E36.18177
G1 X107.985 Y78.031 E36.19408
G1 X106.942 Y77.615 E36.21789
G1 X106.43 Y77.433 E36.22941
G1 X105.925 Y77.267 E36.24068
G1 X105.426 Y77.121 E36.2517
G1 X104.678 Y76.928 E36.26808
G1 X103.795 Y76.779 E36.28707
G1 X102.733 Y76.704 E36.30964
G1 X101.72 Y76.78 E36.33118
G1 X100.881 Y76.959 E36.34937
G1 X100.07 Y77.24 E36.36757
G1 X99.289 Y77.633 E36.38611
G1 X98.533 Y78.143 E36.40545
G1 X97.992 Y78.582 E36.42022
G1 X97.627 Y78.934 E36.43097
G1 X97.111 Y79.504 E36.44727
G1 X96.777 Y79.918 E36.45855
G1 X96.424 Y80.4 E36.47122
G1 X89.959 Y80.4 E36.6083
G1 X89.959 Y87.614 E36.76126
G1 X89.404 Y88.026 E36.77592
G1 X88.918 Y88.403 E36.78896
G1 X88.459 Y88.774 E36.80147
G1 X88.027 Y89.141 E36.81349
G1 X87.621 Y89.504 E36.82504
G1 X87.049 Y90.052 E36.84184
G1 X86.402 Y90.749 E36.862
G1 X85.729 Y91.595 E36.88492
G1 X85.236 Y92.435 E36.90557
G1 X84.931 Y93.191 E36.92286
G1 X84.784 Y93.782 E36.93577
G1 X84.72 Y94.28 E36.94642
G1 X84.783 Y95.074 E36.96331
G1 X85.012 Y95.768 E36.9788
G1 X85.276 Y96.297 E36.99134
G1 X85.695 Y96.935 E37.00752
G1 X86.265 Y97.578 E37.02574
G1 X86.772 Y98.073 E37.04076
G1 X87.329 Y98.561 E37.05647
G1 X87.924 Y99.04 E37.07266
G1 X88.54 Y99.514 E37.08914
G1 X89.79 Y100.453 E37.12229
G1 X90.396 Y100.921 E37.13853
G1 X90.97 Y101.388 E37.15422
G1 X91.509 Y101.865 E37.16948
G1 X91.989 Y102.347 E37.1839
G1 X92.397 Y102.828 E37.19728
G1 X92.792 Y103.411 E37.21221
G1 X92.982 Y103.833 E37.22202
G1 X93.15 Y104.37 E37.23395
G1 X93.228 Y105.092 E37.24935
G1 X93.132 Y105.713 E37.26267
G1 X92.922 Y106.364 E37.27718
G1 X92.667 Y106.857 E37.28894
G1 X92.226 Y107.573 E37.30677
G1 X91.637 Y108.321 E37.32696
G1 X91.265 Y108.753 E37.33905
G1 X90.52 Y109.54 E37.36203
G1 X89.896 Y110.161 E37.38069
G1 X87.91 Y112.063 E37.439
G1 X87.253 Y112.706 E37.45849
G1 X86.619 Y113.352 E37.47768
G1 X86.022 Y114 E37.49637
G1 X85.474 Y114.648 E37.51436
G1 X84.984 Y115.296 E37.53159
G1 X84.567 Y115.941 E37.54787
G1 X84.226 Y116.583 E37.56329
G1 X83.966 Y117.235 E37.57817
G1 X83.776 Y117.948 E37.59381
G1 X83.708 Y118.801 E37.61196
G1 X83.805 Y119.416 E37.62516
G1 X83.982 Y120.037 E37.63885
G1 X84.207 Y120.575 E37.65122
G1 X84.712 Y121.368 E37.67115
G1 X85.153 Y121.88 E37.68548
G1 X85.638 Y122.388 E37.70037
G1 X86.293 Y122.96 E37.71881
G1 X86.898 Y123.415 E37.73486
G1 X87.33 Y123.717 E37.74604
G1 X87.788 Y124.017 E37.75764
G1 X88.272 Y124.314 E37.76968
G1 X88.789 Y124.615 E37.78237
G1 X89.334 Y124.914 E37.79555
G1 X89.959 Y125.239 E37.81049
G1 X89.959 Y130.2 E37.91568
G1 X96.24 Y130.203 E38.04885
G1 X97.198 Y131.026 E38.07563
G1 X97.95 Y131.595 E38.09563
G1 X98.685 Y132.075 E38.11424
G1 X99.286 Y132.405 E38.12878
G1 X99.757 Y132.626 E38.13981
G1 X100.452 Y132.886 E38.15555
G1 X101.127 Y133.041 E38.17023
G1 X102.005 Y133.13 E38.18894
G1 X102.854 Y133.084 E38.20697
G1 X103.695 Y132.89 E38.22527
G1 X104.491 Y132.581 E38.24338
G1 X105.286 Y132.157 E38.26248
G1 X106.065 Y131.646 E38.28223
G1 X106.839 Y131.073 E38.30265
G1 X108.391 Y129.861 E38.34441
G1 X109.177 Y129.287 E38.36504
G1 X109.988 Y128.767 E38.38547
G1 X110.82 Y128.339 E38.40531
G1 X111.687 Y128.023 E38.42487
G1 X112.568 Y127.854 E38.4439
G1 X113.018 Y127.806 E38.45349
G1 X114.088 Y127.835 E38.47619
G1 X114.777 Y127.954 E38.49101
G1 X115.44 Y128.126 E38.50554
G1 X115.947 Y128.285 E38.5168
G1 X116.463 Y128.469 E38.52842
G1 X116.987 Y128.675 E38.54036
G1 X118.067 Y129.141 E38.5653
G1 X119.724 Y129.904 E38.60398
G1 X120.862 Y130.415 E38.63043
G1 X121.441 Y130.658 E38.64374
G1 X122.021 Y130.887 E38.65696
G1 X122.618 Y131.104 E38.67043
G1 X123.19 Y131.289 E38.68318
G1 X123.781 Y131.458 E38.69621
G1 X124.381 Y131.606 E38.70931
G1 X124.961 Y131.719 E38.72184
G1 X125.553 Y131.804 E38.73452
G1 X126.146 Y131.856 E38.74715
G1 X126.738 Y131.874 E38.7597
G1 X127.323 Y131.859 E38.77211
G1 X127.916 Y131.812 E38.78473
G1 X128.499 Y131.735 E38.79719
G1 X129.084 Y131.627 E38.80981
G1 X129.667 Y131.492 E38.8225
G1 X130.247 Y131.332 E38.83525
G1 X130.821 Y131.151 E38.84802
G1 X131.395 Y130.947 E38.86093
G1 X131.963 Y130.728 E38.87384
G1 X132.527 Y130.496 E38.88677
G1 X135.271 Y129.29 E38.95032
G1 X135.82 Y129.06 E38.96294
G1 X136.331 Y128.859 E38.97459
G1 X136.852 Y128.67 E38.98634
G1 X137.365 Y128.502 E38.99778
G1 X137.877 Y128.36 E39.00905
G1 X138.635 Y128.198 E39.02549
G1 X139.369 Y128.117 E39.04114
G1 X140.346 Y128.118 E39.06186
G1 X141.289 Y128.252 E39.08205
G1 X142.194 Y128.518 E39.10206
G1 X142.785 Y128.738 E39.11543
G1 X143.315 Y128.994 E39.12791
G1 X143.99 Y129.369 E39.14428
G1 X144.427 Y129.633 E39.1551
G1 X145.289 Y130.198 E39.17696
G1 X146.99 Y131.372 E39.22078
G1 X147.894 Y131.969 E39.24375
G1 X148.674 Y132.398 E39.26263
G1 X149.519 Y132.794 E39.28241
G1 X150.359 Y133.08 E39.30123
G1 X150.776 Y133.178 E39.31031
G1 X151.642 Y133.287 E39.32882
G1 X152.495 Y133.234 E39.34694
G1 X152.928 Y133.157 E39.35626
G1 X153.817 Y132.885 E39.37598
G1 X154.563 Y132.557 E39.39326
G1 X155.392 Y132.05 E39.41386
G1 X156.17 Y131.453 E39.43465
G1 X156.759 Y130.928 E39.45138
G1 X157.5 Y130.2 E39.47341
G1 X161.62 Y130.2 E39.56077
G1 X161.616 Y125.357 E39.66345
G1 X160.684 Y124.687 E39.68779
G1 X160.095 Y124.188 E39.70416
G1 X159.724 Y123.832 E39.71506
G1 X159.282 Y123.319 E39.72942
G1 X158.934 Y122.776 E39.7431
G1 X158.77 Y122.254 E39.7547
G1 X158.749 Y121.967 E39.7608
G1 X158.837 Y121.508 E39.77071
G1 X159.167 Y120.954 E39.78438
G1 X159.689 Y120.45 E39.79977
G1 X160.387 Y119.984 E39.81756
G1 X161.798 Y119.157 E39.85224
G1 X162.429 Y118.751 E39.86815
G1 X163.016 Y118.29 E39.88397
G1 X163.466 Y117.778 E39.89843
G1 X163.672 Y117.403 E39.9075
G1 X163.79 Y116.794 E39.92065
G1 X163.771 Y116.512 E39.92665
G1 X163.655 Y116.003 E39.93772
G1 X163.503 Y115.555 E39.94775
G1 X163.025 Y114.693 E39.96865
G1 X162.576 Y114.025 E39.98571
G1 X161.577 Y112.628 E40.02213
G1 X160.923 Y111.686 E40.04644
G1 X160.616 Y111.208 E40.05849
G1 X160.332 Y110.727 E40.07033
G1 X159.961 Y110.018 E40.0873
G1 X159.589 Y109.031 E40.10966
G1 X159.46 Y108.099 E40.12961
G1 X159.465 Y107.641 E40.13933
G1 X159.529 Y107.188 E40.14903
G1 X159.729 Y106.555 E40.1631
G1 X160.058 Y105.893 E40.17878
G1 X160.51 Y105.2 E40.19632
G1 X161.147 Y104.522 E40.21604
G1 X161.525 Y104.155 E40.22722
G1 X161.913 Y103.8 E40.23837
G1 X163.29 Y102.6 E40.27709
G1 X163.923 Y102.001 E40.29557
G1 X164.432 Y101.401 E40.31226
G1 X164.688 Y100.85 E40.32514
G1 X164.75 Y100.572 E40.33118
G1 X164.75 Y100.276 E40.33745
G1 X164.583 Y99.716 E40.34984
G1 X164.325 Y99.297 E40.36028
G1 X163.79 Y98.706 E40.37718
G1 X163.117 Y98.112 E40.39621
G1 X161.53 Y96.845 E40.43927
G1 X160.79 Y96.204 E40.46003
G1 X160.236 Y95.632 E40.47691
G1 X159.75 Y94.953 E40.49462
G1 X159.575 Y94.529 E40.50435
G1 X159.498 Y94.199 E40.51153
G1 X159.483 Y93.863 E40.51866
G1 X159.532 Y93.52 E40.52601
G1 X159.644 Y93.184 E40.53352
G1 X159.934 Y92.681 E40.54583
G1 X160.3 Y92.202 E40.55861
G1 X160.859 Y91.666 E40.57503
G1 X161.416 Y91.226 E40.59008
G1 X161.823 Y90.927 E40.60079
G1 X162.288 Y90.605 E40.61278
G1 X164.089 Y89.42 E40.6585
G1 X164.752 Y88.964 E40.67556
G1 X165.444 Y88.418 E40.69425
G1 X165.92 Y87.93 E40.7087
G1 X166.21 Y87.449 E40.72061
G1 X166.269 Y87.228 E40.72546
G1 X166.262 Y87.022 E40.72983
G1 X166.131 Y86.701 E40.73718
G1 X165.797 Y86.354 E40.74739
G1 X165.25 Y86.003 E40.76118
G1 X164.719 Y85.778 E40.7734
G1 X163.939 Y85.489 E40.79104
G1 X162.882 Y85.201 E40.81427
G1 X161.62 Y84.912 E40.84172
;TIME_ELAPSED:48.884100
;LAYER:5
;MESH:K??rperLaserTest.stl
G0 F7200 X161.62 Y84.912 Z0.95
;TYPE:WALL-OUTER
G1 F2823.5 X161.62 Y80.4 E40.93739
G1 X154.902 Y80.404 E41.07983
G1 X154.458 Y80.812 E41.09262
G1 X153.938 Y81.264 E41.10723
G1 X153.477 Y81.635 E41.11978
G1 X153.026 Y81.971 E41.1317
G1 X152.577 Y82.277 E41.14322
G1 X151.96 Y82.656 E41.15857
G1 X151.471 Y82.912 E41.17028
G1 X150.594 Y83.276 E41.19041
G1 X149.619 Y83.514 E41.21169
G1 X149.168 Y83.574 E41.22134
G1 X148.368 Y83.598 E41.23831
G1 X147.415 Y83.486 E41.25865
G1 X146.437 Y83.16 E41.28051
G1 X145.737 Y82.832 E41.2969
G1 X144.985 Y82.391 E41.31539
G1 X144.278 Y81.906 E41.33357
G1 X143.579 Y81.38 E41.35212
G1 X142.2 Y80.283 E41.38948
G1 X141.511 Y79.753 E41.40791
G1 X140.85 Y79.284 E41.4251
G1 X140.149 Y78.849 E41.44259
G1 X139.228 Y78.385 E41.46445
G1 X138.342 Y78.124 E41.48404
G1 X137.459 Y77.991 E41.50297
G1 X136.814 Y78.006 E41.51665
G1 X136.011 Y78.101 E41.5338
G1 X135.308 Y78.247 E41.54902
G1 X134.288 Y78.59 E41.57184
G1 X133.378 Y78.968 E41.59273
G1 X132.446 Y79.403 E41.61454
G1 X130.007 Y80.612 E41.67226
G1 X128.978 Y81.102 E41.69643
G1 X128.454 Y81.336 E41.70859
G1 X127.923 Y81.56 E41.72081
G1 X127.384 Y81.772 E41.73309
G1 X126.85 Y81.969 E41.74516
G1 X126.296 Y82.153 E41.75754
G1 X125.742 Y82.317 E41.76979
G1 X125.17 Y82.464 E41.78231
G1 X124.635 Y82.582 E41.79393
G1 X124.051 Y82.685 E41.8065
G1 X123.479 Y82.762 E41.81874
G1 X122.905 Y82.814 E41.83096
G1 X122.326 Y82.84 E41.84325
G1 X121.746 Y82.84 E41.85555
G1 X121.161 Y82.815 E41.86796
G1 X120.576 Y82.766 E41.88041
G1 X120.018 Y82.698 E41.89233
G1 X119.398 Y82.597 E41.90565
G1 X118.852 Y82.488 E41.91746
G1 X118.222 Y82.339 E41.93118
G1 X117.632 Y82.179 E41.94414
G1 X117.058 Y82.006 E41.95686
G1 X116.456 Y81.805 E41.97031
G1 X115.869 Y81.593 E41.98355
G1 X115.283 Y81.366 E41.99687
G1 X114.113 Y80.874 E42.02378
G1 X112.967 Y80.355 E42.05046
G1 X109.599 Y78.751 E42.12956
G1 X108.519 Y78.259 E42.15472
G1 X107.985 Y78.031 E42.16703
G1 X106.942 Y77.615 E42.19084
G1 X106.43 Y77.433 E42.20236
G1 X105.925 Y77.267 E42.21363
G1 X105.426 Y77.121 E42.22466
G1 X104.678 Y76.928 E42.24104
G1 X103.795 Y76.779 E42.26002
G1 X102.733 Y76.704 E42.2826
G1 X101.72 Y76.78 E42.30414
G1 X100.881 Y76.959 E42.32233
G1 X100.07 Y77.24 E42.34053
G1 X99.289 Y77.633 E42.35906
G1 X98.533 Y78.143 E42.3784
G1 X97.992 Y78.582 E42.39317
G1 X97.627 Y78.934 E42.40392
G1 X97.111 Y79.504 E42.42023
G1 X96.777 Y79.918 E42.43151
G1 X96.424 Y80.4 E42.44417
G1 X89.959 Y80.4 E42.58125
G1 X89.959 Y87.614 E42.73421
G1 X89.404 Y88.026 E42.74887
G1 X88.918 Y88.403 E42.76191
G1 X88.459 Y88.774 E42.77443
G1 X88.027 Y89.141 E42.78645
G1 X87.621 Y89.504 E42.79799
G1 X87.049 Y90.052 E42.81479
G1 X86.402 Y90.749 E42.83495
G1 X85.729 Y91.595 E42.85787
G1 X85.236 Y92.435 E42.87853
G1 X84.931 Y93.191 E42.89581
G1 X84.784 Y93.782 E42.90872
G1 X84.72 Y94.28 E42.91937
G1 X84.783 Y95.074 E42.93626
G1 X85.012 Y95.768 E42.95175
G1 X85.276 Y96.297 E42.96429
G1 X85.695 Y96.935 E42.98047
G1 X86.265 Y97.578 E42.99869
G1 X86.772 Y98.073 E43.01372
G1 X87.329 Y98.561 E43.02942
G1 X87.924 Y99.04 E43.04562
G1 X88.54 Y99.514 E43.0621
G1 X89.79 Y100.453 E43.09525
G1 X90.396 Y100.921 E43.11148
G1 X90.97 Y101.388 E43.12717
G1 X91.509 Y101.865 E43.14243
G1 X91.989 Y102.347 E43.15686
G1 X92.397 Y102.828 E43.17023
G1 X92.792 Y103.411 E43.18516
G1 X92.982 Y103.833 E43.19497
G1 X93.15 Y104.37 E43.2069
G1 X93.228 Y105.092 E43.2223
G1 X93.132 Y105.713 E43.23563
G1 X92.922 Y106.364 E43.25013
G1 X92.667 Y106.857 E43.2619
G1 X92.226 Y107.573 E43.27973
G1 X91.637 Y108.321 E43.29992
G1 X91.265 Y108.753 E43.312
G1 X90.52 Y109.54 E43.33498
G1 X89.896 Y110.161 E43.35365
G1 X87.91 Y112.063 E43.41195
G1 X87.253 Y112.706 E43.43145
G1 X86.619 Y113.352 E43.45064
G1 X86.022 Y114 E43.46932
G1 X85.474 Y114.648 E43.48731
G1 X84.984 Y115.296 E43.50454
G1 X84.567 Y115.941 E43.52083
G1 X84.226 Y116.583 E43.53624
G1 X83.966 Y117.235 E43.55112
G1 X83.776 Y117.948 E43.56677
G1 X83.708 Y118.801 E43.58491
G1 X83.805 Y119.416 E43.59811
G1 X83.982 Y120.037 E43.6118
G1 X84.207 Y120.575 E43.62417
G1 X84.712 Y121.368 E43.6441
G1 X85.153 Y121.88 E43.65843
G1 X85.638 Y122.388 E43.67332
G1 X86.293 Y122.96 E43.69176
G1 X86.898 Y123.415 E43.70781
G1 X87.33 Y123.717 E43.71899
G1 X87.788 Y124.017 E43.7306
G1 X88.272 Y124.314 E43.74264
G1 X88.789 Y124.615 E43.75532
G1 X89.334 Y124.914 E43.7685
G1 X89.959 Y125.239 E43.78344
G1 X89.959 Y130.2 E43.88863
G1 X96.24 Y130.203 E44.02181
G1 X97.198 Y131.026 E44.04859
G1 X97.95 Y131.595 E44.06858
G1 X98.685 Y132.075 E44.0872
G1 X99.286 Y132.405 E44.10173
G1 X99.757 Y132.626 E44.11277
G1 X100.452 Y132.886 E44.1285
G1 X101.127 Y133.041 E44.14318
G1 X102.005 Y133.13 E44.1619
G1 X102.854 Y133.084 E44.17992
G1 X103.695 Y132.89 E44.19822
G1 X104.491 Y132.581 E44.21633
G1 X105.286 Y132.157 E44.23543
G1 X106.065 Y131.646 E44.25519
G1 X106.839 Y131.073 E44.27561
G1 X108.391 Y129.861 E44.31736
G1 X109.177 Y129.287 E44.338
G1 X109.988 Y128.767 E44.35842
G1 X110.82 Y128.339 E44.37826
G1 X111.687 Y128.023 E44.39783
G1 X112.568 Y127.854 E44.41685
G1 X113.018 Y127.806 E44.42644
G1 X114.088 Y127.835 E44.44914
G1 X114.777 Y127.954 E44.46397
G1 X115.44 Y128.126 E44.47849
G1 X115.947 Y128.285 E44.48976
G1 X116.463 Y128.469 E44.50137
G1 X116.987 Y128.675 E44.51331
G1 X118.067 Y129.141 E44.53825
G1 X119.724 Y129.904 E44.57693
G1 X120.862 Y130.415 E44.60338
G1 X121.441 Y130.658 E44.61669
G1 X122.021 Y130.887 E44.62992
G1 X122.618 Y131.104 E44.64338
G1 X123.19 Y131.289 E44.65613
G1 X123.781 Y131.458 E44.66916
G1 X124.381 Y131.606 E44.68227
G1 X124.961 Y131.719 E44.6948
G1 X125.553 Y131.804 E44.70748
G1 X126.146 Y131.856 E44.7201
G1 X126.738 Y131.874 E44.73266
G1 X127.323 Y131.859 E44.74507
G1 X127.916 Y131.812 E44.75768
G1 X128.499 Y131.735 E44.77015
G1 X129.084 Y131.627 E44.78276
G1 X129.667 Y131.492 E44.79545
G1 X130.247 Y131.332 E44.80821
G1 X130.821 Y131.151 E44.82097
G1 X131.395 Y130.947 E44.83389
G1 X131.963 Y130.728 E44.84679
G1 X132.527 Y130.496 E44.85972
G1 X135.271 Y129.29 E44.92328
G1 X135.82 Y129.06 E44.9359
G1 X136.331 Y128.859 E44.94754
G1 X136.852 Y128.67 E44.95929
G1 X137.365 Y128.502 E44.97074
G1 X137.877 Y128.36 E44.982
G1 X138.635 Y128.198 E44.99844
G1 X139.369 Y128.117 E45.0141
G1 X140.346 Y128.118 E45.03481
G1 X141.289 Y128.252 E45.05501
G1 X142.194 Y128.518 E45.07501
G1 X142.785 Y128.738 E45.08838
G1 X143.315 Y128.994 E45.10086
G1 X143.99 Y129.369 E45.11723
G1 X144.427 Y129.633 E45.12806
G1 X145.289 Y130.198 E45.14991
G1 X146.99 Y131.372 E45.19374
G1 X147.894 Y131.969 E45.21671
G1 X148.674 Y132.398 E45.23558
G1 X149.519 Y132.794 E45.25537
G1 X150.359 Y133.08 E45.27418
G1 X150.776 Y133.178 E45.28326
G1 X151.642 Y133.287 E45.30177
G1 X152.495 Y133.234 E45.31989
G1 X152.928 Y133.157 E45.32922
G1 X153.817 Y132.885 E45.34893
G1 X154.563 Y132.557 E45.36621
G1 X155.392 Y132.05 E45.38681
G1 X156.17 Y131.453 E45.40761
G1 X156.759 Y130.928 E45.42434
G1 X157.5 Y130.2 E45.44636
G1 X161.62 Y130.2 E45.53372
G1 X161.616 Y125.357 E45.63641
G1 X160.684 Y124.687 E45.66075
G1 X160.095 Y124.188 E45.67711
G1 X159.724 Y123.832 E45.68802
G1 X159.282 Y123.319 E45.70237
G1 X158.934 Y122.776 E45.71605
G1 X158.77 Y122.254 E45.72765
G1 X158.749 Y121.967 E45.73375
G1 X158.837 Y121.508 E45.74366
G1 X159.167 Y120.954 E45.75733
G1 X159.689 Y120.45 E45.77272
G1 X160.387 Y119.984 E45.79052
G1 X161.798 Y119.157 E45.82519
G1 X162.429 Y118.751 E45.8411
G1 X163.016 Y118.29 E45.85693
G1 X163.466 Y117.778 E45.87138
G1 X163.672 Y117.403 E45.88045
G1 X163.79 Y116.794 E45.89361
G1 X163.769 Y116.512 E45.8996
G1 X163.659 Y116.001 E45.91069
G1 X163.456 Y115.478 E45.92258
G1 X163.008 Y114.666 E45.94224
G1 X162.576 Y114.025 E45.95863
G1 X161.577 Y112.628 E45.99505
G1 X160.923 Y111.686 E46.01937
G1 X160.616 Y111.208 E46.03141
G1 X160.332 Y110.727 E46.04325
G1 X159.961 Y110.018 E46.06022
G1 X159.589 Y109.031 E46.08259
G1 X159.46 Y108.099 E46.10254
G1 X159.465 Y107.641 E46.11225
G1 X159.529 Y107.188 E46.12195
G1 X159.729 Y106.555 E46.13602
G1 X160.058 Y105.893 E46.1517
G1 X160.51 Y105.2 E46.16924
G1 X161.147 Y104.522 E46.18897
G1 X161.525 Y104.155 E46.20014
G1 X161.913 Y103.8 E46.21129
G1 X163.29 Y102.6 E46.25002
G1 X163.923 Y102.001 E46.2685
G1 X164.432 Y101.401 E46.28518
G1 X164.688 Y100.85 E46.29806
G1 X164.75 Y100.572 E46.3041
G1 X164.75 Y100.276 E46.31038
G1 X164.583 Y99.716 E46.32277
G1 X164.325 Y99.297 E46.3332
G1 X163.79 Y98.706 E46.3501
G1 X163.117 Y98.112 E46.36914
G1 X161.53 Y96.845 E46.41219
G1 X160.79 Y96.204 E46.43295
G1 X160.236 Y95.632 E46.44984
G1 X159.75 Y94.953 E46.46754
G1 X159.575 Y94.529 E46.47727
G1 X159.498 Y94.199 E46.48445
G1 X159.483 Y93.863 E46.49159
G1 X159.532 Y93.52 E46.49893
G1 X159.644 Y93.184 E46.50644
G1 X159.934 Y92.681 E46.51875
G1 X160.3 Y92.202 E46.53153
G1 X160.859 Y91.666 E46.54796
G1 X161.416 Y91.226 E46.56301
G1 X161.823 Y90.927 E46.57371
G1 X162.288 Y90.605 E46.58571
G1 X164.089 Y89.42 E46.63142
G1 X164.752 Y88.964 E46.64848
G1 X165.444 Y88.418 E46.66717
G1 X165.92 Y87.93 E46.68162
G1 X166.21 Y87.449 E46.69353
G1 X166.269 Y87.228 E46.69838
G1 X166.262 Y87.022 E46.70275
G1 X166.131 Y86.701 E46.71011
G1 X165.797 Y86.354 E46.72032
G1 X165.25 Y86.003 E46.7341
G1 X164.719 Y85.778 E46.74633
G1 X163.939 Y85.489 E46.76396
G1 X162.882 Y85.201 E46.78719
G1 X161.62 Y84.912 E46.81464
;TIME_ELAPSED:55.308767
;LAYER:6
;MESH:K??rperLaserTest.stl
G0 F7200 X161.62 Y84.912 Z1.1
;TYPE:WALL-OUTER
G1 F2823.5 X161.62 Y80.4 E46.91031
G1 X154.902 Y80.404 E47.05276
G1 X154.458 Y80.812 E47.06554
G1 X153.938 Y81.264 E47.08015
G1 X153.477 Y81.635 E47.0927
G1 X153.026 Y81.971 E47.10462
G1 X152.577 Y82.277 E47.11614
G1 X151.96 Y82.656 E47.1315
G1 X151.471 Y82.912 E47.1432
G1 X150.594 Y83.276 E47.16333
G1 X149.619 Y83.514 E47.18461
G1 X149.168 Y83.574 E47.19426
G1 X148.368 Y83.598 E47.21123
G1 X147.415 Y83.486 E47.23158
G1 X146.437 Y83.16 E47.25344
G1 X145.737 Y82.832 E47.26983
G1 X144.985 Y82.391 E47.28831
G1 X144.278 Y81.906 E47.30649
G1 X143.579 Y81.38 E47.32504
G1 X142.2 Y80.283 E47.3624
G1 X141.511 Y79.753 E47.38083
G1 X140.85 Y79.284 E47.39802
G1 X140.149 Y78.849 E47.41551
G1 X139.228 Y78.385 E47.43738
G1 X138.342 Y78.124 E47.45696
G1 X137.459 Y77.991 E47.4759
G1 X136.814 Y78.006 E47.48958
G1 X136.011 Y78.101 E47.50672
G1 X135.308 Y78.247 E47.52194
G1 X134.288 Y78.59 E47.54476
G1 X133.378 Y78.968 E47.56566
G1 X132.446 Y79.403 E47.58746
G1 X130.007 Y80.612 E47.64518
G1 X128.978 Y81.102 E47.66935
G1 X128.454 Y81.336 E47.68152
G1 X127.923 Y81.56 E47.69374
G1 X127.384 Y81.772 E47.70602
G1 X126.85 Y81.969 E47.71809
G1 X126.296 Y82.153 E47.73046
G1 X125.742 Y82.317 E47.74271
G1 X125.17 Y82.464 E47.75524
G1 X124.635 Y82.582 E47.76685
G1 X124.051 Y82.685 E47.77943
G1 X123.479 Y82.762 E47.79167
G1 X122.905 Y82.814 E47.80389
G1 X122.326 Y82.84 E47.81617
G1 X121.746 Y82.84 E47.82847
G1 X121.161 Y82.815 E47.84089
G1 X120.576 Y82.766 E47.85334
G1 X120.018 Y82.698 E47.86525
G1 X119.398 Y82.597 E47.87857
G1 X118.852 Y82.488 E47.89038
G1 X118.222 Y82.339 E47.90411
G1 X117.632 Y82.179 E47.91707
G1 X117.058 Y82.006 E47.92978
G1 X116.456 Y81.805 E47.94324
G1 X115.869 Y81.593 E47.95647
G1 X115.283 Y81.366 E47.96979
G1 X114.113 Y80.874 E47.99671
G1 X112.967 Y80.355 E48.02338
G1 X109.599 Y78.751 E48.10248
G1 X108.519 Y78.259 E48.12764
G1 X107.985 Y78.031 E48.13995
G1 X106.942 Y77.615 E48.16376
G1 X106.43 Y77.433 E48.17529
G1 X105.925 Y77.267 E48.18656
G1 X105.426 Y77.121 E48.19758
G1 X104.678 Y76.928 E48.21396
G1 X103.795 Y76.779 E48.23295
G1 X102.733 Y76.704 E48.25552
G1 X101.72 Y76.78 E48.27706
G1 X100.881 Y76.959 E48.29525
G1 X100.07 Y77.24 E48.31345
G1 X99.289 Y77.633 E48.33199
G1 X98.533 Y78.143 E48.35132
G1 X97.992 Y78.582 E48.3661
G1 X97.627 Y78.934 E48.37685
G1 X97.111 Y79.504 E48.39315
G1 X96.777 Y79.918 E48.40443
G1 X96.424 Y80.4 E48.4171
G1 X89.959 Y80.4 E48.55418
G1 X89.959 Y87.614 E48.70714
G1 X89.404 Y88.026 E48.72179
G1 X88.918 Y88.403 E48.73484
G1 X88.459 Y88.774 E48.74735
G1 X88.027 Y89.141 E48.75937
G1 X87.621 Y89.504 E48.77092
G1 X87.049 Y90.052 E48.78771
G1 X86.402 Y90.749 E48.80788
G1 X85.729 Y91.595 E48.8308
G1 X85.236 Y92.435 E48.85145
G1 X84.931 Y93.191 E48.86873
G1 X84.784 Y93.782 E48.88165
G1 X84.72 Y94.28 E48.89229
G1 X84.783 Y95.074 E48.90918
G1 X85.012 Y95.768 E48.92468
G1 X85.276 Y96.297 E48.93721
G1 X85.695 Y96.935 E48.9534
G1 X86.265 Y97.578 E48.97162
G1 X86.772 Y98.073 E48.98664
G1 X87.329 Y98.561 E49.00234
G1 X87.924 Y99.04 E49.01854
G1 X88.54 Y99.514 E49.03502
G1 X89.79 Y100.453 E49.06817
G1 X90.396 Y100.921 E49.0844
G1 X90.97 Y101.388 E49.10009
G1 X91.509 Y101.865 E49.11536
G1 X91.989 Y102.347 E49.12978
G1 X92.397 Y102.828 E49.14315
G1 X92.792 Y103.411 E49.15808
G1 X92.982 Y103.833 E49.1679
G1 X93.15 Y104.37 E49.17983
G1 X93.228 Y105.092 E49.19522
G1 X93.132 Y105.713 E49.20855
G1 X92.922 Y106.364 E49.22305
G1 X92.667 Y106.857 E49.23482
G1 X92.226 Y107.573 E49.25265
G1 X91.637 Y108.321 E49.27284
G1 X91.265 Y108.753 E49.28493
G1 X90.52 Y109.54 E49.3079
G1 X89.896 Y110.161 E49.32657
G1 X87.91 Y112.063 E49.38488
G1 X87.253 Y112.706 E49.40437
G1 X86.619 Y113.352 E49.42356
G1 X86.022 Y114 E49.44224
G1 X85.474 Y114.648 E49.46024
G1 X84.984 Y115.296 E49.47746
G1 X84.567 Y115.941 E49.49375
G1 X84.226 Y116.583 E49.50916
G1 X83.966 Y117.235 E49.52405
G1 X83.776 Y117.948 E49.53969
G1 X83.708 Y118.801 E49.55783
G1 X83.805 Y119.416 E49.57104
G1 X83.982 Y120.037 E49.58473
G1 X84.207 Y120.575 E49.59709
G1 X84.712 Y121.368 E49.61703
G1 X85.153 Y121.88 E49.63135
G1 X85.638 Y122.388 E49.64625
G1 X86.293 Y122.96 E49.66468
G1 X86.898 Y123.415 E49.68074
G1 X87.33 Y123.717 E49.69191
G1 X87.788 Y124.017 E49.70352
G1 X88.272 Y124.314 E49.71556
G1 X88.789 Y124.615 E49.72825
G1 X89.334 Y124.914 E49.74143
G1 X89.959 Y125.239 E49.75636
G1 X89.959 Y130.2 E49.86155
G1 X96.24 Y130.203 E49.99473
G1 X97.198 Y131.026 E50.02151
G1 X97.95 Y131.595 E50.04151
G1 X98.685 Y132.075 E50.06012
G1 X99.286 Y132.405 E50.07466
G1 X99.757 Y132.626 E50.08569
G1 X100.452 Y132.886 E50.10142
G1 X101.127 Y133.041 E50.11611
G1 X102.005 Y133.13 E50.13482
G1 X102.854 Y133.084 E50.15285
G1 X103.695 Y132.89 E50.17115
G1 X104.491 Y132.581 E50.18925
G1 X105.286 Y132.157 E50.20836
G1 X106.065 Y131.646 E50.22811
G1 X106.839 Y131.073 E50.24853
G1 X108.391 Y129.861 E50.29028
G1 X109.177 Y129.287 E50.31092
G1 X109.988 Y128.767 E50.33135
G1 X110.82 Y128.339 E50.35118
G1 X111.687 Y128.023 E50.37075
G1 X112.568 Y127.854 E50.38977
G1 X113.018 Y127.806 E50.39937
G1 X114.088 Y127.835 E50.42206
G1 X114.777 Y127.954 E50.43689
G1 X115.44 Y128.126 E50.45141
G1 X115.947 Y128.285 E50.46268
G1 X116.463 Y128.469 E50.47429
G1 X116.987 Y128.675 E50.48623
G1 X118.067 Y129.141 E50.51117
G1 X119.724 Y129.904 E50.54985
G1 X120.862 Y130.415 E50.5763
G1 X121.441 Y130.658 E50.58962
G1 X122.021 Y130.887 E50.60284
G1 X122.618 Y131.104 E50.61631
G1 X123.19 Y131.289 E50.62905
G1 X123.781 Y131.458 E50.64209
G1 X124.381 Y131.606 E50.65519
G1 X124.961 Y131.719 E50.66772
G1 X125.553 Y131.804 E50.6804
G1 X126.146 Y131.856 E50.69302
G1 X126.738 Y131.874 E50.70558
G1 X127.323 Y131.859 E50.71799
G1 X127.916 Y131.812 E50.7306
G1 X128.499 Y131.735 E50.74307
G1 X129.084 Y131.627 E50.75568
G1 X129.667 Y131.492 E50.76837
G1 X130.247 Y131.332 E50.78113
G1 X130.821 Y131.151 E50.79389
G1 X131.395 Y130.947 E50.80681
G1 X131.963 Y130.728 E50.81972
G1 X132.527 Y130.496 E50.83265
G1 X135.271 Y129.29 E50.8962
G1 X135.82 Y129.06 E50.90882
G1 X136.331 Y128.859 E50.92046
G1 X136.852 Y128.67 E50.93222
G1 X137.365 Y128.502 E50.94366
G1 X137.877 Y128.36 E50.95493
G1 X138.635 Y128.198 E50.97136
G1 X139.369 Y128.117 E50.98702
G1 X140.346 Y128.118 E51.00774
G1 X141.289 Y128.252 E51.02793
G1 X142.194 Y128.518 E51.04793
G1 X142.785 Y128.738 E51.0613
G1 X143.315 Y128.994 E51.07378
G1 X143.99 Y129.369 E51.09016
G1 X144.427 Y129.633 E51.10098
G1 X145.289 Y130.198 E51.12284
G1 X146.99 Y131.372 E51.16666
G1 X147.894 Y131.969 E51.18963
G1 X148.674 Y132.398 E51.2085
G1 X149.519 Y132.794 E51.22829
G1 X150.359 Y133.08 E51.24711
G1 X150.776 Y133.178 E51.25619
G1 X151.642 Y133.287 E51.27469
G1 X152.495 Y133.234 E51.29282
G1 X152.928 Y133.157 E51.30214
G1 X153.817 Y132.885 E51.32185
G1 X154.563 Y132.557 E51.33913
G1 X155.392 Y132.05 E51.35974
G1 X156.17 Y131.453 E51.38053
G1 X156.759 Y130.928 E51.39726
G1 X157.5 Y130.2 E51.41929
G1 X161.62 Y130.2 E51.50664
G1 X161.616 Y125.357 E51.60933
G1 X160.684 Y124.687 E51.63367
G1 X160.095 Y124.188 E51.65004
G1 X159.724 Y123.832 E51.66094
G1 X159.282 Y123.319 E51.6753
G1 X158.934 Y122.776 E51.68897
G1 X158.77 Y122.254 E51.70057
G1 X158.749 Y121.967 E51.70668
G1 X158.837 Y121.508 E51.71659
G1 X159.167 Y120.954 E51.73026
G1 X159.689 Y120.45 E51.74564
G1 X160.387 Y119.984 E51.76344
G1 X161.798 Y119.157 E51.79812
G1 X162.429 Y118.751 E51.81403
G1 X163.016 Y118.29 E51.82985
G1 X163.466 Y117.778 E51.8443
G1 X163.672 Y117.403 E51.85338
G1 X163.79 Y116.794 E51.86653
G1 X163.769 Y116.512 E51.87253
G1 X163.659 Y116.001 E51.88361
G1 X163.456 Y115.478 E51.8955
G1 X163.008 Y114.666 E51.91517
G1 X162.576 Y114.025 E51.93156
G1 X161.577 Y112.628 E51.96797
G1 X160.923 Y111.686 E51.99229
G1 X160.616 Y111.208 E52.00433
G1 X160.332 Y110.727 E52.01618
G1 X159.961 Y110.018 E52.03314
G1 X159.589 Y109.031 E52.05551
G1 X159.46 Y108.099 E52.07546
G1 X159.465 Y107.641 E52.08517
G1 X159.529 Y107.188 E52.09487
G1 X159.729 Y106.555 E52.10895
G1 X160.058 Y105.893 E52.12462
G1 X160.51 Y105.2 E52.14217
G1 X161.147 Y104.522 E52.16189
G1 X161.525 Y104.155 E52.17306
G1 X161.913 Y103.8 E52.18421
G1 X163.29 Y102.6 E52.22294
G1 X163.923 Y102.001 E52.24142
G1 X164.432 Y101.401 E52.2581
G1 X164.688 Y100.85 E52.27098
G1 X164.75 Y100.572 E52.27702
G1 X164.75 Y100.276 E52.2833
G1 X164.583 Y99.716 E52.29569
G1 X164.325 Y99.297 E52.30612
G1 X163.79 Y98.706 E52.32303
G1 X163.117 Y98.112 E52.34206
G1 X161.53 Y96.845 E52.38512
G1 X160.79 Y96.204 E52.40588
G1 X160.236 Y95.632 E52.42276
G1 X159.75 Y94.953 E52.44047
G1 X159.575 Y94.529 E52.45019
G1 X159.498 Y94.199 E52.45738
G1 X159.483 Y93.863 E52.46451
G1 X159.532 Y93.52 E52.47185
G1 X159.644 Y93.184 E52.47936
G1 X159.934 Y92.681 E52.49168
G1 X160.3 Y92.202 E52.50446
G1 X160.859 Y91.666 E52.52088
G1 X161.416 Y91.226 E52.53593
G1 X161.823 Y90.927 E52.54664
G1 X162.288 Y90.605 E52.55863
G1 X164.089 Y89.42 E52.60434
G1 X164.752 Y88.964 E52.6214
G1 X165.444 Y88.418 E52.64009
G1 X165.92 Y87.93 E52.65455
G1 X166.21 Y87.449 E52.66646
G1 X166.269 Y87.228 E52.67131
G1 X166.262 Y87.022 E52.67568
G1 X166.131 Y86.701 E52.68303
G1 X165.797 Y86.354 E52.69324
G1 X165.25 Y86.003 E52.70702
G1 X164.719 Y85.778 E52.71925
G1 X163.939 Y85.489 E52.73689
G1 X162.882 Y85.201 E52.76012
G1 X161.62 Y84.912 E52.78757
;TIME_ELAPSED:61.733435
;LAYER:7
;MESH:K??rperLaserTest.stl
G0 F7200 X161.62 Y84.912 Z1.25
;TYPE:WALL-OUTER
G1 F2823.5 X161.62 Y80.4 E52.88324
G1 X154.902 Y80.404 E53.02568
G1 X154.458 Y80.812 E53.03847
G1 X153.938 Y81.264 E53.05307
G1 X153.477 Y81.635 E53.06562
G1 X153.026 Y81.971 E53.07755
G1 X152.577 Y82.277 E53.08907
G1 X151.96 Y82.656 E53.10442
G1 X151.471 Y82.912 E53.11612
G1 X150.594 Y83.276 E53.13626
G1 X149.619 Y83.514 E53.15754
G1 X149.168 Y83.574 E53.16718
G1 X148.368 Y83.598 E53.18416
G1 X147.415 Y83.486 E53.2045
G1 X146.437 Y83.16 E53.22636
G1 X145.737 Y82.832 E53.24275
G1 X144.985 Y82.391 E53.26124
G1 X144.278 Y81.906 E53.27941
G1 X143.579 Y81.38 E53.29796
G1 X142.2 Y80.283 E53.33533
G1 X141.511 Y79.753 E53.35376
G1 X140.85 Y79.284 E53.37094
G1 X140.149 Y78.849 E53.38843
G1 X139.228 Y78.385 E53.4103
G1 X138.342 Y78.124 E53.42989
G1 X137.459 Y77.991 E53.44882
G1 X136.814 Y78.006 E53.4625
G1 X136.011 Y78.101 E53.47964
G1 X135.308 Y78.247 E53.49487
G1 X134.288 Y78.59 E53.51769
G1 X133.378 Y78.968 E53.53858
G1 X132.446 Y79.403 E53.56039
G1 X130.007 Y80.612 E53.61811
G1 X128.978 Y81.102 E53.64227
G1 X128.454 Y81.336 E53.65444
G1 X127.923 Y81.56 E53.66666
G1 X127.384 Y81.772 E53.67894
G1 X126.85 Y81.969 E53.69101
G1 X126.296 Y82.153 E53.70339
G1 X125.742 Y82.317 E53.71564
G1 X125.17 Y82.464 E53.72816
G1 X124.635 Y82.582 E53.73978
G1 X124.051 Y82.685 E53.75235
G1 X123.479 Y82.762 E53.76459
G1 X122.905 Y82.814 E53.77681
G1 X122.326 Y82.84 E53.7891
G1 X121.746 Y82.84 E53.8014
G1 X121.161 Y82.815 E53.81381
G1 X120.576 Y82.766 E53.82626
G1 X120.018 Y82.698 E53.83818
G1 X119.398 Y82.597 E53.8515
G1 X118.852 Y82.488 E53.8633
G1 X118.222 Y82.339 E53.87703
G1 X117.632 Y82.179 E53.88999
G1 X117.058 Y82.006 E53.9027
G1 X116.456 Y81.805 E53.91616
G1 X115.869 Y81.593 E53.92939
G1 X115.283 Y81.366 E53.94272
G1 X114.113 Y80.874 E53.96963
G1 X112.967 Y80.355 E53.9963
G1 X109.599 Y78.751 E54.0754
G1 X108.519 Y78.259 E54.10057
G1 X107.985 Y78.031 E54.11288
G1 X106.942 Y77.615 E54.13669
G1 X106.43 Y77.433 E54.14821
G1 X105.925 Y77.267 E54.15948
G1 X105.426 Y77.121 E54.1705
G1 X104.678 Y76.928 E54.18688
G1 X103.795 Y76.779 E54.20587
G1 X102.733 Y76.704 E54.22844
G1 X101.72 Y76.78 E54.24998
G1 X100.881 Y76.959 E54.26817
G1 X100.07 Y77.24 E54.28637
G1 X99.289 Y77.633 E54.30491
G1 X98.533 Y78.143 E54.32425
G1 X97.992 Y78.582 E54.33902
G1 X97.627 Y78.934 E54.34977
G1 X97.111 Y79.504 E54.36607
G1 X96.777 Y79.918 E54.37735
G1 X96.424 Y80.4 E54.39002
G1 X89.959 Y80.4 E54.5271
G1 X89.959 Y87.614 E54.68006
G1 X89.404 Y88.026 E54.69472
G1 X88.918 Y88.403 E54.70776
G1 X88.459 Y88.774 E54.72027
G1 X88.027 Y89.141 E54.73229
G1 X87.621 Y89.504 E54.74384
G1 X87.049 Y90.052 E54.76063
G1 X86.402 Y90.749 E54.7808
G1 X85.729 Y91.595 E54.80372
G1 X85.236 Y92.435 E54.82437
G1 X84.931 Y93.191 E54.84166
G1 X84.784 Y93.782 E54.85457
G1 X84.72 Y94.28 E54.86522
G1 X84.783 Y95.074 E54.88211
G1 X85.012 Y95.768 E54.8976
G1 X85.276 Y96.297 E54.91014
G1 X85.695 Y96.935 E54.92632
G1 X86.265 Y97.578 E54.94454
G1 X86.772 Y98.073 E54.95956
G1 X87.329 Y98.561 E54.97527
G1 X87.924 Y99.04 E54.99146
G1 X88.54 Y99.514 E55.00794
G1 X89.79 Y100.453 E55.04109
G1 X90.396 Y100.921 E55.05733
G1 X90.97 Y101.388 E55.07302
G1 X91.509 Y101.865 E55.08828
G1 X91.989 Y102.347 E55.1027
G1 X92.397 Y102.828 E55.11608
G1 X92.792 Y103.411 E55.13101
G1 X92.982 Y103.833 E55.14082
G1 X93.15 Y104.37 E55.15275
G1 X93.228 Y105.092 E55.16815
G1 X93.132 Y105.713 E55.18147
G1 X92.922 Y106.364 E55.19598
G1 X92.667 Y106.857 E55.20774
G1 X92.226 Y107.573 E55.22557
G1 X91.637 Y108.321 E55.24576
G1 X91.265 Y108.753 E55.25785
G1 X90.52 Y109.54 E55.28083
G1 X89.896 Y110.161 E55.29949
G1 X87.91 Y112.063 E55.3578
G1 X87.253 Y112.706 E55.37729
G1 X86.619 Y113.352 E55.39648
G1 X86.022 Y114 E55.41517
G1 X85.474 Y114.648 E55.43316
G1 X84.984 Y115.296 E55.45039
G1 X84.567 Y115.941 E55.46667
G1 X84.226 Y116.583 E55.48208
G1 X83.966 Y117.235 E55.49697
G1 X83.776 Y117.948 E55.51261
G1 X83.708 Y118.801 E55.53076
G1 X83.805 Y119.416 E55.54396
G1 X83.982 Y120.037 E55.55765
G1 X84.207 Y120.575 E55.57002
G1 X84.712 Y121.368 E55.58995
G1 X85.153 Y121.88 E55.60428
G1 X85.638 Y122.388 E55.61917
G1 X86.293 Y122.96 E55.63761
G1 X86.898 Y123.415 E55.65366
G1 X87.33 Y123.717 E55.66484
G1 X87.788 Y124.017 E55.67644
G1 X88.272 Y124.314 E55.68848
G1 X88.789 Y124.615 E55.70117
G1 X89.334 Y124.914 E55.71435
G1 X89.959 Y125.239 E55.72929
G1 X89.959 Y130.2 E55.83448
G1 X96.24 Y130.203 E55.96765
G1 X97.198 Y131.026 E55.99443
G1 X97.95 Y131.595 E56.01443
G1 X98.685 Y132.075 E56.03304
G1 X99.286 Y132.405 E56.04758
G1 X99.757 Y132.626 E56.05861
G1 X100.452 Y132.886 E56.07435
G1 X101.127 Y133.041 E56.08903
G1 X102.005 Y133.13 E56.10774
G1 X102.854 Y133.084 E56.12577
G1 X103.695 Y132.89 E56.14407
G1 X104.491 Y132.581 E56.16218
G1 X105.286 Y132.157 E56.18128
G1 X106.065 Y131.646 E56.20103
G1 X106.839 Y131.073 E56.22145
G1 X108.391 Y129.861 E56.26321
G1 X109.177 Y129.287 E56.28384
G1 X109.988 Y128.767 E56.30427
G1 X110.82 Y128.339 E56.32411
G1 X111.687 Y128.023 E56.34367
G1 X112.568 Y127.854 E56.36269
G1 X113.018 Y127.806 E56.37229
G1 X114.088 Y127.835 E56.39499
G1 X114.777 Y127.954 E56.40981
G1 X115.44 Y128.126 E56.42434
G1 X115.947 Y128.285 E56.4356
G1 X116.463 Y128.469 E56.44722
G1 X116.987 Y128.675 E56.45916
G1 X118.067 Y129.141 E56.4841
G1 X119.724 Y129.904 E56.52278
G1 X120.862 Y130.415 E56.54923
G1 X121.441 Y130.658 E56.56254
G1 X122.021 Y130.887 E56.57576
G1 X122.618 Y131.104 E56.58923
G1 X123.19 Y131.289 E56.60198
G1 X123.781 Y131.458 E56.61501
G1 X124.381 Y131.606 E56.62811
G1 X124.961 Y131.719 E56.64064
G1 X125.553 Y131.804 E56.65332
G1 X126.146 Y131.856 E56.66595
G1 X126.738 Y131.874 E56.6785
G1 X127.323 Y131.859 E56.69091
G1 X127.916 Y131.812 E56.70353
G1 X128.499 Y131.735 E56.71599
G1 X129.084 Y131.627 E56.72861
G1 X129.667 Y131.492 E56.7413
G1 X130.247 Y131.332 E56.75405
G1 X130.821 Y131.151 E56.76682
G1 X131.395 Y130.947 E56.77973
G1 X131.963 Y130.728 E56.79264
G1 X132.527 Y130.496 E56.80557
G1 X135.271 Y129.29 E56.86912
G1 X135.82 Y129.06 E56.88174
G1 X136.331 Y128.859 E56.89339
G1 X136.852 Y128.67 E56.90514
G1 X137.365 Y128.502 E56.91658
G1 X137.877 Y128.36 E56.92785
G1 X138.635 Y128.198 E56.94429
G1 X139.369 Y128.117 E56.95994
G1 X140.346 Y128.118 E56.98066
G1 X141.289 Y128.252 E57.00085
G1 X142.194 Y128.518 E57.02086
G1 X142.785 Y128.738 E57.03423
G1 X143.315 Y128.994 E57.04671
G1 X143.99 Y129.369 E57.06308
G1 X144.427 Y129.633 E57.0739
G1 X145.289 Y130.198 E57.09576
G1 X146.99 Y131.372 E57.13958
G1 X147.894 Y131.969 E57.16255
G1 X148.674 Y132.398 E57.18143
G1 X149.519 Y132.794 E57.20121
G1 X150.359 Y133.08 E57.22003
G1 X150.776 Y133.178 E57.22911
G1 X151.642 Y133.287 E57.24762
G1 X152.495 Y133.234 E57.26574
G1 X152.928 Y133.157 E57.27506
G1 X153.817 Y132.885 E57.29478
G1 X154.563 Y132.557 E57.31206
G1 X155.392 Y132.05 E57.33266
G1 X156.17 Y131.453 E57.35345
G1 X156.759 Y130.928 E57.37018
G1 X157.5 Y130.2 E57.39221
G1 X161.62 Y130.2 E57.47957
G1 X161.616 Y125.357 E57.58225
G1 X160.684 Y124.687 E57.60659
G1 X160.095 Y124.188 E57.62296
G1 X159.724 Y123.832 E57.63386
G1 X159.282 Y123.319 E57.64822
G1 X158.934 Y122.776 E57.6619
G1 X158.77 Y122.254 E57.6735
G1 X158.749 Y121.967 E57.6796
G1 X158.837 Y121.508 E57.68951
G1 X159.145 Y121 E57.7021
G1 X159.56 Y120.558 E57.71496
G1 X160.267 Y120.056 E57.73335
G1 X161.798 Y119.157 E57.77099
G1 X162.429 Y118.751 E57.7869
G1 X163.016 Y118.29 E57.80273
G1 X163.466 Y117.778 E57.81718
G1 X163.672 Y117.403 E57.82625
G1 X163.79 Y116.794 E57.8394
G1 X163.769 Y116.512 E57.8454
G1 X163.659 Y116.001 E57.85648
G1 X163.456 Y115.478 E57.86838
G1 X163.008 Y114.666 E57.88804
G1 X162.576 Y114.025 E57.90443
G1 X161.577 Y112.628 E57.94085
G1 X160.923 Y111.686 E57.96516
G1 X160.616 Y111.208 E57.97721
G1 X160.332 Y110.727 E57.98905
G1 X159.961 Y110.018 E58.00602
G1 X159.589 Y109.031 E58.02838
G1 X159.46 Y108.099 E58.04833
G1 X159.465 Y107.641 E58.05805
G1 X159.529 Y107.188 E58.06775
G1 X159.729 Y106.555 E58.08182
G1 X160.058 Y105.893 E58.0975
G1 X160.51 Y105.2 E58.11504
G1 X161.147 Y104.522 E58.13476
G1 X161.525 Y104.155 E58.14594
G1 X161.913 Y103.8 E58.15709
G1 X163.29 Y102.6 E58.19581
G1 X163.923 Y102.001 E58.21429
G1 X164.432 Y101.401 E58.23098
G1 X164.688 Y100.85 E58.24386
G1 X164.75 Y100.572 E58.2499
G1 X164.75 Y100.276 E58.25617
G1 X164.583 Y99.716 E58.26856
G1 X164.325 Y99.297 E58.279
G1 X163.79 Y98.706 E58.2959
G1 X163.117 Y98.112 E58.31493
G1 X161.53 Y96.845 E58.35799
G1 X160.79 Y96.204 E58.37875
G1 X160.236 Y95.632 E58.39564
G1 X159.75 Y94.953 E58.41334
G1 X159.575 Y94.529 E58.42307
G1 X159.498 Y94.199 E58.43025
G1 X159.483 Y93.863 E58.43738
G1 X159.532 Y93.52 E58.44473
G1 X159.644 Y93.184 E58.45224
G1 X159.934 Y92.681 E58.46455
G1 X160.3 Y92.202 E58.47733
G1 X160.859 Y91.666 E58.49375
G1 X161.416 Y91.226 E58.5088
G1 X161.823 Y90.927 E58.51951
G1 X162.288 Y90.605 E58.5315
G1 X164.089 Y89.42 E58.57722
G1 X164.752 Y88.964 E58.59428
G1 X165.444 Y88.418 E58.61297
G1 X165.92 Y87.93 E58.62742
G1 X166.21 Y87.449 E58.63933
G1 X166.269 Y87.228 E58.64418
G1 X166.262 Y87.022 E58.64855
G1 X166.131 Y86.701 E58.6559
G1 X165.797 Y86.354 E58.66611
G1 X165.25 Y86.003 E58.6799
G1 X164.719 Y85.778 E58.69212
G1 X163.939 Y85.489 E58.70976
G1 X162.882 Y85.201 E58.73299
G1 X161.62 Y84.912 E58.76044
;MESH:NONMESH
G0 F600 X161.62 Y84.912 Z1.4
G0 F7200 X161.62 Y84.916
;TIME_ELAPSED:68.189904
;LAYER:8
;TYPE:WALL-OUTER
;MESH:K??rperLaserTest.stl
G1 F2823.5 X161.62 Y80.4 E58.8562
G1 X154.902 Y80.404 E58.99864
G1 X154.458 Y80.812 E59.01142
G1 X153.938 Y81.264 E59.02603
G1 X153.477 Y81.635 E59.03858
G1 X153.026 Y81.971 E59.05051
G1 X152.577 Y82.277 E59.06203
G1 X151.96 Y82.656 E59.07738
G1 X151.471 Y82.912 E59.08908
G1 X150.594 Y83.276 E59.10922
G1 X149.619 Y83.514 E59.1305
G1 X149.168 Y83.574 E59.14014
G1 X148.368 Y83.598 E59.15711
G1 X147.415 Y83.486 E59.17746
G1 X146.437 Y83.16 E59.19932
G1 X145.737 Y82.832 E59.21571
G1 X144.985 Y82.391 E59.23419
G1 X144.278 Y81.906 E59.25237
G1 X143.579 Y81.38 E59.27092
G1 X142.2 Y80.283 E59.30828
G1 X141.511 Y79.753 E59.32672
G1 X140.85 Y79.284 E59.3439
G1 X140.149 Y78.849 E59.36139
G1 X139.228 Y78.385 E59.38326
G1 X138.342 Y78.124 E59.40284
G1 X137.459 Y77.991 E59.42178
G1 X136.814 Y78.006 E59.43546
G1 X136.011 Y78.101 E59.4526
G1 X135.308 Y78.247 E59.46783
G1 X134.288 Y78.59 E59.49064
G1 X133.378 Y78.968 E59.51154
G1 X132.446 Y79.403 E59.53335
G1 X130.007 Y80.612 E59.59107
G1 X128.978 Y81.102 E59.61523
G1 X128.454 Y81.336 E59.6274
G1 X127.923 Y81.56 E59.63962
G1 X127.384 Y81.772 E59.6519
G1 X126.85 Y81.969 E59.66397
G1 X126.296 Y82.153 E59.67635
G1 X125.742 Y82.317 E59.6886
G1 X125.17 Y82.464 E59.70112
G1 X124.635 Y82.582 E59.71274
G1 X124.051 Y82.685 E59.72531
G1 X123.479 Y82.762 E59.73755
G1 X122.905 Y82.814 E59.74977
G1 X122.326 Y82.84 E59.76206
G1 X121.746 Y82.84 E59.77435
G1 X121.161 Y82.815 E59.78677
G1 X120.576 Y82.766 E59.79922
G1 X120.018 Y82.698 E59.81114
G1 X119.398 Y82.597 E59.82446
G1 X118.852 Y82.488 E59.83626
G1 X118.222 Y82.339 E59.84999
G1 X117.632 Y82.179 E59.86295
G1 X117.058 Y82.006 E59.87566
G1 X116.456 Y81.805 E59.88912
G1 X115.869 Y81.593 E59.90235
G1 X115.283 Y81.366 E59.91568
G1 X114.113 Y80.874 E59.94259
G1 X112.967 Y80.355 E59.96926
G1 X109.599 Y78.751 E60.04836
G1 X108.519 Y78.259 E60.07352
G1 X107.985 Y78.031 E60.08584
G1 X106.942 Y77.615 E60.10965
G1 X106.43 Y77.433 E60.12117
G1 X105.925 Y77.267 E60.13244
G1 X105.426 Y77.121 E60.14346
G1 X104.678 Y76.928 E60.15984
G1 X103.795 Y76.779 E60.17883
G1 X102.733 Y76.704 E60.2014
G1 X101.72 Y76.78 E60.22294
G1 X100.881 Y76.959 E60.24113
G1 X100.07 Y77.24 E60.25933
G1 X99.289 Y77.633 E60.27787
G1 X98.533 Y78.143 E60.29721
G1 X97.992 Y78.582 E60.31198
G1 X97.627 Y78.934 E60.32273
G1 X97.111 Y79.504 E60.33903
G1 X96.777 Y79.918 E60.35031
G1 X96.424 Y80.4 E60.36298
G1 X89.959 Y80.4 E60.50006
G1 X89.959 Y87.614 E60.65302
G1 X89.404 Y88.026 E60.66768
G1 X88.918 Y88.403 E60.68072
G1 X88.459 Y88.774 E60.69323
G1 X88.027 Y89.141 E60.70525
G1 X87.621 Y89.504 E60.7168
G1 X87.049 Y90.052 E60.73359
G1 X86.402 Y90.749 E60.75376
G1 X85.729 Y91.595 E60.77668
G1 X85.236 Y92.435 E60.79733
G1 X84.931 Y93.191 E60.81462
G1 X84.784 Y93.782 E60.82753
G1 X84.72 Y94.28 E60.83818
G1 X84.783 Y95.074 E60.85506
G1 X85.012 Y95.768 E60.87056
G1 X85.276 Y96.297 E60.8831
G1 X85.695 Y96.935 E60.89928
G1 X86.265 Y97.578 E60.9175
G1 X86.772 Y98.073 E60.93252
G1 X87.329 Y98.561 E60.94823
G1 X87.924 Y99.04 E60.96442
G1 X88.54 Y99.514 E60.9809
G1 X89.79 Y100.453 E61.01405
G1 X90.396 Y100.921 E61.03029
G1 X90.97 Y101.388 E61.04598
G1 X91.509 Y101.865 E61.06124
G1 X91.989 Y102.347 E61.07566
G1 X92.397 Y102.828 E61.08903
G1 X92.792 Y103.411 E61.10397
G1 X92.982 Y103.833 E61.11378
G1 X93.15 Y104.37 E61.12571
G1 X93.228 Y105.092 E61.14111
G1 X93.132 Y105.713 E61.15443
G1 X92.922 Y106.364 E61.16893
G1 X92.667 Y106.857 E61.1807
G1 X92.226 Y107.573 E61.19853
G1 X91.637 Y108.321 E61.21872
G1 X91.265 Y108.753 E61.23081
G1 X90.52 Y109.54 E61.25379
G1 X89.896 Y110.161 E61.27245
G1 X87.91 Y112.063 E61.33076
G1 X87.253 Y112.706 E61.35025
G1 X86.619 Y113.352 E61.36944
G1 X86.022 Y114 E61.38813
G1 X85.474 Y114.648 E61.40612
G1 X84.984 Y115.296 E61.42335
G1 X84.567 Y115.941 E61.43963
G1 X84.226 Y116.583 E61.45504
G1 X83.966 Y117.235 E61.46993
G1 X83.776 Y117.948 E61.48557
G1 X83.708 Y118.801 E61.50372
G1 X83.805 Y119.416 E61.51692
G1 X83.982 Y120.037 E61.53061
G1 X84.207 Y120.575 E61.54297
G1 X84.712 Y121.368 E61.56291
G1 X85.153 Y121.88 E61.57724
G1 X85.638 Y122.388 E61.59213
G1 X86.293 Y122.96 E61.61057
G1 X86.898 Y123.415 E61.62662
G1 X87.33 Y123.717 E61.63779
G1 X87.788 Y124.017 E61.6494
G1 X88.272 Y124.314 E61.66144
G1 X88.789 Y124.615 E61.67413
G1 X89.334 Y124.914 E61.68731
G1 X89.959 Y125.239 E61.70225
G1 X89.959 Y130.2 E61.80744
G1 X96.24 Y130.203 E61.94061
G1 X97.198 Y131.026 E61.96739
G1 X97.95 Y131.595 E61.98739
G1 X98.685 Y132.075 E62.006
G1 X99.286 Y132.405 E62.02054
G1 X99.757 Y132.626 E62.03157
G1 X100.452 Y132.886 E62.0473
G1 X101.127 Y133.041 E62.06199
G1 X102.005 Y133.13 E62.0807
G1 X102.854 Y133.084 E62.09873
G1 X103.695 Y132.89 E62.11703
G1 X104.491 Y132.581 E62.13513
G1 X105.286 Y132.157 E62.15424
G1 X106.065 Y131.646 E62.17399
G1 X106.839 Y131.073 E62.19441
G1 X108.391 Y129.861 E62.23616
G1 X109.177 Y129.287 E62.2568
G1 X109.988 Y128.767 E62.27723
G1 X110.82 Y128.339 E62.29707
G1 X111.687 Y128.023 E62.31663
G1 X112.568 Y127.854 E62.33565
G1 X113.018 Y127.806 E62.34525
G1 X114.088 Y127.835 E62.36795
G1 X114.777 Y127.954 E62.38277
G1 X115.44 Y128.126 E62.39729
G1 X115.947 Y128.285 E62.40856
G1 X116.463 Y128.469 E62.42018
G1 X116.987 Y128.675 E62.43211
G1 X118.067 Y129.141 E62.45705
G1 X119.724 Y129.904 E62.49573
G1 X120.862 Y130.415 E62.52218
G1 X121.441 Y130.658 E62.5355
G1 X122.021 Y130.887 E62.54872
G1 X122.618 Y131.104 E62.56219
G1 X123.19 Y131.289 E62.57494
G1 X123.781 Y131.458 E62.58797
G1 X124.381 Y131.606 E62.60107
G1 X124.961 Y131.719 E62.6136
G1 X125.553 Y131.804 E62.62628
G1 X126.146 Y131.856 E62.63891
G1 X126.738 Y131.874 E62.65146
G1 X127.323 Y131.859 E62.66387
G1 X127.916 Y131.812 E62.67648
G1 X128.499 Y131.735 E62.68895
G1 X129.084 Y131.627 E62.70157
G1 X129.667 Y131.492 E62.71426
G1 X130.247 Y131.332 E62.72701
G1 X130.821 Y131.151 E62.73977
G1 X131.395 Y130.947 E62.75269
G1 X131.963 Y130.728 E62.7656
G1 X132.527 Y130.496 E62.77853
G1 X135.271 Y129.29 E62.84208
G1 X135.82 Y129.06 E62.8547
G1 X136.331 Y128.859 E62.86635
G1 X136.852 Y128.67 E62.8781
G1 X137.365 Y128.502 E62.88954
G1 X137.877 Y128.36 E62.90081
G1 X138.635 Y128.198 E62.91724
G1 X139.369 Y128.117 E62.9329
G1 X140.346 Y128.118 E62.95362
G1 X141.289 Y128.252 E62.97381
G1 X142.194 Y128.518 E62.99381
G1 X142.785 Y128.738 E63.00719
G1 X143.315 Y128.994 E63.01967
G1 X143.99 Y129.369 E63.03604
G1 X144.427 Y129.633 E63.04686
G1 X145.289 Y130.198 E63.06872
G1 X146.99 Y131.372 E63.11254
G1 X147.894 Y131.969 E63.13551
G1 X148.674 Y132.398 E63.15439
G1 X149.519 Y132.794 E63.17417
G1 X150.359 Y133.08 E63.19299
G1 X150.776 Y133.178 E63.20207
G1 X151.642 Y133.287 E63.22058
G1 X152.495 Y133.234 E63.2387
G1 X152.928 Y133.157 E63.24802
G1 X153.817 Y132.885 E63.26774
G1 X154.563 Y132.557 E63.28501
G1 X155.392 Y132.05 E63.30562
G1 X156.17 Y131.453 E63.32641
G1 X156.759 Y130.928 E63.34314
G1 X157.5 Y130.2 E63.36517
G1 X161.62 Y130.2 E63.45253
G1 X161.616 Y125.357 E63.55521
G1 X160.684 Y124.687 E63.57955
G1 X160.095 Y124.188 E63.59592
G1 X159.724 Y123.832 E63.60682
G1 X159.282 Y123.319 E63.62118
G1 X158.934 Y122.776 E63.63485
G1 X158.77 Y122.254 E63.64646
G1 X158.749 Y121.967 E63.65256
G1 X158.837 Y121.508 E63.66247
G1 X159.167 Y120.954 E63.67614
G1 X159.689 Y120.45 E63.69153
G1 X160.387 Y119.984 E63.70932
G1 X161.798 Y119.157 E63.744
G1 X162.429 Y118.751 E63.75991
G1 X163.016 Y118.29 E63.77573
G1 X163.466 Y117.778 E63.79019
G1 X163.672 Y117.403 E63.79926
G1 X163.79 Y116.794 E63.81241
G1 X163.769 Y116.512 E63.81841
G1 X163.659 Y116.001 E63.82949
G1 X163.456 Y115.478 E63.84139
G1 X163.008 Y114.666 E63.86105
G1 X162.576 Y114.025 E63.87744
G1 X161.577 Y112.628 E63.91386
G1 X160.923 Y111.686 E63.93817
G1 X160.616 Y111.208 E63.95022
G1 X160.332 Y110.727 E63.96206
G1 X159.961 Y110.018 E63.97903
G1 X159.589 Y109.031 E64.00139
G1 X159.46 Y108.099 E64.02134
G1 X159.465 Y107.641 E64.03105
G1 X159.529 Y107.188 E64.04075
G1 X159.729 Y106.555 E64.05483
G1 X160.058 Y105.893 E64.0705
G1 X160.51 Y105.2 E64.08805
G1 X161.147 Y104.522 E64.10777
G1 X161.525 Y104.155 E64.11894
G1 X161.913 Y103.8 E64.13009
G1 X163.29 Y102.6 E64.16882
G1 X163.923 Y102.001 E64.1873
G1 X164.432 Y101.401 E64.20398
G1 X164.688 Y100.85 E64.21687
G1 X164.75 Y100.572 E64.22291
G1 X164.75 Y100.276 E64.22918
G1 X164.583 Y99.716 E64.24157
G1 X164.325 Y99.297 E64.25201
G1 X163.79 Y98.706 E64.26891
G1 X163.117 Y98.112 E64.28794
G1 X161.53 Y96.845 E64.331
G1 X160.79 Y96.204 E64.35176
G1 X160.236 Y95.632 E64.36864
G1 X159.75 Y94.953 E64.38635
G1 X159.575 Y94.529 E64.39607
G1 X159.498 Y94.199 E64.40326
G1 X159.483 Y93.863 E64.41039
G1 X159.532 Y93.52 E64.41774
G1 X159.644 Y93.184 E64.42525
G1 X159.934 Y92.681 E64.43756
G1 X160.3 Y92.202 E64.45034
G1 X160.859 Y91.666 E64.46676
G1 X161.416 Y91.226 E64.48181
G1 X161.823 Y90.927 E64.49252
G1 X162.288 Y90.605 E64.50451
G1 X164.089 Y89.42 E64.55022
G1 X164.752 Y88.964 E64.56729
G1 X165.444 Y88.418 E64.58598
G1 X165.92 Y87.93 E64.60043
G1 X166.21 Y87.449 E64.61234
G1 X166.269 Y87.228 E64.61719
G1 X166.262 Y87.022 E64.62156
G1 X166.131 Y86.701 E64.62891
G1 X165.797 Y86.354 E64.63912
G1 X165.25 Y86.003 E64.6529
G1 X164.719 Y85.778 E64.66513
G1 X164.19 Y85.582 E64.67709
G1 X163.427 Y85.344 E64.69404
G1 X162.511 Y85.112 E64.71408
G1 X161.62 Y84.916 E64.73342
;MESH:NONMESH
G0 F600 X161.62 Y84.916 Z1.55
G0 F7200 X161.62 Y84.912
;TIME_ELAPSED:74.610477
;LAYER:9
;TYPE:WALL-OUTER
;MESH:K??rperLaserTest.stl
G1 F2823.5 X161.62 Y80.4 E64.82909
G1 X154.902 Y80.404 E64.97153
G1 X154.458 Y80.812 E64.98432
G1 X153.938 Y81.264 E64.99893
G1 X153.477 Y81.635 E65.01147
G1 X153.026 Y81.971 E65.0234
G1 X152.577 Y82.277 E65.03492
G1 X151.96 Y82.656 E65.05027
G1 X151.471 Y82.912 E65.06198
G1 X150.594 Y83.276 E65.08211
G1 X149.619 Y83.514 E65.10339
G1 X149.168 Y83.574 E65.11304
G1 X148.368 Y83.598 E65.13001
G1 X147.415 Y83.486 E65.15035
G1 X146.437 Y83.16 E65.17221
G1 X145.737 Y82.832 E65.1886
G1 X144.985 Y82.391 E65.20709
G1 X144.278 Y81.906 E65.22527
G1 X143.579 Y81.38 E65.24382
G1 X142.2 Y80.283 E65.28118
G1 X141.511 Y79.753 E65.29961
G1 X140.85 Y79.284 E65.31679
G1 X140.149 Y78.849 E65.33429
G1 X139.228 Y78.385 E65.35615
G1 X138.342 Y78.124 E65.37574
G1 X137.459 Y77.991 E65.39467
G1 X136.814 Y78.006 E65.40835
G1 X136.011 Y78.101 E65.4255
G1 X135.308 Y78.247 E65.44072
G1 X134.288 Y78.59 E65.46354
G1 X133.378 Y78.968 E65.48443
G1 X132.446 Y79.403 E65.50624
G1 X130.007 Y80.612 E65.56396
G1 X128.978 Y81.102 E65.58812
G1 X128.454 Y81.336 E65.60029
G1 X127.923 Y81.56 E65.61251
G1 X127.384 Y81.772 E65.62479
G1 X126.85 Y81.969 E65.63686
G1 X126.296 Y82.153 E65.64924
G1 X125.742 Y82.317 E65.66149
G1 X125.17 Y82.464 E65.67401
G1 X124.635 Y82.582 E65.68563
G1 X124.051 Y82.685 E65.6982
G1 X123.479 Y82.762 E65.71044
G1 X122.905 Y82.814 E65.72266
G1 X122.326 Y82.84 E65.73495
G1 X121.746 Y82.84 E65.74725
G1 X121.161 Y82.815 E65.75966
G1 X120.576 Y82.766 E65.77211
G1 X120.018 Y82.698 E65.78403
G1 X119.398 Y82.597 E65.79735
G1 X118.852 Y82.488 E65.80915
G1 X118.222 Y82.339 E65.82288
G1 X117.632 Y82.179 E65.83584
G1 X117.058 Y82.006 E65.84855
G1 X116.456 Y81.805 E65.86201
G1 X115.869 Y81.593 E65.87524
G1 X115.283 Y81.366 E65.88857
G1 X114.113 Y80.874 E65.91548
G1 X112.967 Y80.355 E65.94216
G1 X109.599 Y78.751 E66.02125
G1 X108.519 Y78.259 E66.04642
G1 X107.985 Y78.031 E66.05873
G1 X106.942 Y77.615 E66.08254
G1 X106.43 Y77.433 E66.09406
G1 X105.925 Y77.267 E66.10533
G1 X105.426 Y77.121 E66.11636
G1 X104.678 Y76.928 E66.13274
G1 X103.795 Y76.779 E66.15172
G1 X102.733 Y76.704 E66.1743
G1 X101.72 Y76.78 E66.19584
G1 X100.881 Y76.959 E66.21403
G1 X100.07 Y77.24 E66.23223
G1 X99.289 Y77.633 E66.25076
G1 X98.533 Y78.143 E66.2701
G1 X97.992 Y78.582 E66.28487
G1 X97.627 Y78.934 E66.29562
G1 X97.111 Y79.504 E66.31193
G1 X96.777 Y79.918 E66.3232
G1 X96.424 Y80.4 E66.33587
G1 X89.959 Y80.4 E66.47295
G1 X89.959 Y87.614 E66.62591
G1 X89.404 Y88.026 E66.64057
G1 X88.918 Y88.403 E66.65361
G1 X88.459 Y88.774 E66.66612
G1 X88.027 Y89.141 E66.67814
G1 X87.621 Y89.504 E66.68969
G1 X87.049 Y90.052 E66.70649
G1 X86.402 Y90.749 E66.72665
G1 X85.729 Y91.595 E66.74957
G1 X85.236 Y92.435 E66.77023
G1 X84.931 Y93.191 E66.78751
G1 X84.784 Y93.782 E66.80042
G1 X84.72 Y94.28 E66.81107
G1 X84.783 Y95.074 E66.82796
G1 X85.012 Y95.768 E66.84345
G1 X85.276 Y96.297 E66.85599
G1 X85.695 Y96.935 E66.87217
G1 X86.265 Y97.578 E66.89039
G1 X86.772 Y98.073 E66.90542
G1 X87.329 Y98.561 E66.92112
G1 X87.924 Y99.04 E66.93731
G1 X88.54 Y99.514 E66.9538
G1 X89.79 Y100.453 E66.98694
G1 X90.396 Y100.921 E67.00318
G1 X90.97 Y101.388 E67.01887
G1 X91.509 Y101.865 E67.03413
G1 X91.989 Y102.347 E67.04855
G1 X92.397 Y102.828 E67.06193
G1 X92.792 Y103.411 E67.07686
G1 X92.982 Y103.833 E67.08667
G1 X93.15 Y104.37 E67.0986
G1 X93.228 Y105.092 E67.114
G1 X93.132 Y105.713 E67.12732
G1 X92.922 Y106.364 E67.14183
G1 X92.667 Y106.857 E67.1536
G1 X92.226 Y107.573 E67.17143
G1 X91.637 Y108.321 E67.19161
G1 X91.265 Y108.753 E67.2037
G1 X90.52 Y109.54 E67.22668
G1 X89.896 Y110.161 E67.24535
G1 X87.91 Y112.063 E67.30365
G1 X87.253 Y112.706 E67.32314
G1 X86.619 Y113.352 E67.34234
G1 X86.022 Y114 E67.36102
G1 X85.474 Y114.648 E67.37901
G1 X84.984 Y115.296 E67.39624
G1 X84.567 Y115.941 E67.41252
G1 X84.226 Y116.583 E67.42794
G1 X83.966 Y117.235 E67.44282
G1 X83.776 Y117.948 E67.45847
G1 X83.708 Y118.801 E67.47661
G1 X83.805 Y119.416 E67.48981
G1 X83.982 Y120.037 E67.5035
G1 X84.207 Y120.575 E67.51587
G1 X84.712 Y121.368 E67.5358
G1 X85.153 Y121.88 E67.55013
G1 X85.638 Y122.388 E67.56502
G1 X86.293 Y122.96 E67.58346
G1 X86.898 Y123.415 E67.59951
G1 X87.33 Y123.717 E67.61069
G1 X87.788 Y124.017 E67.6223
G1 X88.272 Y124.314 E67.63434
G1 X88.789 Y124.615 E67.64702
G1 X89.334 Y124.914 E67.6602
G1 X89.959 Y125.239 E67.67514
G1 X89.959 Y130.2 E67.78033
G1 X96.24 Y130.203 E67.91351
G1 X97.198 Y131.026 E67.94029
G1 X97.95 Y131.595 E67.96028
G1 X98.685 Y132.075 E67.97889
G1 X99.286 Y132.405 E67.99343
G1 X99.757 Y132.626 E68.00446
G1 X100.452 Y132.886 E68.0202
G1 X101.127 Y133.041 E68.03488
G1 X102.005 Y133.13 E68.05359
G1 X102.854 Y133.084 E68.07162
G1 X103.695 Y132.89 E68.08992
G1 X104.491 Y132.581 E68.10803
G1 X105.286 Y132.157 E68.12713
G1 X106.065 Y131.646 E68.14689
G1 X106.839 Y131.073 E68.16731
G1 X108.391 Y129.861 E68.20906
G1 X109.177 Y129.287 E68.22969
G1 X109.988 Y128.767 E68.25012
G1 X110.82 Y128.339 E68.26996
G1 X111.687 Y128.023 E68.28953
G1 X112.568 Y127.854 E68.30855
G1 X113.018 Y127.806 E68.31814
G1 X114.088 Y127.835 E68.34084
G1 X114.777 Y127.954 E68.35566
G1 X115.44 Y128.126 E68.37019
G1 X115.947 Y128.285 E68.38145
G1 X116.463 Y128.469 E68.39307
G1 X116.987 Y128.675 E68.40501
G1 X118.067 Y129.141 E68.42995
G1 X119.724 Y129.904 E68.46863
G1 X120.862 Y130.415 E68.49508
G1 X121.441 Y130.658 E68.50839
G1 X122.021 Y130.887 E68.52161
G1 X122.618 Y131.104 E68.53508
G1 X123.19 Y131.289 E68.54783
G1 X123.781 Y131.458 E68.56086
G1 X124.381 Y131.606 E68.57397
G1 X124.961 Y131.719 E68.5865
G1 X125.553 Y131.804 E68.59918
G1 X126.146 Y131.856 E68.6118
G1 X126.738 Y131.874 E68.62436
G1 X127.323 Y131.859 E68.63676
G1 X127.916 Y131.812 E68.64938
G1 X128.499 Y131.735 E68.66185
G1 X129.084 Y131.627 E68.67446
G1 X129.667 Y131.492 E68.68715
G1 X130.247 Y131.332 E68.69991
G1 X130.821 Y131.151 E68.71267
G1 X131.395 Y130.947 E68.72558
G1 X131.963 Y130.728 E68.73849
G1 X132.527 Y130.496 E68.75142
G1 X135.271 Y129.29 E68.81498
G1 X135.82 Y129.06 E68.8276
G1 X136.331 Y128.859 E68.83924
G1 X136.852 Y128.67 E68.85099
G1 X137.365 Y128.502 E68.86244
G1 X137.877 Y128.36 E68.8737
G1 X138.635 Y128.198 E68.89014
G1 X139.369 Y128.117 E68.9058
G1 X140.346 Y128.118 E68.92651
G1 X141.289 Y128.252 E68.94671
G1 X142.194 Y128.518 E68.96671
G1 X142.785 Y128.738 E68.98008
G1 X143.315 Y128.994 E68.99256
G1 X143.99 Y129.369 E69.00893
G1 X144.427 Y129.633 E69.01976
G1 X145.289 Y130.198 E69.04161
G1 X146.99 Y131.372 E69.08543
G1 X147.894 Y131.969 E69.1084
G1 X148.674 Y132.398 E69.12728
G1 X149.519 Y132.794 E69.14707
G1 X150.359 Y133.08 E69.16588
G1 X150.776 Y133.178 E69.17496
G1 X151.642 Y133.287 E69.19347
G1 X152.495 Y133.234 E69.21159
G1 X152.928 Y133.157 E69.22092
G1 X153.817 Y132.885 E69.24063
G1 X154.563 Y132.557 E69.25791
G1 X155.392 Y132.05 E69.27851
G1 X156.17 Y131.453 E69.29931
G1 X156.759 Y130.928 E69.31604
G1 X157.5 Y130.2 E69.33806
G1 X161.62 Y130.2 E69.42542
G1 X161.616 Y125.357 E69.52811
G1 X160.684 Y124.687 E69.55244
G1 X160.095 Y124.188 E69.56881
G1 X159.724 Y123.832 E69.57972
G1 X159.282 Y123.319 E69.59407
G1 X158.934 Y122.776 E69.60775
G1 X158.77 Y122.254 E69.61935
G1 X158.749 Y121.967 E69.62545
G1 X158.837 Y121.508 E69.63536
G1 X159.145 Y121 E69.64796
G1 X159.559 Y120.559 E69.66078
G1 X160.261 Y120.06 E69.67904
G1 X161.798 Y119.157 E69.71684
G1 X162.429 Y118.751 E69.73275
G1 X163.016 Y118.29 E69.74858
G1 X163.466 Y117.778 E69.76303
G1 X163.672 Y117.403 E69.7721
G1 X163.79 Y116.794 E69.78526
G1 X163.769 Y116.512 E69.79125
G1 X163.659 Y116.001 E69.80233
G1 X163.456 Y115.478 E69.81423
