M106 P2 S0.0
M106 P3 S0.0
M106 P4 S0.0
M106 P5 S0.0
M106 P6 S0.2
;FLAVOR:Marlin
;TIME:2643
;Filament used: 2.1685m
;Layer height: 0.15
;MINX:96.409
;MINY:76.411
;MINZ:0.2
;MAXX:153.584
;MAXY:133.589
;MAXZ:5
;Generated with Cura_SteamEngine 5.3.1
M82 ;absolute extrusion mode
G21 ; set units to millimeters
G90 ; use absolute positioning
M82 ; absolute extrusion mode
M104 S200 ; set extruder temp
M140 S60 ; set bed temp
M190 S60 ; wait for bed temp
M109 S200 ; wait for extruder temp
G28 W ; home all without mesh bed level
G80 ; mesh bed leveling
G92 E0.0 ; reset extruder distance position
G1 Y-3.0 F1000.0 ; go outside print area
G1 X60.0 E9.0 F1000.0 ; intro line
G1 X100.0 E21.5 F1000.0 ; intro line
G92 E0.0 ; reset extruder distance position
G92 E0
G92 E0
G1 F2100 E-0.8
;LAYER_COUNT:33
;LAYER:0
M107
G0 F3600 X103.492 Y86.776 Z0.2
;TYPE:SKIRT
G1 F2100 E0
G1 F1800 X104.234 Y85.936 E0.03728
G1 X104.819 Y85.317 E0.06561
G1 X105.533 Y84.611 E0.099
G1 X106.137 Y84.05 E0.12642
G1 X106.859 Y83.423 E0.15822
G1 X107.588 Y82.83 E0.18948
G1 X108.367 Y82.241 E0.22196
G1 X109.203 Y81.652 E0.25598
G1 X109.886 Y81.204 E0.28314
G1 X110.869 Y80.608 E0.32138
G1 X111.503 Y80.252 E0.34556
G1 X112.518 Y79.724 E0.38362
G1 X113.334 Y79.337 E0.41365
G1 X114.23 Y78.948 E0.44614
G1 X114.944 Y78.665 E0.47169
G1 X115.997 Y78.287 E0.5089
G1 X116.76 Y78.041 E0.53556
G1 X117.688 Y77.775 E0.56767
G1 X118.716 Y77.521 E0.60289
G1 X119.549 Y77.342 E0.63123
G1 X120.444 Y77.181 E0.66147
G1 X121.555 Y77.021 E0.69881
G1 X122.385 Y76.932 E0.72657
G1 X123.325 Y76.861 E0.75792
G1 X124.367 Y76.817 E0.79261
G1 X125.174 Y76.811 E0.81945
G1 X126.094 Y76.832 E0.85006
G1 X127.235 Y76.899 E0.88808
G1 X127.899 Y76.96 E0.91025
G1 X129.158 Y77.119 E0.95246
G1 X129.843 Y77.23 E0.97554
G1 X130.937 Y77.442 E1.01261
G1 X131.884 Y77.664 E1.04496
G1 X132.641 Y77.867 E1.07102
G1 X133.578 Y78.148 E1.10356
G1 X134.444 Y78.441 E1.13397
G1 X135.46 Y78.825 E1.17009
G1 X136.328 Y79.188 E1.20139
G1 X137.097 Y79.538 E1.22949
G1 X137.921 Y79.948 E1.2601
G1 X138.878 Y80.465 E1.29628
G1 X139.581 Y80.877 E1.32338
G1 X140.386 Y81.382 E1.35498
G1 X141.252 Y81.969 E1.38978
G1 X142.035 Y82.542 E1.42205
G1 X142.693 Y83.056 E1.44982
G1 X143.424 Y83.667 E1.48151
G1 X144.103 Y84.273 E1.51178
G1 X144.887 Y85.024 E1.54789
G1 X145.586 Y85.744 E1.58127
G1 X146.149 Y86.365 E1.60915
G1 X146.715 Y87.028 E1.63814
G1 X147.31 Y87.772 E1.66983
G1 X147.954 Y88.64 E1.70577
G1 X148.416 Y89.309 E1.73281
G1 X149.004 Y90.221 E1.76891
G1 X149.47 Y91.008 E1.79933
G1 X149.879 Y91.749 E1.82748
G1 X150.352 Y92.679 E1.86218
G1 X150.758 Y93.553 E1.89423
G1 X151.117 Y94.397 E1.92474
G1 X151.476 Y95.327 E1.95789
G1 X151.738 Y96.076 E1.98429
G1 X152.07 Y97.141 E2.02139
G1 X152.268 Y97.859 E2.04616
G1 X152.534 Y98.97 E2.08416
G1 X152.724 Y99.906 E2.11592
G1 X152.85 Y100.648 E2.14096
G1 X153.004 Y101.788 E2.17922
G1 X153.089 Y102.646 E2.20789
G1 X153.149 Y103.539 E2.23766
G1 X153.184 Y104.579 E2.27227
G1 X153.184 Y105.458 E2.30151
G1 X153.154 Y106.378 E2.33212
G1 X153.078 Y107.49 E2.3692
G1 X153.006 Y108.2 E2.39293
G1 X152.85 Y109.352 E2.4316
G1 X152.705 Y110.196 E2.46008
G1 X152.536 Y111.025 E2.48822
G1 X152.295 Y112.037 E2.52282
G1 X152.07 Y112.86 E2.5512
G1 X151.746 Y113.896 E2.5873
G1 X151.479 Y114.663 E2.61431
G1 X151.081 Y115.691 E2.65098
G1 X150.725 Y116.522 E2.68105
G1 X150.358 Y117.308 E2.7099
G1 X149.943 Y118.129 E2.7405
G1 X149.421 Y119.079 E2.77655
G1 X149.005 Y119.776 E2.80355
G1 X148.48 Y120.598 E2.83599
G1 X147.892 Y121.448 E2.87036
G1 X147.393 Y122.121 E2.89823
G1 X146.718 Y122.969 E2.93428
G1 X146.082 Y123.711 E2.96678
G1 X145.587 Y124.255 E2.99124
G1 X144.887 Y124.976 E3.02467
G1 X144.105 Y125.726 E3.06071
G1 X143.503 Y126.265 E3.08758
G1 X142.78 Y126.873 E3.119
G1 X141.951 Y127.521 E3.154
G1 X141.26 Y128.025 E3.18244
G1 X140.389 Y128.616 E3.21745
G1 X139.671 Y129.069 E3.24569
G1 X138.786 Y129.586 E3.27978
G1 X137.925 Y130.051 E3.31233
G1 X137.096 Y130.463 E3.34312
G1 X136.327 Y130.813 E3.37122
G1 X135.458 Y131.176 E3.40254
G1 X134.443 Y131.56 E3.43863
G1 X133.683 Y131.818 E3.46533
G1 X132.64 Y132.133 E3.50157
G1 X131.775 Y132.363 E3.53134
G1 X130.824 Y132.581 E3.56379
G1 X129.867 Y132.766 E3.59621
G1 X128.99 Y132.905 E3.62574
G1 X128.067 Y133.022 E3.65668
G1 X127.229 Y133.101 E3.68468
G1 X126.093 Y133.168 E3.72253
G1 X125.174 Y133.189 E3.7531
G1 X124.367 Y133.183 E3.77995
G1 X123.325 Y133.139 E3.81463
G1 X122.277 Y133.058 E3.84959
G1 X121.554 Y132.979 E3.87378
G1 X120.55 Y132.836 E3.90751
G1 X119.525 Y132.654 E3.94214
G1 X118.759 Y132.492 E3.96818
G1 X117.682 Y132.223 E4.0051
G1 X116.88 Y131.994 E4.03284
G1 X116.002 Y131.714 E4.06349
G1 X115.043 Y131.372 E4.09736
G1 X114.223 Y131.049 E4.12667
G1 X113.238 Y130.619 E4.16242
G1 X112.519 Y130.277 E4.1889
G1 X111.503 Y129.749 E4.22698
G1 X110.859 Y129.387 E4.25155
G1 X109.891 Y128.798 E4.28924
G1 X109.116 Y128.289 E4.32008
G1 X108.356 Y127.752 E4.35103
G1 X107.676 Y127.239 E4.37936
G1 X106.941 Y126.647 E4.41075
G1 X106.141 Y125.953 E4.44598
G1 X105.454 Y125.315 E4.47716
G1 X104.815 Y124.68 E4.50712
G1 X104.156 Y123.981 E4.53907
G1 X103.492 Y123.224 E4.57257
G1 X103.001 Y122.629 E4.59822
G1 X102.362 Y121.8 E4.63304
G1 X101.793 Y121.005 E4.66555
G1 X101.325 Y120.303 E4.69361
G1 X100.8 Y119.459 E4.72667
G1 X100.305 Y118.595 E4.75979
G1 X99.842 Y117.718 E4.79278
G1 X99.427 Y116.864 E4.82436
G1 X99.095 Y116.117 E4.85155
G1 X98.722 Y115.206 E4.88429
G1 X98.378 Y114.273 E4.91736
G1 X98.06 Y113.305 E4.95125
G1 X97.812 Y112.453 E4.98076
G1 X97.602 Y111.639 E5.00872
G1 X97.387 Y110.676 E5.04154
G1 X97.202 Y109.69 E5.07491
G1 X97.065 Y108.789 E5.10522
G1 X96.95 Y107.816 E5.13781
G1 X96.875 Y106.931 E5.16735
G1 X96.823 Y105.876 E5.20248
G1 X96.809 Y104.946 E5.23342
G1 X96.823 Y104.114 E5.26109
G1 X96.876 Y103.062 E5.29613
G1 X96.962 Y102.061 E5.32954
G1 X97.053 Y101.295 E5.3552
G1 X97.193 Y100.363 E5.38655
G1 X97.393 Y99.288 E5.42291
G1 X97.573 Y98.479 E5.45048
G1 X97.84 Y97.447 E5.48593
G1 X98.093 Y96.59 E5.51565
G1 X98.38 Y95.723 E5.54603
G1 X98.681 Y94.899 E5.57521
G1 X99.098 Y93.871 E5.6121
G1 X99.436 Y93.116 E5.63962
G1 X99.89 Y92.188 E5.67398
G1 X100.357 Y91.311 E5.70703
G1 X100.799 Y90.544 E5.73647
G1 X101.325 Y89.697 E5.76963
G1 X101.793 Y88.995 E5.79769
G1 X102.297 Y88.288 E5.82657
G1 X103 Y87.372 E5.86497
G1 X103.492 Y86.776 E5.89068
G0 F3600 X103.192 Y86.511
G1 F1800 X103.943 Y85.661 E5.9284
G1 X104.528 Y85.042 E5.95673
G1 X105.261 Y84.318 E5.991
G1 X105.875 Y83.748 E6.01886
G1 X106.607 Y83.113 E6.05109
G1 X107.347 Y82.511 E6.08282
G1 X108.137 Y81.914 E6.11576
G1 X108.984 Y81.318 E6.1502
G1 X109.679 Y80.862 E6.17785
G1 X110.673 Y80.259 E6.21652
G1 X111.318 Y79.897 E6.24112
G1 X112.333 Y79.369 E6.27917
G1 X113.175 Y78.97 E6.31016
G1 X114.083 Y78.576 E6.34308
G1 X114.809 Y78.289 E6.36905
G1 X115.874 Y77.906 E6.40669
G1 X116.65 Y77.656 E6.43381
G1 X117.592 Y77.387 E6.46639
G1 X118.632 Y77.13 E6.50202
G1 X119.478 Y76.948 E6.53081
G1 X120.387 Y76.785 E6.56152
G1 X121.512 Y76.623 E6.59932
G1 X122.355 Y76.533 E6.62752
G1 X123.308 Y76.461 E6.65931
G1 X124.364 Y76.417 E6.69446
G1 X125.183 Y76.411 E6.7217
G1 X126.117 Y76.433 E6.75278
G1 X127.272 Y76.501 E6.79126
G1 X127.949 Y76.563 E6.81387
G1 X129.222 Y76.724 E6.85655
G1 X129.919 Y76.837 E6.88003
G1 X131.013 Y77.049 E6.9171
G1 X131.988 Y77.278 E6.95041
G1 X132.756 Y77.484 E6.97685
G1 X133.706 Y77.769 E7.00984
G1 X134.585 Y78.067 E7.04071
G1 X135.614 Y78.456 E7.0773
G1 X136.494 Y78.824 E7.10903
G1 X137.275 Y79.18 E7.13757
G1 X138.111 Y79.596 E7.16863
G1 X139.08 Y80.12 E7.20527
G1 X139.794 Y80.538 E7.23279
G1 X140.61 Y81.051 E7.26485
G1 X141.488 Y81.646 E7.30012
G1 X142.281 Y82.227 E7.33282
G1 X142.95 Y82.749 E7.36104
G1 X143.681 Y83.36 E7.39273
G1 X144.38 Y83.984 E7.4239
G1 X145.174 Y84.745 E7.46048
G1 X145.882 Y85.475 E7.4943
G1 X146.453 Y86.105 E7.52258
G1 X147.027 Y86.778 E7.552
G1 X147.631 Y87.534 E7.58418
G1 X148.283 Y88.413 E7.62058
G1 X148.752 Y89.092 E7.64803
G1 X149.348 Y90.017 E7.68463
G1 X149.82 Y90.815 E7.71547
G1 X150.236 Y91.568 E7.74408
G1 X150.715 Y92.51 E7.77923
G1 X151.126 Y93.396 E7.81171
G1 X151.49 Y94.253 E7.84268
G1 X151.854 Y95.195 E7.87627
G1 X152.12 Y95.957 E7.90311
G1 X152.456 Y97.035 E7.94067
G1 X152.657 Y97.766 E7.96588
G1 X152.926 Y98.89 E8.00432
G1 X153.118 Y99.839 E8.03653
G1 X153.246 Y100.594 E8.062
G1 X153.402 Y101.749 E8.10076
G1 X153.488 Y102.619 E8.12984
G1 X153.549 Y103.526 E8.16007
G1 X153.584 Y104.566 E8.19468
G1 X153.584 Y105.471 E8.22479
G1 X153.553 Y106.405 E8.25587
G1 X153.476 Y107.53 E8.29337
G1 X153.402 Y108.254 E8.31758
G1 X153.244 Y109.42 E8.35671
G1 X153.097 Y110.276 E8.3856
G1 X152.925 Y111.118 E8.41418
G1 X152.681 Y112.142 E8.4492
G1 X152.452 Y112.979 E8.47806
G1 X152.124 Y114.028 E8.51461
G1 X151.852 Y114.807 E8.54206
G1 X151.449 Y115.849 E8.57922
G1 X151.093 Y116.68 E8.60929
G1 X150.715 Y117.488 E8.63895
G1 X150.294 Y118.322 E8.67003
G1 X149.772 Y119.272 E8.70608
G1 X149.342 Y119.991 E8.73395
G1 X148.809 Y120.826 E8.76689
G1 X148.213 Y121.686 E8.80169
G1 X147.706 Y122.37 E8.83001
G1 X147.022 Y123.229 E8.86653
G1 X146.378 Y123.98 E8.89944
G1 X145.874 Y124.534 E8.92435
G1 X145.164 Y125.265 E8.95824
G1 X144.372 Y126.024 E8.99473
G1 X143.76 Y126.571 E9.02203
G1 X143.026 Y127.188 E9.05392
G1 X142.187 Y127.844 E9.08934
G1 X141.485 Y128.356 E9.11824
G1 X140.602 Y128.954 E9.15371
G1 X139.873 Y129.414 E9.18238
G1 X138.976 Y129.938 E9.21693
G1 X138.103 Y130.409 E9.24993
G1 X137.262 Y130.827 E9.28116
G1 X136.481 Y131.182 E9.3097
G1 X135.6 Y131.55 E9.34145
G1 X134.572 Y131.939 E9.37801
G1 X133.799 Y132.201 E9.40516
G1 X132.743 Y132.52 E9.44185
G1 X131.864 Y132.753 E9.47209
G1 X130.9 Y132.974 E9.50499
G1 X129.93 Y133.161 E9.53784
G1 X129.04 Y133.302 E9.56781
G1 X128.105 Y133.42 E9.59916
G1 X127.253 Y133.5 E9.62762
G1 X126.102 Y133.568 E9.66597
G1 X125.171 Y133.589 E9.69694
G1 X124.35 Y133.583 E9.72425
G1 X123.294 Y133.538 E9.75941
G1 X122.234 Y133.456 E9.79477
G1 X121.498 Y133.375 E9.81939
G1 X120.48 Y133.23 E9.85359
G1 X119.442 Y133.045 E9.88866
G1 X118.662 Y132.88 E9.91518
G1 X117.572 Y132.608 E9.95254
G1 X116.758 Y132.375 E9.98071
G1 X115.868 Y132.091 E10.01178
G1 X114.896 Y131.744 E10.04611
G1 X114.063 Y131.416 E10.07588
G1 X113.066 Y130.98 E10.11207
G1 X112.335 Y130.632 E10.139
G1 X111.307 Y130.098 E10.17753
G1 X110.651 Y129.729 E10.20256
G1 X109.671 Y129.132 E10.24073
G1 X108.885 Y128.616 E10.272
G1 X108.115 Y128.071 E10.30338
G1 X107.425 Y127.551 E10.33212
G1 X106.679 Y126.949 E10.364
G1 X105.869 Y126.246 E10.39967
G1 X105.172 Y125.599 E10.4313
G1 X104.524 Y124.954 E10.46171
G1 X103.855 Y124.245 E10.49413
G1 X103.183 Y123.479 E10.52803
G1 X102.684 Y122.873 E10.55414
G1 X102.037 Y122.033 E10.5894
G1 X101.46 Y121.227 E10.62237
G1 X100.985 Y120.514 E10.65087
G1 X100.453 Y119.658 E10.68439
G1 X99.951 Y118.782 E10.71797
G1 X99.482 Y117.893 E10.7514
G1 X99.061 Y117.026 E10.78345
G1 X98.725 Y116.269 E10.811
G1 X98.347 Y115.344 E10.84424
G1 X97.998 Y114.398 E10.87777
G1 X97.676 Y113.417 E10.91211
G1 X97.425 Y112.553 E10.94204
G1 X97.212 Y111.726 E10.97044
G1 X96.994 Y110.75 E11.0037
G1 X96.807 Y109.75 E11.03754
G1 X96.668 Y108.836 E11.06829
G1 X96.551 Y107.85 E11.10132
G1 X96.475 Y106.951 E11.13132
G1 X96.423 Y105.882 E11.16692
G1 X96.409 Y104.939 E11.19829
G1 X96.424 Y104.094 E11.2264
G1 X96.477 Y103.028 E11.2619
G1 X96.565 Y102.014 E11.29575
G1 X96.657 Y101.236 E11.32181
G1 X96.8 Y100.29 E11.35363
G1 X97.003 Y99.201 E11.39047
G1 X97.186 Y98.379 E11.41848
G1 X97.456 Y97.334 E11.45438
G1 X97.713 Y96.464 E11.48455
G1 X98.004 Y95.586 E11.51532
G1 X98.31 Y94.749 E11.54496
G1 X98.733 Y93.708 E11.58233
G1 X99.077 Y92.94 E11.61032
G1 X99.537 Y92 E11.64513
G1 X100.01 Y91.111 E11.67862
G1 X100.459 Y90.333 E11.7085
G1 X100.992 Y89.475 E11.74209
G1 X101.467 Y88.763 E11.77056
G1 X101.98 Y88.044 E11.79993
G1 X102.692 Y87.117 E11.83881
G1 X103.192 Y86.511 E11.86494
G1 F2100 E11.06494
;MESH:Circle_50mm.stl
G0 F3600 X104.148 Y90.037
G0 X105.02 Y90.681
G0 X125.61 Y129.092
G0 X125.611 Y129.392
;TYPE:WALL-INNER
G1 F2100 E11.86494
G1 F1800 X126.43 Y129.357 E11.89221
G1 X127.247 Y129.295 E11.91946
G1 X128.063 Y129.205 E11.94676
G1 X128.825 Y129.096 E11.97237
G1 X129.682 Y128.945 E12.00131
G1 X130.482 Y128.775 E12.02851
G1 X131.225 Y128.589 E12.05399
G1 X132.1 Y128.344 E12.08421
G1 X132.791 Y128.12 E12.10837
G1 X133.649 Y127.816 E12.13864
G1 X134.383 Y127.522 E12.16494
G1 X135.133 Y127.195 E12.19216
G1 X135.876 Y126.84 E12.21954
G1 X136.602 Y126.463 E12.24675
G1 X137.317 Y126.061 E12.27403
G1 X138.064 Y125.609 E12.30307
G1 X138.702 Y125.186 E12.32853
G1 X139.374 Y124.714 E12.35585
G1 X140.028 Y124.221 E12.38309
G1 X140.666 Y123.705 E12.41038
G1 X141.282 Y123.17 E12.43752
G1 X141.885 Y122.61 E12.46489
G1 X142.467 Y122.034 E12.49212
G1 X143.03 Y121.436 E12.51944
G1 X143.572 Y120.82 E12.54673
G1 X144.093 Y120.187 E12.574
G1 X144.593 Y119.54 E12.60119
G1 X145.07 Y118.872 E12.62849
G1 X145.537 Y118.175 E12.6564
G1 X145.957 Y117.493 E12.68304
G1 X146.365 Y116.782 E12.7103
G1 X146.748 Y116.057 E12.73757
G1 X147.109 Y115.32 E12.76487
G1 X147.439 Y114.575 E12.79197
G1 X147.75 Y113.812 E12.81937
G1 X148.034 Y113.043 E12.84664
G1 X148.291 Y112.265 E12.87389
G1 X148.522 Y111.477 E12.9012
G1 X148.726 Y110.685 E12.92841
G1 X148.904 Y109.883 E12.95573
G1 X149.055 Y109.078 E12.98297
G1 X149.187 Y108.22 E13.01184
G1 X149.273 Y107.455 E13.03745
G1 X149.345 Y106.618 E13.06539
G1 X149.384 Y105.819 E13.092
G1 X149.397 Y104.998 E13.11931
G1 X149.384 Y104.179 E13.14655
G1 X149.343 Y103.36 E13.17382
G1 X149.274 Y102.544 E13.20106
G1 X149.183 Y101.78 E13.22665
G1 X149.055 Y100.919 E13.2556
G1 X148.904 Y100.113 E13.28288
G1 X148.726 Y99.314 E13.3101
G1 X148.52 Y98.519 E13.33742
G1 X148.291 Y97.733 E13.36465
G1 X148.032 Y96.953 E13.39198
G1 X147.75 Y96.185 E13.41919
G1 X147.439 Y95.426 E13.44648
G1 X147.107 Y94.676 E13.47376
G1 X146.748 Y93.943 E13.5009
G1 X146.363 Y93.216 E13.52826
G1 X145.955 Y92.503 E13.55559
G1 X145.525 Y91.808 E13.58277
G1 X145.07 Y91.128 E13.60998
G1 X144.591 Y90.458 E13.63738
G1 X144.093 Y89.813 E13.66448
G1 X143.57 Y89.178 E13.69184
G1 X143.028 Y88.562 E13.71913
G1 X142.465 Y87.964 E13.74645
G1 X141.883 Y87.388 E13.77368
G1 X141.282 Y86.83 E13.80096
G1 X140.664 Y86.293 E13.82819
G1 X140.026 Y85.777 E13.85548
G1 X139.372 Y85.284 E13.88272
G1 X138.704 Y84.814 E13.90989
G1 X138.062 Y84.395 E13.93539
G1 X137.316 Y83.938 E13.96448
G1 X136.602 Y83.537 E13.99172
G1 X135.872 Y83.158 E14.01908
G1 X135.133 Y82.805 E14.04632
G1 X134.384 Y82.479 E14.07349
G1 X133.649 Y82.187 E14.09979
G1 X132.791 Y81.88 E14.1301
G1 X132.1 Y81.658 E14.15424
G1 X131.224 Y81.41 E14.18452
G1 X130.482 Y81.225 E14.20995
G1 X129.681 Y81.054 E14.2372
G1 X128.825 Y80.901 E14.26612
G1 X128.047 Y80.792 E14.29225
G1 X127.247 Y80.705 E14.31901
G1 X126.43 Y80.643 E14.34626
G1 X125.61 Y80.608 E14.37356
G1 X124.794 Y80.602 E14.4007
G1 X123.976 Y80.622 E14.42792
G1 X123.157 Y80.67 E14.4552
G1 X122.342 Y80.747 E14.48243
G1 X121.576 Y80.843 E14.50811
G1 X120.718 Y80.978 E14.537
G1 X119.914 Y81.136 E14.56425
G1 X119.111 Y81.322 E14.59166
G1 X118.323 Y81.531 E14.61878
G1 X117.537 Y81.77 E14.6461
G1 X116.758 Y82.034 E14.67346
G1 X115.995 Y82.323 E14.7006
G1 X115.235 Y82.639 E14.72797
G1 X114.49 Y82.98 E14.75523
G1 X113.758 Y83.344 E14.78242
G1 X113.035 Y83.736 E14.80977
G1 X112.327 Y84.149 E14.83703
G1 X111.634 Y84.587 E14.8643
G1 X110.959 Y85.044 E14.89141
G1 X110.294 Y85.529 E14.91879
G1 X109.649 Y86.034 E14.94603
G1 X109.02 Y86.561 E14.97333
G1 X108.429 Y87.09 E14.99971
G1 X107.817 Y87.675 E15.02787
G1 X107.245 Y88.262 E15.05513
G1 X106.692 Y88.867 E15.08239
G1 X106.161 Y89.493 E15.10969
G1 X105.651 Y90.134 E15.13693
G1 X105.163 Y90.794 E15.16423
G1 X104.696 Y91.469 E15.19153
G1 X104.253 Y92.156 E15.21872
G1 X103.834 Y92.861 E15.246
G1 X103.436 Y93.58 E15.27333
G1 X103.067 Y94.307 E15.30045
G1 X102.719 Y95.052 E15.3278
G1 X102.396 Y95.808 E15.35514
G1 X102.102 Y96.571 E15.38234
G1 X101.83 Y97.346 E15.40966
G1 X101.587 Y98.128 E15.43689
G1 X101.37 Y98.915 E15.46405
G1 X101.178 Y99.715 E15.49141
G1 X101.01 Y100.535 E15.51925
