M106 P2 S0.0    ;deactivateAllLaser
M106 P3 S0.0    ;deactivateAllLaser
M106 P4 S0.0    ;deactivateAllLaser
M106 P5 S0.0    ;deactivateAllLaser
M106 P6 S0.0    ;deactivateAllLaser
M106 P7 S0.0    ;deactivateAllLaser
M106 P6 S0.8
;FLAVOR:Marlin
;TIME:2926
;Filament used: 2.31705m
;Layer height: 0.2
;MINX:111
;MINY:91
;MINZ:0.2
;MAXX:139
;MAXY:119
;MAXZ:40
;Generated with Cura_SteamEngine 5.2.2
M82 ;absolute extrusion mode
G21 ; set units to millimeters
G90 ; use absolute positioning
M82 ; absolute extrusion mode
M104 S200 ; set extruder temp
M140 S60 ; set bed temp
M190 S60 ; wait for bed temp
M109 S200 ; wait for extruder temp
G28 W ; home all without mesh bed level
G80 ; mesh bed leveling
G92 E0.0 ; reset extruder distance position
G1 Y-3.0 F1000.0 ; go outside print area
G1 X60.0 E9.0 F1000.0 ; intro line
G1 X100.0 E21.5 F1000.0 ; intro line
G92 E0.0 ; reset extruder distance position
M83 ;relative extrusion mode
G1 F2100 E-0.8
;LAYER_COUNT:200
;LAYER:0
M107
G0 F3600 X112.004 Y92.369 Z0.2
;TYPE:SKIRT
G1 F2100 E0.8
G1 F1200 X112.406 Y91.972 E0.01879
G1 X112.86 Y91.635 E0.01881
G1 X113.357 Y91.366 E0.0188
G1 X113.887 Y91.169 E0.01881
G1 X114.44 Y91.05 E0.01881
G1 X115.026 Y91 E0.01956
G1 X134.35 Y91 E0.64272
G1 X135.048 Y91.01 E0.02322
G1 X135.612 Y91.058 E0.01883
G1 X136.162 Y91.185 E0.01877
G1 X136.69 Y91.389 E0.01883
G1 X137.184 Y91.664 E0.0188
G1 X137.633 Y92.007 E0.01879
G1 X138.03 Y92.409 E0.01879
G1 X138.367 Y92.864 E0.01883
G1 X138.635 Y93.361 E0.01878
G1 X138.831 Y93.891 E0.01879
G1 X138.951 Y94.444 E0.01882
G1 X139 Y95.029 E0.01953
G1 X139 Y114.314 E0.64142
G1 X138.991 Y115.041 E0.02418
G1 X138.944 Y115.604 E0.01879
G1 X138.818 Y116.155 E0.0188
G1 X138.616 Y116.683 E0.0188
G1 X138.341 Y117.177 E0.0188
G1 X137.999 Y117.627 E0.0188
G1 X137.597 Y118.025 E0.01882
G1 X137.144 Y118.362 E0.01878
G1 X136.647 Y118.632 E0.01881
G1 X136.117 Y118.829 E0.01881
G1 X135.565 Y118.95 E0.0188
G1 X134.973 Y119 E0.01976
G1 X115.655 Y119 E0.64252
G1 X114.957 Y118.991 E0.02322
G1 X114.394 Y118.943 E0.01879
G1 X113.843 Y118.817 E0.0188
G1 X113.315 Y118.615 E0.0188
G1 X112.821 Y118.34 E0.0188
G1 X112.371 Y117.998 E0.0188
G1 X111.973 Y117.596 E0.01882
G1 X111.637 Y117.142 E0.01879
G1 X111.367 Y116.645 E0.01881
G1 X111.17 Y116.115 E0.01881
G1 X111.05 Y115.563 E0.01879
G1 X111.001 Y114.995 E0.01896
G1 X111 Y95.62 E0.64442
G1 X111.009 Y94.955 E0.02212
G1 X111.057 Y94.392 E0.01879
G1 X111.183 Y93.841 E0.0188
G1 X111.386 Y93.313 E0.01881
G1 X111.662 Y92.819 E0.01882
G1 X112.004 Y92.369 E0.0188
G0 F3600 X112.397 Y92.531
G1 F1200 X112.794 Y92.171 E0.01782
G1 X113.241 Y91.873 E0.01787
G1 X113.726 Y91.645 E0.01782
G1 X114.24 Y91.492 E0.01784
G1 X114.981 Y91.401 E0.02483
G1 X134.345 Y91.4 E0.64405
G1 X135.043 Y91.41 E0.02322
G1 X135.577 Y91.458 E0.01783
G1 X136.098 Y91.584 E0.01783
G1 X136.595 Y91.787 E0.01786
G1 X137.056 Y92.061 E0.01784
G1 X137.471 Y92.4 E0.01782
G1 X137.831 Y92.798 E0.01785
G1 X138.128 Y93.244 E0.01782
G1 X138.356 Y93.73 E0.01785
G1 X138.508 Y94.244 E0.01783
G1 X138.599 Y94.982 E0.02473
G1 X138.6 Y114.309 E0.64282
G1 X138.591 Y115.036 E0.02418
G1 X138.544 Y115.57 E0.01783
G1 X138.419 Y116.091 E0.01782
G1 X138.217 Y116.588 E0.01784
G1 X137.944 Y117.05 E0.01785
G1 X137.606 Y117.466 E0.01783
G1 X137.209 Y117.827 E0.01785
G1 X136.763 Y118.125 E0.01784
G1 X136.278 Y118.353 E0.01782
G1 X135.764 Y118.507 E0.01785
G1 X135.019 Y118.599 E0.02497
G1 X115.661 Y118.6 E0.64385
G1 X114.963 Y118.591 E0.02322
G1 X114.428 Y118.544 E0.01786
G1 X113.907 Y118.418 E0.01783
G1 X113.41 Y118.216 E0.01784
G1 X112.949 Y117.943 E0.01782
G1 X112.533 Y117.604 E0.01785
G1 X112.172 Y117.208 E0.01782
G1 X111.874 Y116.762 E0.01784
G1 X111.646 Y116.276 E0.01785
G1 X111.493 Y115.762 E0.01784
G1 X111.401 Y115.015 E0.02503
G1 X111.4 Y95.625 E0.64491
G1 X111.409 Y94.96 E0.02212
G1 X111.457 Y94.426 E0.01783
G1 X111.583 Y93.905 E0.01783
G1 X111.785 Y93.408 E0.01784
G1 X112.058 Y92.947 E0.01782
G1 X112.397 Y92.531 E0.01785
G0 F3600 X112.789 Y92.704
G1 F1200 X113.18 Y92.383 E0.01683
G1 X113.617 Y92.128 E0.01683
G1 X114.088 Y91.944 E0.01682
G1 X114.582 Y91.838 E0.0168
G1 X115.027 Y91.801 E0.01485
G1 X134.339 Y91.8 E0.64232
G1 X135.037 Y91.81 E0.02322
G1 X135.54 Y91.857 E0.0168
G1 X136.03 Y91.983 E0.01683
G1 X136.494 Y92.185 E0.01683
G1 X136.92 Y92.457 E0.01681
G1 X137.298 Y92.792 E0.0168
G1 X137.618 Y93.183 E0.0168
G1 X137.873 Y93.62 E0.01683
G1 X138.056 Y94.091 E0.01681
G1 X138.163 Y94.585 E0.01681
G1 X138.199 Y95.24 E0.02182
G1 X138.2 Y114.304 E0.63407
G1 X138.191 Y115.031 E0.02418
G1 X138.145 Y115.534 E0.0168
G1 X138.02 Y116.024 E0.01682
G1 X137.819 Y116.488 E0.01682
G1 X137.548 Y116.915 E0.01682
G1 X137.213 Y117.294 E0.01682
G1 X136.823 Y117.615 E0.0168
G1 X136.387 Y117.871 E0.01682
G1 X135.916 Y118.054 E0.01681
G1 X135.422 Y118.162 E0.01682
G1 X134.972 Y118.199 E0.01502
G1 X115.666 Y118.2 E0.64212
G1 X114.968 Y118.191 E0.02322
G1 X114.464 Y118.144 E0.01684
G1 X113.974 Y118.019 E0.01682
G1 X113.51 Y117.818 E0.01682
G1 X113.084 Y117.547 E0.01679
G1 X112.705 Y117.212 E0.01682
G1 X112.384 Y116.821 E0.01683
G1 X112.129 Y116.385 E0.0168
G1 X111.945 Y115.914 E0.01682
G1 X111.838 Y115.42 E0.01681
G1 X111.801 Y114.967 E0.01512
G1 X111.8 Y95.631 E0.64312
G1 X111.809 Y94.966 E0.02212
G1 X111.856 Y94.462 E0.01684
G1 X111.982 Y93.973 E0.0168
G1 X112.183 Y93.509 E0.01682
G1 X112.454 Y93.082 E0.01682
G1 X112.789 Y92.704 E0.0168
G1 F2100 E-0.8
;MESH:20x20x40_Cubus.stl
G0 F3600 X115.414 Y94.335
G0 X115.414 Y95.414
G0 X115.87 Y114.13
G1 F2100 E0.8
G0 F3600 X115.6 Y114.4
;TYPE:WALL-INNER
G1 F1200 X134.4 Y114.4 E0.59403
G1 X134.4 Y95.6 E0.59403
G1 X115.6 Y95.6 E0.59403
G1 X115.6 Y114.4 E0.59403
G0 F3600 X115.87 Y114.13
G0 X115.47 Y95.47
G0 X115.2 Y95.2
;TYPE:WALL-OUTER
G1 F1200 X115.2 Y114.8 E0.6193
G1 X134.8 Y114.8 E0.6193
G1 X134.8 Y95.2 E0.6193
G1 X115.2 Y95.2 E0.6193
G0 F3600 X115.2 Y95.4
G0 X115.87 Y95.87
G0 X134.02 Y114.02
;TYPE:SKIN
G1 F1200 X134.02 Y95.98 E0.60001
G1 X115.98 Y95.98 E0.60001
G1 X115.98 Y114.02 E0.60001
G1 X134.02 Y114.02 E0.60001
G0 F3600 X133.6 Y113.82
G1 F1200 X133.6 Y96.18 E0.58671
G0 F3600 X133.2 Y96.18
G1 F1200 X133.2 Y113.82 E0.58671
G0 F3600 X132.8 Y113.82
G1 F1200 X132.8 Y96.18 E0.58671
G0 F3600 X132.4 Y96.18
G1 F1200 X132.4 Y113.82 E0.58671
G0 F3600 X132 Y113.82
G1 F1200 X132 Y96.18 E0.58671
G0 F3600 X131.6 Y96.18
G1 F1200 X131.6 Y113.82 E0.58671
G0 F3600 X131.2 Y113.82
G1 F1200 X131.2 Y96.18 E0.58671
G0 F3600 X130.8 Y96.18
G1 F1200 X130.8 Y113.82 E0.58671
G0 F3600 X130.4 Y113.82
G1 F1200 X130.4 Y96.18 E0.58671
G0 F3600 X130 Y96.18
G1 F1200 X130 Y113.82 E0.58671
G0 F3600 X129.6 Y113.82
G1 F1200 X129.6 Y96.18 E0.58671
G0 F3600 X129.2 Y96.18
G1 F1200 X129.2 Y113.82 E0.58671
G0 F3600 X128.8 Y113.82
G1 F1200 X128.8 Y96.18 E0.58671
G0 F3600 X128.4 Y96.18
G1 F1200 X128.4 Y113.82 E0.58671
G0 F3600 X128 Y113.82
G1 F1200 X128 Y96.18 E0.58671
G0 F3600 X127.6 Y96.18
G1 F1200 X127.6 Y113.82 E0.58671
G0 F3600 X127.2 Y113.82
G1 F1200 X127.2 Y96.18 E0.58671
G0 F3600 X126.8 Y96.18
G1 F1200 X126.8 Y113.82 E0.58671
G0 F3600 X126.4 Y113.82
G1 F1200 X126.4 Y96.18 E0.58671
G0 F3600 X126 Y96.18
G1 F1200 X126 Y113.82 E0.58671
G0 F3600 X125.6 Y113.82
G1 F1200 X125.6 Y96.18 E0.58671
G0 F3600 X125.2 Y96.18
G1 F1200 X125.2 Y113.82 E0.58671
G0 F3600 X124.8 Y113.82
G1 F1200 X124.8 Y96.18 E0.58671
G0 F3600 X124.4 Y96.18
G1 F1200 X124.4 Y113.82 E0.58671
G0 F3600 X124 Y113.82
G1 F1200 X124 Y96.18 E0.58671
G0 F3600 X123.6 Y96.18
G1 F1200 X123.6 Y113.82 E0.58671
G0 F3600 X123.2 Y113.82
G1 F1200 X123.2 Y96.18 E0.58671
G0 F3600 X122.8 Y96.18
G1 F1200 X122.8 Y113.82 E0.58671
G0 F3600 X122.4 Y113.82
G1 F1200 X122.4 Y96.18 E0.58671
G0 F3600 X122 Y96.18
G1 F1200 X122 Y113.82 E0.58671
G0 F3600 X121.6 Y113.82
G1 F1200 X121.6 Y96.18 E0.58671
G0 F3600 X121.2 Y96.18
G1 F1200 X121.2 Y113.82 E0.58671
G0 F3600 X120.8 Y113.82
G1 F1200 X120.8 Y96.18 E0.58671
G0 F3600 X120.4 Y96.18
G1 F1200 X120.4 Y113.82 E0.58671
G0 F3600 X120 Y113.82
G1 F1200 X120 Y96.18 E0.58671
G0 F3600 X119.6 Y96.18
G1 F1200 X119.6 Y113.82 E0.58671
G0 F3600 X119.2 Y113.82
G1 F1200 X119.2 Y96.18 E0.58671
G0 F3600 X118.8 Y96.18
G1 F1200 X118.8 Y113.82 E0.58671
G0 F3600 X118.4 Y113.82
G1 F1200 X118.4 Y96.18 E0.58671
G0 F3600 X118 Y96.18
G1 F1200 X118 Y113.82 E0.58671
G0 F3600 X117.6 Y113.82
G1 F1200 X117.6 Y96.18 E0.58671
G0 F3600 X117.2 Y96.18
G1 F1200 X117.2 Y113.82 E0.58671
G0 F3600 X116.8 Y113.82
G1 F1200 X116.8 Y96.18 E0.58671
G0 F3600 X116.4 Y96.18
G1 F1200 X116.4 Y113.82 E0.58671
G1 X116.4 Y113.92
M104 S200
G0 F3600 X116.4 Y113.8
;MESH:NONMESH
G0 F600 X116.4 Y113.8 Z0.4
G0 F3600 X115.9 Y105
G0 X115.6 Y105
;TIME_ELAPSED:73.468520
;LAYER:1
M106 S255
;TYPE:WALL-INNER
;MESH:20x20x40_Cubus.stl
G1 F1800 X115.6 Y114.4 E0.29701
G1 X134.4 Y114.4 E0.59403
G1 X134.4 Y95.6 E0.59403
G1 X115.6 Y95.6 E0.59403
G1 X115.6 Y105 E0.29701
G0 F5400 X115.2 Y105
;TYPE:WALL-OUTER
G1 F1200 X115.2 Y114.8 E0.30965
G1 X134.8 Y114.8 E0.6193
G1 X134.8 Y95.2 E0.6193
G1 X115.2 Y95.2 E0.6193
G1 X115.2 Y105 E0.30965
G0 F5400 X115.2 Y105.2
G0 X115.9 Y105.2
G0 X134.02 Y114.02
;TYPE:SKIN
G1 F1200 X134.02 Y95.98 E0.60001
G1 X115.98 Y95.98 E0.60001
G1 X115.98 Y114.02 E0.60001
G1 X134.02 Y114.02 E0.60001
G0 F5400 X133.82 Y113.6
G1 F1200 X116.18 Y113.6 E0.58671
G0 F5400 X116.18 Y113.2
G1 F1200 X133.82 Y113.2 E0.58671
G0 F5400 X133.82 Y112.8
G1 F1200 X116.18 Y112.8 E0.58671
G0 F5400 X116.18 Y112.4
G1 F1200 X133.82 Y112.4 E0.58671
G0 F5400 X133.82 Y112
G1 F1200 X116.18 Y112 E0.58671
G0 F5400 X116.18 Y111.6
G1 F1200 X133.82 Y111.6 E0.58671
G0 F5400 X133.82 Y111.2
G1 F1200 X116.18 Y111.2 E0.58671
G0 F5400 X116.18 Y110.8
G1 F1200 X133.82 Y110.8 E0.58671
G0 F5400 X133.82 Y110.4
G1 F1200 X116.18 Y110.4 E0.58671
G0 F5400 X116.18 Y110
G1 F1200 X133.82 Y110 E0.58671
G0 F5400 X133.82 Y109.6
G1 F1200 X116.18 Y109.6 E0.58671
G0 F5400 X116.18 Y109.2
G1 F1200 X133.82 Y109.2 E0.58671
G0 F5400 X133.82 Y108.8
G1 F1200 X116.18 Y108.8 E0.58671
G0 F5400 X116.18 Y108.4
G1 F1200 X133.82 Y108.4 E0.58671
G0 F5400 X133.82 Y108
G1 F1200 X116.18 Y108 E0.58671
G0 F5400 X116.18 Y107.6
G1 F1200 X133.82 Y107.6 E0.58671
G0 F5400 X133.82 Y107.2
G1 F1200 X116.18 Y107.2 E0.58671
G0 F5400 X116.18 Y106.8
G1 F1200 X133.82 Y106.8 E0.58671
G0 F5400 X133.82 Y106.4
G1 F1200 X116.18 Y106.4 E0.58671
G0 F5400 X116.18 Y106
G1 F1200 X133.82 Y106 E0.58671
G0 F5400 X133.82 Y105.6
G1 F1200 X116.18 Y105.6 E0.58671
G0 F5400 X116.18 Y105.2
G1 F1200 X133.82 Y105.2 E0.58671
G0 F5400 X133.82 Y104.8
G1 F1200 X116.18 Y104.8 E0.58671
G0 F5400 X116.18 Y104.4
G1 F1200 X133.82 Y104.4 E0.58671
G0 F5400 X133.82 Y104
G1 F1200 X116.18 Y104 E0.58671
G0 F5400 X116.18 Y103.6
G1 F1200 X133.82 Y103.6 E0.58671
G0 F5400 X133.82 Y103.2
G1 F1200 X116.18 Y103.2 E0.58671
G0 F5400 X116.18 Y102.8
G1 F1200 X133.82 Y102.8 E0.58671
G0 F5400 X133.82 Y102.4
G1 F1200 X116.18 Y102.4 E0.58671
G0 F5400 X116.18 Y102
G1 F1200 X133.82 Y102 E0.58671
G0 F5400 X133.82 Y101.6
G1 F1200 X116.18 Y101.6 E0.58671
G0 F5400 X116.18 Y101.2
G1 F1200 X133.82 Y101.2 E0.58671
G0 F5400 X133.82 Y100.8
G1 F1200 X116.18 Y100.8 E0.58671
G0 F5400 X116.18 Y100.4
G1 F1200 X133.82 Y100.4 E0.58671
G0 F5400 X133.82 Y100
G1 F1200 X116.18 Y100 E0.58671
G0 F5400 X116.18 Y99.6
G1 F1200 X133.82 Y99.6 E0.58671
G0 F5400 X133.82 Y99.2
G1 F1200 X116.18 Y99.2 E0.58671
G0 F5400 X116.18 Y98.8
G1 F1200 X133.82 Y98.8 E0.58671
G0 F5400 X133.82 Y98.4
G1 F1200 X116.18 Y98.4 E0.58671
G0 F5400 X116.18 Y98
G1 F1200 X133.82 Y98 E0.58671
G0 F5400 X133.82 Y97.6
G1 F1200 X116.18 Y97.6 E0.58671
G0 F5400 X116.18 Y97.2
G1 F1200 X133.82 Y97.2 E0.58671
G0 F5400 X133.82 Y96.8
G1 F1200 X116.18 Y96.8 E0.58671
G0 F5400 X116.18 Y96.4
G1 F1200 X133.82 Y96.4 E0.58671
G1 X133.92 Y96.4
G0 F5400 X133.8 Y96.4
;MESH:NONMESH
G0 F600 X133.8 Y96.4 Z0.6
G0 F5400 X134.13 Y114.13
G0 X134.4 Y114.4
;TIME_ELAPSED:125.020171
;LAYER:2
;TYPE:WALL-INNER
;MESH:20x20x40_Cubus.stl
G1 F2400 X134.4 Y95.6 E0.59403
G1 X115.6 Y95.6 E0.59403
G1 X115.6 Y105 E0.29701
G1 X115.6 Y114.4 E0.29701
G1 X134.4 Y114.4 E0.59403
G0 F7200 X134.13 Y114.13
G0 X115.9 Y105
G0 X115.2 Y105
;TYPE:WALL-OUTER
G1 F1200 X115.2 Y114.8 E0.30965
G1 X134.8 Y114.8 E0.6193
G1 X134.8 Y95.2 E0.6193
G1 X115.2 Y95.2 E0.6193
G1 X115.2 Y105 E0.30965
G0 F7200 X115.2 Y105.2
G0 X115.9 Y105.2
G0 X134.02 Y95.98
;TYPE:SKIN
G1 F1200 X115.98 Y95.98 E0.60001
G1 X115.98 Y114.02 E0.60001
G1 X134.02 Y114.02 E0.60001
G1 X134.02 Y95.98 E0.60001
G0 F7200 X133.6 Y113.82
G1 F1200 X133.6 Y96.18 E0.58671
G0 F7200 X133.2 Y96.18
G1 F1200 X133.2 Y113.82 E0.58671
G0 F7200 X132.8 Y113.82
G1 F1200 X132.8 Y96.18 E0.58671
G0 F7200 X132.4 Y96.18
G1 F1200 X132.4 Y113.82 E0.58671
G0 F7200 X132 Y113.82
G1 F1200 X132 Y96.18 E0.58671
G0 F7200 X131.6 Y96.18
G1 F1200 X131.6 Y113.82 E0.58671
G0 F7200 X131.2 Y113.82
G1 F1200 X131.2 Y96.18 E0.58671
G0 F7200 X130.8 Y96.18
G1 F1200 X130.8 Y113.82 E0.58671
G0 F7200 X130.4 Y113.82
G1 F1200 X130.4 Y96.18 E0.58671
G0 F7200 X130 Y96.18
G1 F1200 X130 Y113.82 E0.58671
G0 F7200 X129.6 Y113.82
G1 F1200 X129.6 Y96.18 E0.58671
G0 F7200 X129.2 Y96.18
G1 F1200 X129.2 Y113.82 E0.58671
G0 F7200 X128.8 Y113.82
G1 F1200 X128.8 Y96.18 E0.58671
G0 F7200 X128.4 Y96.18
G1 F1200 X128.4 Y113.82 E0.58671
G0 F7200 X128 Y113.82
G1 F1200 X128 Y96.18 E0.58671
G0 F7200 X127.6 Y96.18
G1 F1200 X127.6 Y113.82 E0.58671
G0 F7200 X127.2 Y113.82
G1 F1200 X127.2 Y96.18 E0.58671
G0 F7200 X126.8 Y96.18
G1 F1200 X126.8 Y113.82 E0.58671
G0 F7200 X126.4 Y113.82
G1 F1200 X126.4 Y96.18 E0.58671
G0 F7200 X126 Y96.18
G1 F1200 X126 Y113.82 E0.58671
G0 F7200 X125.6 Y113.82
G1 F1200 X125.6 Y96.18 E0.58671
G0 F7200 X125.2 Y96.18
G1 F1200 X125.2 Y113.82 E0.58671
G0 F7200 X124.8 Y113.82
G1 F1200 X124.8 Y96.18 E0.58671
G0 F7200 X124.4 Y96.18
G1 F1200 X124.4 Y113.82 E0.58671
G0 F7200 X124 Y113.82
G1 F1200 X124 Y96.18 E0.58671
G0 F7200 X123.6 Y96.18
G1 F1200 X123.6 Y113.82 E0.58671
G0 F7200 X123.2 Y113.82
G1 F1200 X123.2 Y96.18 E0.58671
G0 F7200 X122.8 Y96.18
G1 F1200 X122.8 Y113.82 E0.58671
G0 F7200 X122.4 Y113.82
G1 F1200 X122.4 Y96.18 E0.58671
G0 F7200 X122 Y96.18
G1 F1200 X122 Y113.82 E0.58671
G0 F7200 X121.6 Y113.82
G1 F1200 X121.6 Y96.18 E0.58671
G0 F7200 X121.2 Y96.18
G1 F1200 X121.2 Y113.82 E0.58671
G0 F7200 X120.8 Y113.82
G1 F1200 X120.8 Y96.18 E0.58671
G0 F7200 X120.4 Y96.18
G1 F1200 X120.4 Y113.82 E0.58671
G0 F7200 X120 Y113.82
G1 F1200 X120 Y96.18 E0.58671
G0 F7200 X119.6 Y96.18
G1 F1200 X119.6 Y113.82 E0.58671
G0 F7200 X119.2 Y113.82
G1 F1200 X119.2 Y96.18 E0.58671
G0 F7200 X118.8 Y96.18
G1 F1200 X118.8 Y113.82 E0.58671
G0 F7200 X118.4 Y113.82
G1 F1200 X118.4 Y96.18 E0.58671
G0 F7200 X118 Y96.18
G1 F1200 X118 Y113.82 E0.58671
G0 F7200 X117.6 Y113.82
G1 F1200 X117.6 Y96.18 E0.58671
G0 F7200 X117.2 Y96.18
G1 F1200 X117.2 Y113.82 E0.58671
G0 F7200 X116.8 Y113.82
G1 F1200 X116.8 Y96.18 E0.58671
G0 F7200 X116.4 Y96.18
G1 F1200 X116.4 Y113.82 E0.58671
G1 X116.4 Y113.92
G0 F7200 X116.4 Y113.8
;MESH:NONMESH
G0 F600 X116.4 Y113.8 Z0.8
G0 F7200 X115.6 Y114.4
;TIME_ELAPSED:176.240740
;LAYER:3
;TYPE:WALL-INNER
;MESH:20x20x40_Cubus.stl
G1 F2400 X134.4 Y114.4 E0.59403
G1 X134.4 Y95.6 E0.59403
G1 X115.6 Y95.6 E0.59403
G1 X115.6 Y105 E0.29701
G1 X115.6 Y114.4 E0.29701
G0 F7200 X115.87 Y114.13
G0 X115.9 Y105
G0 X115.2 Y105
;TYPE:WALL-OUTER
G1 F1200 X115.2 Y114.8 E0.30965
G1 X134.8 Y114.8 E0.6193
G1 X134.8 Y95.2 E0.6193
G1 X115.2 Y95.2 E0.6193
G1 X115.2 Y105 E0.30965
G0 F7200 X115.2 Y105.2
G0 X115.9 Y105.2
G0 X134.02 Y114.02
;TYPE:SKIN
G1 F1200 X134.02 Y95.98 E0.60001
G1 X115.98 Y95.98 E0.60001
G1 X115.98 Y114.02 E0.60001
G1 X134.02 Y114.02 E0.60001
G0 F7200 X133.82 Y113.6
G1 F1200 X116.18 Y113.6 E0.58671
G0 F7200 X116.18 Y113.2
G1 F1200 X133.82 Y113.2 E0.58671
G0 F7200 X133.82 Y112.8
G1 F1200 X116.18 Y112.8 E0.58671
G0 F7200 X116.18 Y112.4
G1 F1200 X133.82 Y112.4 E0.58671
G0 F7200 X133.82 Y112
G1 F1200 X116.18 Y112 E0.58671
G0 F7200 X116.18 Y111.6
G1 F1200 X133.82 Y111.6 E0.58671
G0 F7200 X133.82 Y111.2
G1 F1200 X116.18 Y111.2 E0.58671
G0 F7200 X116.18 Y110.8
G1 F1200 X133.82 Y110.8 E0.58671
G0 F7200 X133.82 Y110.4
G1 F1200 X116.18 Y110.4 E0.58671
G0 F7200 X116.18 Y110
