M106 P2 S0.0    ;deactivateAllLaser
M106 P3 S0.0    ;deactivateAllLaser
M106 P4 S0.0    ;deactivateAllLaser
M106 P5 S0.0    ;deactivateAllLaser
M106 P6 S0.0    ;deactivateAllLaser
M106 P7 S0.0    ;deactivateAllLaser
M106 P6 S0.8
;FLAVOR:Marlin
;TIME:2538
;Filament used: 2.01672m
;Layer height: 0.2
;MINX:111
;MINY:89.472
;MINZ:0.2
;MAXX:139
;MAXY:120.528
;MAXZ:40
;Generated with Cura_SteamEngine 5.2.2
M82 ;absolute extrusion mode
G21 ; set units to millimeters
G90 ; use absolute positioning
M82 ; absolute extrusion mode
M104 S200 ; set extruder temp
M140 S60 ; set bed temp
M190 S60 ; wait for bed temp
M109 S200 ; wait for extruder temp
G28 W ; home all without mesh bed level
G80 ; mesh bed leveling
G92 E0.0 ; reset extruder distance position
G1 Y-3.0 F1000.0 ; go outside print area
G1 X60.0 E9.0 F1000.0 ; intro line
G1 X100.0 E21.5 F1000.0 ; intro line
G92 E0.0 ; reset extruder distance position
M83 ;relative extrusion mode
G1 F2100 E-0.8
;LAYER_COUNT:200
;LAYER:0
M107
G0 F3600 X112.007 Y96.59 Z0.2
;TYPE:SKIRT
G1 F2100 E0.8
G1 F1200 X112.409 Y96.193 E0.01879
G1 X112.961 Y95.797 E0.0226
G1 X113.632 Y95.397 E0.02598
G1 X122.465 Y90.298 E0.33922
G1 X123.054 Y89.97 E0.02242
G1 X123.566 Y89.731 E0.01879
G1 X124.107 Y89.566 E0.01881
G1 X124.665 Y89.479 E0.01878
G1 X125.231 Y89.472 E0.01883
G1 X125.791 Y89.544 E0.01878
G1 X126.336 Y89.695 E0.01881
G1 X126.952 Y89.974 E0.02249
G1 X127.608 Y90.341 E0.025
G1 X136.403 Y95.418 E0.33776
G1 X137.037 Y95.796 E0.02455
G1 X137.501 Y96.119 E0.0188
G1 X137.915 Y96.505 E0.01883
G1 X138.27 Y96.944 E0.01878
G1 X138.56 Y97.43 E0.01882
G1 X138.778 Y97.951 E0.01878
G1 X138.921 Y98.498 E0.0188
G1 X138.989 Y99.172 E0.02253
G1 X139 Y99.906 E0.02442
G1 X139 Y110.088 E0.33865
G1 X138.99 Y110.822 E0.02442
G1 X138.942 Y111.386 E0.01883
G1 X138.815 Y111.937 E0.01881
G1 X138.612 Y112.464 E0.01878
G1 X138.337 Y112.958 E0.0188
G1 X137.995 Y113.408 E0.0188
G1 X137.593 Y113.805 E0.01879
G1 X137.039 Y114.203 E0.02269
G1 X136.368 Y114.603 E0.02598
G1 X127.535 Y119.702 E0.33922
G1 X126.946 Y120.03 E0.02242
G1 X126.434 Y120.269 E0.01879
G1 X125.893 Y120.434 E0.01881
G1 X125.335 Y120.521 E0.01878
G1 X124.769 Y120.528 E0.01883
G1 X124.209 Y120.456 E0.01878
G1 X123.664 Y120.305 E0.01881
G1 X123.048 Y120.026 E0.02249
G1 X122.392 Y119.659 E0.025
G1 X113.597 Y114.582 E0.33776
G1 X112.963 Y114.204 E0.02455
G1 X112.499 Y113.881 E0.0188
G1 X112.085 Y113.495 E0.01883
G1 X111.73 Y113.056 E0.01878
G1 X111.44 Y112.57 E0.01882
G1 X111.222 Y112.049 E0.01878
G1 X111.079 Y111.502 E0.0188
G1 X111.011 Y110.826 E0.0226
G1 X111 Y110.066 E0.02528
G1 X111 Y99.876 E0.33892
G1 X111.01 Y99.175 E0.02332
G1 X111.058 Y98.612 E0.01879
G1 X111.185 Y98.061 E0.01881
G1 X111.389 Y97.533 E0.01883
G1 X111.664 Y97.04 E0.01878
G1 X112.007 Y96.59 E0.01882
G0 F3600 X112.4 Y96.752
G1 F1200 X112.9 Y96.298 E0.02246
G1 X113.832 Y95.743 E0.03608
G1 X122.611 Y90.675 E0.33715
G1 X123.249 Y90.32 E0.02428
G1 X123.735 Y90.095 E0.01781
G1 X124.25 Y89.944 E0.01785
G1 X124.781 Y89.872 E0.01782
G1 X125.318 Y89.879 E0.01786
G1 X125.847 Y89.966 E0.01783
G1 X126.491 Y90.174 E0.02251
G1 X127.408 Y90.687 E0.03495
G1 X136.199 Y95.762 E0.33761
G1 X136.833 Y96.14 E0.02455
G1 X137.271 Y96.448 E0.01781
G1 X137.66 Y96.818 E0.01786
G1 X137.989 Y97.242 E0.01785
G1 X138.251 Y97.709 E0.01781
G1 X138.441 Y98.211 E0.01785
G1 X138.584 Y98.87 E0.02243
G1 X138.6 Y99.912 E0.03466
G1 X138.6 Y110.083 E0.33829
G1 X138.59 Y110.817 E0.02442
G1 X138.542 Y111.351 E0.01783
G1 X138.416 Y111.872 E0.01783
G1 X138.214 Y112.369 E0.01784
G1 X137.941 Y112.83 E0.01782
G1 X137.602 Y113.246 E0.01785
G1 X137.096 Y113.704 E0.0227
G1 X136.168 Y114.257 E0.03593
G1 X127.389 Y119.325 E0.33715
G1 X126.751 Y119.68 E0.02428
G1 X126.265 Y119.905 E0.01781
G1 X125.75 Y120.056 E0.01785
G1 X125.219 Y120.128 E0.01782
G1 X124.682 Y120.121 E0.01786
G1 X124.153 Y120.034 E0.01783
G1 X123.509 Y119.826 E0.02251
G1 X122.592 Y119.313 E0.03495
G1 X113.801 Y114.238 E0.33761
G1 X113.167 Y113.86 E0.02455
G1 X112.729 Y113.552 E0.01781
G1 X112.34 Y113.182 E0.01786
G1 X112.011 Y112.758 E0.01785
G1 X111.749 Y112.291 E0.01781
G1 X111.559 Y111.789 E0.01785
G1 X111.415 Y111.129 E0.02247
G1 X111.4 Y110.06 E0.03556
G1 X111.4 Y99.882 E0.33852
G1 X111.41 Y99.181 E0.02332
G1 X111.458 Y98.646 E0.01787
G1 X111.584 Y98.125 E0.01783
G1 X111.787 Y97.629 E0.01783
G1 X112.061 Y97.168 E0.01784
G1 X112.4 Y96.752 E0.01785
G0 F3600 X112.792 Y96.925
G1 F1200 X113.371 Y96.484 E0.02421
G1 X114.032 Y96.09 E0.02559
G1 X122.854 Y90.997 E0.33881
G1 X123.443 Y90.669 E0.02242
G1 X123.903 Y90.459 E0.01682
G1 X124.39 Y90.324 E0.01681
G1 X124.892 Y90.267 E0.0168
G1 X125.397 Y90.29 E0.01681
G1 X125.893 Y90.392 E0.01684
G1 X126.562 Y90.672 E0.02412
G1 X127.208 Y91.034 E0.02463
G1 X135.994 Y96.105 E0.3374
G1 X136.628 Y96.483 E0.02455
G1 X137.04 Y96.776 E0.01682
G1 X137.401 Y97.13 E0.01682
G1 X137.702 Y97.536 E0.01681
G1 X137.936 Y97.984 E0.01681
G1 X138.095 Y98.464 E0.01682
G1 X138.189 Y99.184 E0.02415
G1 X138.2 Y99.918 E0.02442
G1 X138.2 Y110.078 E0.33792
G1 X138.19 Y110.812 E0.02442
G1 X138.143 Y111.315 E0.0168
G1 X138.017 Y111.805 E0.01683
G1 X137.816 Y112.269 E0.01682
G1 X137.545 Y112.695 E0.01679
G1 X137.209 Y113.073 E0.01682
G1 X136.629 Y113.516 E0.02427
G1 X135.968 Y113.91 E0.02559
G1 X127.146 Y119.003 E0.33881
G1 X126.557 Y119.331 E0.02242
G1 X126.097 Y119.541 E0.01682
G1 X125.61 Y119.676 E0.01681
G1 X125.108 Y119.733 E0.0168
G1 X124.603 Y119.71 E0.01681
G1 X124.107 Y119.608 E0.01684
G1 X123.438 Y119.328 E0.02412
G1 X122.792 Y118.966 E0.02463
G1 X114.006 Y113.895 E0.3374
G1 X113.372 Y113.517 E0.02455
G1 X112.96 Y113.224 E0.01682
G1 X112.599 Y112.87 E0.01682
G1 X112.298 Y112.464 E0.01681
G1 X112.064 Y112.016 E0.01681
G1 X111.905 Y111.536 E0.01682
G1 X111.811 Y110.814 E0.02422
G1 X111.8 Y110.054 E0.02528
G1 X111.8 Y99.887 E0.33816
G1 X111.81 Y99.186 E0.02332
G1 X111.857 Y98.683 E0.0168
G1 X111.983 Y98.193 E0.01683
G1 X112.185 Y97.73 E0.0168
G1 X112.457 Y97.303 E0.01684
G1 X112.792 Y96.925 E0.0168
G1 F2100 E-0.8
;MESH:20x40_Hexagon.stl
G0 F3600 X114.875 Y98.531
G0 X115.417 Y99.467
G1 F2100 E0.8
G0 F3600 X115.601 Y99.574
;TYPE:WALL-INNER
G1 F1200 X115.601 Y110.426 E0.34289
G1 X124.999 Y115.853 E0.3429
G1 X134.399 Y110.426 E0.34296
G1 X134.399 Y99.574 E0.34289
G1 X124.999 Y94.147 E0.34296
G1 X115.601 Y99.574 E0.3429
G0 F3600 X115.201 Y99.343
;TYPE:WALL-OUTER
G1 F1200 X115.201 Y110.657 E0.35749
G1 X124.999 Y116.315 E0.3575
G1 X134.799 Y110.657 E0.35755
G1 X134.799 Y99.343 E0.35749
G1 X124.999 Y93.685 E0.35755
G1 X115.201 Y99.343 E0.3575
G0 F3600 X115.201 Y99.543
G0 X115.886 Y99.738
G0 X134.018 Y110.206
;TYPE:SKIN
G1 F1200 X134.018 Y99.794 E0.3463
G1 X124.999 Y94.587 E0.34638
G1 X115.982 Y99.794 E0.34632
G1 X115.982 Y110.206 E0.3463
G1 X124.999 Y115.413 E0.34632
G1 X134.018 Y110.206 E0.34638
G0 F3600 X133.6 Y99.784
G1 F1200 X133.6 Y110.217 E0.347
G0 F3600 X133.2 Y110.448
G1 F1200 X133.2 Y99.553 E0.36237
G0 F3600 X132.8 Y99.322
G1 F1200 X132.8 Y110.679 E0.37774
G0 F3600 X132.4 Y110.91
G1 F1200 X132.4 Y99.091 E0.3931
G0 F3600 X132 Y98.86
G1 F1200 X132 Y111.141 E0.40847
G0 F3600 X131.6 Y111.372
G1 F1200 X131.6 Y98.629 E0.42383
G0 F3600 X131.2 Y98.398
G1 F1200 X131.2 Y111.603 E0.4392
G0 F3600 X130.8 Y111.834
G1 F1200 X130.8 Y98.167 E0.45457
G0 F3600 X130.4 Y97.936
G1 F1200 X130.4 Y112.065 E0.46993
G0 F3600 X130 Y112.296
G1 F1200 X130 Y97.705 E0.4853
G0 F3600 X129.6 Y97.475
G1 F1200 X129.6 Y112.526 E0.5006
G0 F3600 X129.2 Y112.757
G1 F1200 X129.2 Y97.244 E0.51596
G0 F3600 X128.8 Y97.013
G1 F1200 X128.8 Y112.988 E0.53133
G0 F3600 X128.4 Y113.219
G1 F1200 X128.4 Y96.782 E0.5467
G0 F3600 X128 Y96.551
G1 F1200 X128 Y113.45 E0.56206
G0 F3600 X127.6 Y113.681
G1 F1200 X127.6 Y96.32 E0.57743
G0 F3600 X127.2 Y96.089
G1 F1200 X127.2 Y113.912 E0.5928
G0 F3600 X126.8 Y114.143
G1 F1200 X126.8 Y95.858 E0.60816
G0 F3600 X126.4 Y95.627
G1 F1200 X126.4 Y114.374 E0.62353
G0 F3600 X126 Y114.605
G1 F1200 X126 Y95.396 E0.63889
G0 F3600 X125.6 Y95.165
G1 F1200 X125.6 Y114.836 E0.65426
G0 F3600 X125.2 Y115.066
G1 F1200 X125.2 Y94.935 E0.66956
G0 F3600 X124.8 Y94.932
G1 F1200 X124.8 Y115.067 E0.66969
G0 F3600 X124.4 Y114.836
G1 F1200 X124.4 Y95.163 E0.65433
G0 F3600 X124 Y95.394
G1 F1200 X124 Y114.605 E0.63896
G0 F3600 X123.6 Y114.374
G1 F1200 X123.6 Y95.625 E0.62359
G0 F3600 X123.2 Y95.856
G1 F1200 X123.2 Y114.143 E0.60823
G0 F3600 X122.8 Y113.912
G1 F1200 X122.8 Y96.087 E0.59286
G0 F3600 X122.4 Y96.318
G1 F1200 X122.4 Y113.681 E0.5775
G0 F3600 X122 Y113.45
G1 F1200 X122 Y96.549 E0.56213
G0 F3600 X121.6 Y96.78
G1 F1200 X121.6 Y113.219 E0.54676
G0 F3600 X121.2 Y112.988
G1 F1200 X121.2 Y97.011 E0.5314
G0 F3600 X120.8 Y97.242
G1 F1200 X120.8 Y112.757 E0.51603
G0 F3600 X120.4 Y112.526
G1 F1200 X120.4 Y97.473 E0.50066
G0 F3600 X120 Y97.704
G1 F1200 X120 Y112.295 E0.4853
G0 F3600 X119.6 Y112.064
G1 F1200 X119.6 Y97.935 E0.46993
G0 F3600 X119.2 Y98.166
G1 F1200 X119.2 Y111.833 E0.45457
G0 F3600 X118.8 Y111.602
G1 F1200 X118.8 Y98.397 E0.4392
G0 F3600 X118.4 Y98.628
G1 F1200 X118.4 Y111.371 E0.42383
G0 F3600 X118 Y111.14
G1 F1200 X118 Y98.859 E0.40847
G0 F3600 X117.6 Y99.09
G1 F1200 X117.6 Y110.909 E0.3931
G0 F3600 X117.2 Y110.678
G1 F1200 X117.2 Y99.321 E0.37774
G0 F3600 X116.8 Y99.552
G1 F1200 X116.8 Y110.447 E0.36237
G0 F3600 X116.4 Y110.216
G1 F1200 X116.4 Y99.783 E0.347
G1 X116.4 Y99.683
M104 S200
G0 F3600 X116.452 Y99.773
;MESH:NONMESH
G0 F600 X116.452 Y99.773 Z0.4
G0 F3600 X115.9 Y105
G0 X115.601 Y105
;TIME_ELAPSED:64.622964
;LAYER:1
M106 S255
;TYPE:WALL-INNER
;MESH:20x40_Hexagon.stl
G1 F1800 X115.601 Y110.426 E0.17145
G1 X124.999 Y115.853 E0.3429
G1 X134.399 Y110.426 E0.34296
G1 X134.399 Y99.574 E0.34289
G1 X124.999 Y94.147 E0.34296
G1 X115.601 Y99.574 E0.3429
G1 X115.601 Y105 E0.17145
G0 F5400 X115.9 Y105
G0 X125 Y94.477
G0 X124.999 Y93.685
;TYPE:WALL-OUTER
G1 F1200 X115.201 Y99.343 E0.3575
G1 X115.201 Y105 E0.17874
G1 X115.201 Y110.657 E0.17874
G1 X124.999 Y116.315 E0.3575
G1 X134.799 Y110.657 E0.35755
G1 X134.799 Y99.343 E0.35749
G1 X124.999 Y93.685 E0.35755
G0 F5400 X124.826 Y93.785
G0 X125 Y94.477
G0 X134.018 Y99.794
;TYPE:SKIN
G1 F1200 X124.999 Y94.587 E0.34638
G1 X115.982 Y99.794 E0.34632
G1 X115.982 Y110.206 E0.3463
G1 X124.999 Y115.413 E0.34632
G1 X134.018 Y110.206 E0.34638
G1 X134.018 Y99.794 E0.3463
G0 F5400 X124.336 Y95.2
G1 F1200 X125.663 Y95.2 E0.04414
G1 X125.763 Y95.2
G0 F5400 X126.356 Y95.6
G1 F1200 X123.644 Y95.6 E0.0902
G1 X123.544 Y95.6
G0 F5400 X122.951 Y96
G1 F1200 X127.049 Y96 E0.1363
G1 X127.149 Y96
G0 F5400 X127.742 Y96.4
G1 F1200 X122.258 Y96.4 E0.1824
G0 F5400 X121.566 Y96.8
G1 F1200 X128.435 Y96.8 E0.22846
G1 X128.535 Y96.8
G0 F5400 X129.128 Y97.2
G1 F1200 X120.873 Y97.2 E0.27456
G0 F5400 X120.181 Y97.6
G1 F1200 X129.82 Y97.6 E0.32059
G1 X129.92 Y97.6
G0 F5400 X130.513 Y98
G1 F1200 X119.488 Y98 E0.36669
G1 X119.388 Y98
G0 F5400 X118.795 Y98.4
G1 F1200 X131.206 Y98.4 E0.41279
G1 X131.306 Y98.4
G0 F5400 X131.899 Y98.8
G1 F1200 X118.103 Y98.8 E0.45886
G1 X118.003 Y98.8
G0 F5400 X117.41 Y99.2
G1 F1200 X132.592 Y99.2 E0.50496
G1 X132.692 Y99.2
G0 F5400 X133.285 Y99.6
G1 F1200 X116.718 Y99.6 E0.55102
G0 F5400 X116.182 Y100
G1 F1200 X133.818 Y100 E0.58658
G0 F5400 X133.818 Y100.4
G1 F1200 X116.182 Y100.4 E0.58658
G0 F5400 X116.182 Y100.8
G1 F1200 X133.818 Y100.8 E0.58658
G0 F5400 X133.818 Y101.2
G1 F1200 X116.182 Y101.2 E0.58658
G0 F5400 X116.182 Y101.6
G1 F1200 X133.818 Y101.6 E0.58658
G0 F5400 X133.818 Y102
G1 F1200 X116.182 Y102 E0.58658
G0 F5400 X116.182 Y102.4
G1 F1200 X133.818 Y102.4 E0.58658
G0 F5400 X133.818 Y102.8
G1 F1200 X116.182 Y102.8 E0.58658
G0 F5400 X116.182 Y103.2
G1 F1200 X133.818 Y103.2 E0.58658
G0 F5400 X133.818 Y103.6
G1 F1200 X116.182 Y103.6 E0.58658
G0 F5400 X116.182 Y104
G1 F1200 X133.818 Y104 E0.58658
G0 F5400 X133.818 Y104.4
G1 F1200 X116.182 Y104.4 E0.58658
G0 F5400 X116.182 Y104.8
G1 F1200 X133.818 Y104.8 E0.58658
G0 F5400 X133.818 Y105.2
G1 F1200 X116.182 Y105.2 E0.58658
G0 F5400 X116.182 Y105.6
G1 F1200 X133.818 Y105.6 E0.58658
G0 F5400 X133.818 Y106
G1 F1200 X116.182 Y106 E0.58658
G0 F5400 X116.182 Y106.4
G1 F1200 X133.818 Y106.4 E0.58658
G0 F5400 X133.818 Y106.8
G1 F1200 X116.182 Y106.8 E0.58658
G0 F5400 X116.182 Y107.2
G1 F1200 X133.818 Y107.2 E0.58658
G0 F5400 X133.818 Y107.6
G1 F1200 X116.182 Y107.6 E0.58658
G0 F5400 X116.182 Y108
G1 F1200 X133.818 Y108 E0.58658
G0 F5400 X133.818 Y108.4
G1 F1200 X116.182 Y108.4 E0.58658
G0 F5400 X116.182 Y108.8
G1 F1200 X133.818 Y108.8 E0.58658
G0 F5400 X133.818 Y109.2
G1 F1200 X116.182 Y109.2 E0.58658
G0 F5400 X116.182 Y109.6
G1 F1200 X133.818 Y109.6 E0.58658
G0 F5400 X133.818 Y110
G1 F1200 X116.182 Y110 E0.58658
G0 F5400 X116.717 Y110.4
G1 F1200 X133.28 Y110.4 E0.55089
G0 F5400 X132.588 Y110.8
G1 F1200 X117.41 Y110.8 E0.50482
G1 X117.31 Y110.8
G0 F5400 X118.103 Y111.2
G1 F1200 X131.895 Y111.2 E0.45872
G1 X131.995 Y111.2
G0 F5400 X131.202 Y111.6
G1 F1200 X118.795 Y111.6 E0.41266
G1 X118.695 Y111.6
G0 F5400 X119.488 Y112
G1 F1200 X130.509 Y112 E0.36656
G1 X130.609 Y112
G0 F5400 X129.816 Y112.4
G1 F1200 X120.181 Y112.4 E0.32046
G1 X120.081 Y112.4
G0 F5400 X120.874 Y112.8
G1 F1200 X129.123 Y112.8 E0.27436
G1 X129.223 Y112.8
G0 F5400 X128.43 Y113.2
G1 F1200 X121.567 Y113.2 E0.22826
G1 X121.467 Y113.2
G0 F5400 X122.26 Y113.6
G1 F1200 X127.737 Y113.6 E0.18217
G1 X127.837 Y113.6
G0 F5400 X127.044 Y114
G1 F1200 X122.953 Y114 E0.13607
G1 X122.853 Y114
G0 F5400 X123.646 Y114.4
G1 F1200 X126.351 Y114.4 E0.08997
G1 X126.451 Y114.4
G0 F5400 X125.658 Y114.8
G1 F1200 X124.339 Y114.8 E0.04387
G1 X124.239 Y114.8
G0 F5400 X124.273 Y114.742
;MESH:NONMESH
G0 F600 X124.273 Y114.742 Z0.6
G0 F5400 X115.886 Y110.262
G0 X115.601 Y110.426
;TIME_ELAPSED:110.608173
;LAYER:2
;TYPE:WALL-INNER
;MESH:20x40_Hexagon.stl
G1 F2400 X124.999 Y115.853 E0.3429
G1 X134.399 Y110.426 E0.34296
G1 X134.399 Y99.574 E0.34289
G1 X124.999 Y94.147 E0.34296
G1 X115.601 Y99.574 E0.3429
G1 X115.601 Y110.426 E0.34289
G0 F7200 X115.886 Y110.262
G0 X115.886 Y99.738
G0 X115.201 Y99.343
;TYPE:WALL-OUTER
G1 F1200 X115.201 Y110.657 E0.35749
G1 X124.999 Y116.315 E0.3575
G1 X134.799 Y110.657 E0.35755
G1 X134.799 Y99.343 E0.35749
G1 X124.999 Y93.685 E0.35755
G1 X115.201 Y99.343 E0.3575
G0 F7200 X115.201 Y99.543
G0 X115.886 Y99.738
G0 X124.999 Y115.413
;TYPE:SKIN
G1 F1200 X134.018 Y110.206 E0.34638
G1 X134.018 Y99.794 E0.3463
G1 X124.999 Y94.587 E0.34638
G1 X115.982 Y99.794 E0.34632
G1 X115.982 Y105 E0.17315
G1 X115.982 Y110.206 E0.17315
G1 X124.999 Y115.413 E0.34632
G0 F7200 X116.4 Y110.216
G1 F1200 X116.4 Y99.783 E0.347
G0 F7200 X116.8 Y99.552
G1 F1200 X116.8 Y110.447 E0.36237
G0 F7200 X117.2 Y110.678
G1 F1200 X117.2 Y99.321 E0.37774
G0 F7200 X117.6 Y99.09
G1 F1200 X117.6 Y110.909 E0.3931
G0 F7200 X118 Y111.14
G1 F1200 X118 Y98.859 E0.40847
G0 F7200 X118.4 Y98.628
G1 F1200 X118.4 Y111.371 E0.42383
G0 F7200 X118.8 Y111.602
G1 F1200 X118.8 Y98.397 E0.4392
G0 F7200 X119.2 Y98.166
G1 F1200 X119.2 Y111.833 E0.45457
G0 F7200 X119.6 Y112.064
G1 F1200 X119.6 Y97.935 E0.46993
G0 F7200 X120 Y97.704
G1 F1200 X120 Y112.295 E0.4853
G0 F7200 X120.4 Y112.526
G1 F1200 X120.4 Y97.473 E0.50066
G0 F7200 X120.8 Y97.242
G1 F1200 X120.8 Y112.757 E0.51603
G0 F7200 X121.2 Y112.988
G1 F1200 X121.2 Y97.011 E0.5314
G0 F7200 X121.6 Y96.78
G1 F1200 X121.6 Y113.219 E0.54676
G0 F7200 X122 Y113.45
G1 F1200 X122 Y96.549 E0.56213
G0 F7200 X122.4 Y96.318
G1 F1200 X122.4 Y113.681 E0.5775
G0 F7200 X122.8 Y113.912
G1 F1200 X122.8 Y96.087 E0.59286
G0 F7200 X123.2 Y95.856
G1 F1200 X123.2 Y114.143 E0.60823
G0 F7200 X123.6 Y114.374
G1 F1200 X123.6 Y95.625 E0.62359
G0 F7200 X124 Y95.394
G1 F1200 X124 Y114.605 E0.63896
G0 F7200 X124.4 Y114.836
G1 F1200 X124.4 Y95.163 E0.65433
G0 F7200 X124.8 Y94.932
G1 F1200 X124.8 Y115.067 E0.66969
G0 F7200 X125.2 Y115.066
G1 F1200 X125.2 Y94.935 E0.66956
G0 F7200 X125.6 Y95.165
G1 F1200 X125.6 Y114.836 E0.65426
G0 F7200 X126 Y114.605
G1 F1200 X126 Y95.396 E0.63889
G0 F7200 X126.4 Y95.627
G1 F1200 X126.4 Y114.374 E0.62353
G0 F7200 X126.8 Y114.143
G1 F1200 X126.8 Y95.858 E0.60816
G0 F7200 X127.2 Y96.089
G1 F1200 X127.2 Y113.912 E0.5928
