M106 P2 S0.0    ;deactivateAllLaser
M106 P3 S0.0    ;deactivateAllLaser
M106 P4 S0.0    ;deactivateAllLaser
M106 P5 S0.0    ;deactivateAllLaser
M106 P6 S0.8
;FLAVOR:Marlin
;TIME:4098
;Filament used: 1.59869m
;Layer height: 0.2
;MINX:82.046
;MINY:94.449
;MINZ:0.2
;MAXX:105.846
;MAXY:118.249
;MAXZ:48.6
;Generated with Cura_SteamEngine 5.2.2
M82 ;absolute extrusion mode
G21 ; set units to millimeters
G90 ; use absolute positioning
M82 ; absolute extrusion mode
M104 S200 ; set extruder temp
M140 S60 ; set bed temp
M190 S60 ; wait for bed temp
M109 S200 ; wait for extruder temp
G28 W ; home all without mesh bed level
G80 ; mesh bed leveling
G92 E0.0 ; reset extruder distance position
G1 Y-3.0 F1000.0 ; go outside print area
G1 X60.0 E9.0 F1000.0 ; intro line
G1 X100.0 E21.5 F1000.0 ; intro line
G92 E0.0 ; reset extruder distance position
M83 ;relative extrusion mode
G1 F2100 E-0.8
;LAYER_COUNT:243
;LAYER:0
M107
M205 X20 Y20
G1 F600 Z1.2
G0 X83.462 Y95.633 Z1.2
;TYPE:SKIRT
G1 F600 Z0.2
G1 F2100 E0.8
G1 F600 X83.923 Y95.26 E0.01972
G1 X84.43 Y94.952 E0.01973
G1 X84.973 Y94.715 E0.01971
G1 X85.544 Y94.553 E0.01974
G1 X86.425 Y94.449 E0.02951
G1 X100.802 Y94.449 E0.47818
G1 X101.5 Y94.459 E0.02322
G1 X102.091 Y94.508 E0.01972
G1 X102.67 Y94.635 E0.01972
G1 X103.227 Y94.839 E0.01973
G1 X103.751 Y95.117 E0.01973
G1 X104.233 Y95.462 E0.01971
G1 X104.665 Y95.869 E0.01974
G1 X105.037 Y96.33 E0.0197
G1 X105.345 Y96.837 E0.01973
G1 X105.581 Y97.381 E0.01972
G1 X105.742 Y97.951 E0.0197
G1 X105.846 Y98.828 E0.02937
G1 X105.846 Y113.167 E0.47692
G1 X105.837 Y113.894 E0.02418
G1 X105.789 Y114.486 E0.01975
G1 X105.663 Y115.065 E0.01971
G1 X105.46 Y115.622 E0.01972
G1 X105.184 Y116.147 E0.01973
G1 X104.84 Y116.63 E0.01972
G1 X104.434 Y117.062 E0.01972
G1 X103.973 Y117.435 E0.01972
G1 X103.467 Y117.744 E0.01972
G1 X102.924 Y117.981 E0.01971
G1 X102.353 Y118.144 E0.01975
G1 X101.467 Y118.249 E0.02967
G1 X87.096 Y118.249 E0.47798
G1 X86.398 Y118.24 E0.02322
G1 X85.807 Y118.192 E0.01972
G1 X85.228 Y118.065 E0.01972
G1 X84.671 Y117.862 E0.01972
G1 X84.146 Y117.586 E0.01973
G1 X83.664 Y117.241 E0.01971
G1 X83.232 Y116.835 E0.01972
G1 X82.858 Y116.374 E0.01974
G1 X82.55 Y115.868 E0.0197
G1 X82.313 Y115.324 E0.01974
G1 X82.151 Y114.754 E0.01971
G1 X82.046 Y113.866 E0.02974
G1 X82.046 Y99.463 E0.47905
G1 X82.055 Y98.798 E0.02212
G1 X82.103 Y98.207 E0.01972
G1 X82.23 Y97.628 E0.01972
G1 X82.434 Y97.071 E0.01973
G1 X82.711 Y96.547 E0.01971
G1 X83.056 Y96.065 E0.01971
G1 X83.462 Y95.633 E0.01972
G0 X83.852 Y95.821
G1 X84.306 Y95.484 E0.01881
G1 X84.803 Y95.215 E0.0188
G1 X85.333 Y95.018 E0.01881
G1 X85.886 Y94.899 E0.01881
G1 X86.472 Y94.849 E0.01956
G1 X100.796 Y94.849 E0.47642
G1 X101.494 Y94.859 E0.02322
G1 X102.058 Y94.907 E0.01883
G1 X102.608 Y95.034 E0.01877
G1 X103.136 Y95.238 E0.01883
G1 X103.63 Y95.513 E0.0188
G1 X104.079 Y95.856 E0.01879
G1 X104.476 Y96.258 E0.01879
G1 X104.813 Y96.713 E0.01883
G1 X105.081 Y97.21 E0.01878
G1 X105.277 Y97.74 E0.01879
G1 X105.397 Y98.293 E0.01882
G1 X105.446 Y98.878 E0.01953
G1 X105.446 Y113.163 E0.47512
G1 X105.437 Y113.89 E0.02418
G1 X105.39 Y114.453 E0.01879
G1 X105.264 Y115.004 E0.0188
G1 X105.062 Y115.532 E0.0188
G1 X104.787 Y116.026 E0.0188
G1 X104.445 Y116.476 E0.0188
G1 X104.043 Y116.874 E0.01882
G1 X103.59 Y117.211 E0.01878
G1 X103.093 Y117.481 E0.01881
G1 X102.563 Y117.678 E0.01881
G1 X102.011 Y117.799 E0.0188
G1 X101.419 Y117.849 E0.01976
G1 X87.101 Y117.849 E0.47622
G1 X86.403 Y117.84 E0.02322
G1 X85.84 Y117.792 E0.01879
G1 X85.289 Y117.666 E0.0188
G1 X84.761 Y117.464 E0.0188
G1 X84.267 Y117.189 E0.0188
G1 X83.817 Y116.847 E0.0188
G1 X83.419 Y116.445 E0.01882
G1 X83.083 Y115.991 E0.01879
G1 X82.813 Y115.494 E0.01881
G1 X82.616 Y114.964 E0.01881
G1 X82.496 Y114.412 E0.01879
G1 X82.447 Y113.844 E0.01896
G1 X82.446 Y99.469 E0.47811
G1 X82.455 Y98.804 E0.02212
G1 X82.503 Y98.241 E0.01879
G1 X82.629 Y97.69 E0.0188
G1 X82.832 Y97.162 E0.01881
G1 X83.108 Y96.668 E0.01882
G1 X83.45 Y96.218 E0.0188
G1 X83.852 Y95.821 E0.01879
G0 X84.24 Y96.02
G1 X84.687 Y95.722 E0.01787
G1 X85.172 Y95.494 E0.01782
G1 X85.686 Y95.341 E0.01784
G1 X86.427 Y95.25 E0.02483
G1 X100.791 Y95.249 E0.47775
G1 X101.489 Y95.259 E0.02322
G1 X102.023 Y95.307 E0.01783
G1 X102.544 Y95.433 E0.01783
G1 X103.041 Y95.636 E0.01786
G1 X103.502 Y95.91 E0.01784
G1 X103.917 Y96.249 E0.01782
G1 X104.277 Y96.647 E0.01785
G1 X104.574 Y97.093 E0.01782
G1 X104.802 Y97.579 E0.01785
G1 X104.954 Y98.093 E0.01783
G1 X105.045 Y98.831 E0.02473
G1 X105.046 Y113.158 E0.47652
G1 X105.037 Y113.885 E0.02418
G1 X104.99 Y114.419 E0.01783
G1 X104.865 Y114.94 E0.01782
G1 X104.663 Y115.437 E0.01784
G1 X104.39 Y115.899 E0.01785
G1 X104.052 Y116.315 E0.01783
G1 X103.655 Y116.676 E0.01785
G1 X103.209 Y116.974 E0.01784
G1 X102.724 Y117.202 E0.01782
G1 X102.21 Y117.356 E0.01785
G1 X101.465 Y117.448 E0.02497
G1 X87.107 Y117.449 E0.47755
G1 X86.409 Y117.44 E0.02322
G1 X85.874 Y117.393 E0.01786
G1 X85.353 Y117.267 E0.01783
G1 X84.856 Y117.065 E0.01784
G1 X84.395 Y116.792 E0.01782
G1 X83.979 Y116.453 E0.01785
G1 X83.618 Y116.057 E0.01782
G1 X83.32 Y115.611 E0.01784
G1 X83.092 Y115.125 E0.01785
G1 X82.939 Y114.611 E0.01784
G1 X82.847 Y113.864 E0.02503
G1 X82.846 Y99.474 E0.47861
G1 X82.855 Y98.809 E0.02212
G1 X82.903 Y98.275 E0.01783
G1 X83.029 Y97.754 E0.01783
G1 X83.231 Y97.257 E0.01784
G1 X83.504 Y96.796 E0.01782
G1 X83.843 Y96.38 E0.01785
G1 X84.24 Y96.02 E0.01782
G0 X84.626 Y96.232
G1 X85.063 Y95.977 E0.01683
G1 X85.534 Y95.793 E0.01682
G1 X86.028 Y95.687 E0.0168
G1 X86.473 Y95.65 E0.01485
G1 X100.785 Y95.649 E0.47602
G1 X101.483 Y95.659 E0.02322
G1 X101.986 Y95.706 E0.0168
G1 X102.476 Y95.832 E0.01683
G1 X102.94 Y96.034 E0.01683
G1 X103.366 Y96.306 E0.01681
G1 X103.744 Y96.641 E0.0168
G1 X104.064 Y97.032 E0.0168
G1 X104.319 Y97.469 E0.01683
G1 X104.502 Y97.94 E0.01681
G1 X104.609 Y98.434 E0.01681
G1 X104.645 Y99.089 E0.02182
G1 X104.646 Y113.153 E0.46777
G1 X104.637 Y113.88 E0.02418
G1 X104.591 Y114.383 E0.0168
G1 X104.466 Y114.873 E0.01682
G1 X104.265 Y115.337 E0.01682
G1 X103.994 Y115.764 E0.01682
G1 X103.659 Y116.143 E0.01682
G1 X103.269 Y116.464 E0.0168
G1 X102.833 Y116.72 E0.01682
G1 X102.362 Y116.903 E0.01681
G1 X101.868 Y117.011 E0.01682
G1 X101.418 Y117.048 E0.01502
G1 X87.112 Y117.049 E0.47582
G1 X86.414 Y117.04 E0.02322
G1 X85.91 Y116.993 E0.01684
G1 X85.42 Y116.868 E0.01682
G1 X84.956 Y116.667 E0.01682
G1 X84.53 Y116.396 E0.01679
G1 X84.151 Y116.061 E0.01682
G1 X83.83 Y115.67 E0.01683
G1 X83.575 Y115.234 E0.0168
G1 X83.391 Y114.763 E0.01682
G1 X83.284 Y114.269 E0.01681
G1 X83.247 Y113.816 E0.01512
G1 X83.246 Y99.48 E0.47682
G1 X83.255 Y98.815 E0.02212
G1 X83.302 Y98.311 E0.01684
G1 X83.428 Y97.822 E0.0168
G1 X83.629 Y97.358 E0.01682
G1 X83.9 Y96.931 E0.01682
G1 X84.235 Y96.553 E0.0168
G1 X84.626 Y96.232 E0.01683
G1 F2100 E-0.8
G1 F600 Z1.2
;MESH:Tensile_Test_Object.3mf
G0 X100.846 Y113.249 Z1.2
;TYPE:WALL-INNER
G1 F600 Z0.2
G1 F2100 E0.8
G1 F600 X100.846 Y99.449 E0.45899
G1 X87.046 Y99.449 E0.45899
G1 X87.046 Y113.249 E0.45899
G1 X100.846 Y113.249 E0.45899
G0 X101.246 Y113.649
;TYPE:WALL-OUTER
G1 X101.246 Y99.049 E0.4856
G1 X86.646 Y99.049 E0.4856
G1 X86.646 Y113.649 E0.4856
G1 X101.246 Y113.649 E0.4856
G0 X101.246 Y113.449
G0 X100.576 Y112.979
G0 X100.466 Y99.829
;TYPE:SKIN
G1 X87.426 Y99.829 E0.43371
G1 X87.426 Y112.869 E0.43371
G1 X100.466 Y112.869 E0.43371
G1 X100.466 Y99.829 E0.43371
G0 X100.265 Y100.265
G1 X100.028 Y100.028 E0.01115
G0 X99.463 Y100.028
G1 X100.265 Y100.831 E0.03775
G0 X100.265 Y101.396
G1 X98.897 Y100.028 E0.06435
G0 X98.331 Y100.028
G1 X100.265 Y101.962 E0.09097
G0 X100.265 Y102.528
G1 X97.765 Y100.028 E0.11759
G0 X97.2 Y100.028
G1 X100.265 Y103.094 E0.14419
G0 X100.265 Y103.659
G1 X96.634 Y100.028 E0.17079
G0 X96.068 Y100.028
G1 X100.265 Y104.225 E0.19741
G0 X100.265 Y104.791
G1 X95.503 Y100.028 E0.22401
G0 X94.937 Y100.028
G1 X100.265 Y105.356 E0.25061
G0 X100.265 Y105.922
G1 X94.371 Y100.028 E0.27724
G0 X93.806 Y100.028
G1 X100.265 Y106.488 E0.30384
G0 X100.265 Y107.053
G1 X93.24 Y100.028 E0.33043
G0 X92.674 Y100.028
G1 X100.265 Y107.619 E0.35706
G0 X100.265 Y108.185
G1 X92.109 Y100.028 E0.38366
G0 X91.543 Y100.028
G1 X100.265 Y108.75 E0.41026
G0 X100.265 Y109.316
G1 X90.977 Y100.028 E0.43688
G0 X90.412 Y100.028
G1 X100.265 Y109.882 E0.46348
G0 X100.265 Y110.447
G1 X89.846 Y100.028 E0.49008
G0 X89.28 Y100.028
G1 X100.265 Y111.013 E0.5167
G0 X100.265 Y111.579
G1 X88.715 Y100.028 E0.5433
G0 X88.149 Y100.028
G1 X100.265 Y112.145 E0.56992
G0 X100.223 Y112.668
G1 X87.625 Y100.07 E0.59257
G0 X87.625 Y100.636
G1 X99.657 Y112.668 E0.56595
G0 X99.091 Y112.668
G1 X87.625 Y101.201 E0.53935
G0 X87.625 Y101.767
G1 X98.526 Y112.668 E0.51275
G0 X97.96 Y112.668
G1 X87.625 Y102.333 E0.48613
G0 X87.625 Y102.898
G1 X97.394 Y112.668 E0.45953
G0 X96.829 Y112.668
G1 X87.625 Y103.464 E0.43293
G0 X87.625 Y104.03
G1 X96.263 Y112.668 E0.40631
G0 X95.697 Y112.668
G1 X87.625 Y104.595 E0.37971
G0 X87.625 Y105.161
G1 X95.132 Y112.668 E0.35311
G0 X94.566 Y112.668
G1 X87.625 Y105.727 E0.32648
G0 X87.625 Y106.292
G1 X94 Y112.668 E0.29988
G0 X93.434 Y112.668
G1 X87.625 Y106.858 E0.27326
G0 X87.625 Y107.424
G1 X92.869 Y112.668 E0.24666
G0 X92.303 Y112.668
G1 X87.625 Y107.99 E0.22004
G0 X87.625 Y108.555
G1 X91.737 Y112.668 E0.19344
G0 X91.172 Y112.668
G1 X87.625 Y109.121 E0.16684
G0 X87.625 Y109.687
G1 X90.606 Y112.668 E0.14022
G0 X90.04 Y112.668
G1 X87.625 Y110.252 E0.11362
G0 X87.625 Y110.818
G1 X89.475 Y112.668 E0.08702
G0 X88.909 Y112.668
G1 X87.625 Y111.384 E0.0604
G0 X87.625 Y111.949
G1 X88.343 Y112.668 E0.0338
G0 X87.778 Y112.668
G1 X87.625 Y112.515 E0.0072
M104 S200
G0 X87.646 Y112.515
G1 F2100 E-0.8
;MESH:NONMESH
G0 F600 X87.646 Y112.515 Z0.4
G0 X87.316 Y99.719
G1 F2100 E0.8
G0 F600 X87.046 Y99.449
;TIME_ELAPSED:112.840638
;LAYER:1
G1 F2100 E-0.8
M106 S255
;TYPE:WALL-INNER
;MESH:Tensile_Test_Object.3mf
G1 F2100 E0.8
G1 F900 X87.046 Y113.249 E0.45899
G1 X100.846 Y113.249 E0.45899
G1 X100.846 Y99.449 E0.45899
G1 X87.046 Y99.449 E0.45899
G1 F2100 E-0.8
G0 F900 X87.316 Y99.719
G0 X100.976 Y99.319
G1 F2100 E0.8
G0 F900 X101.246 Y99.049
;TYPE:WALL-OUTER
G1 F600 X86.646 Y99.049 E0.4856
G1 X86.646 Y113.649 E0.4856
G1 X101.246 Y113.649 E0.4856
G1 X101.246 Y99.049 E0.4856
G0 F900 X101.046 Y99.049
G0 X100.576 Y99.719
G0 X100.466 Y112.869
;TYPE:SKIN
G1 F600 X100.466 Y99.829 E0.43371
G1 X87.426 Y99.829 E0.43371
G1 X87.426 Y112.869 E0.43371
G1 X100.466 Y112.869 E0.43371
G0 F900 X100.029 Y112.668
G1 F600 X100.264 Y112.432 E0.01108
G0 F900 X100.264 Y111.867
G1 F600 X99.463 Y112.668 E0.03768
G0 F900 X98.898 Y112.668
G1 F600 X100.264 Y111.301 E0.06428
G0 F900 X100.264 Y110.735
G1 F600 X98.332 Y112.668 E0.0909
G0 F900 X97.766 Y112.668
G1 F600 X100.264 Y110.17 E0.1175
G0 F900 X100.264 Y109.604
G1 F600 X97.201 Y112.668 E0.1441
G0 F900 X96.635 Y112.668
G1 F600 X100.264 Y109.038 E0.17072
G0 F900 X100.264 Y108.473
G1 F600 X96.069 Y112.668 E0.19732
G0 F900 X95.503 Y112.668
G1 F600 X100.264 Y107.907 E0.22394
G0 F900 X100.264 Y107.341
G1 F600 X94.938 Y112.668 E0.25054
G0 F900 X94.372 Y112.668
G1 F600 X100.264 Y106.775 E0.27717
G0 F900 X100.264 Y106.21
G1 F600 X93.806 Y112.668 E0.30376
G0 F900 X93.241 Y112.668
G1 F600 X100.264 Y105.644 E0.33036
G0 F900 X100.264 Y105.078
G1 F600 X92.675 Y112.668 E0.35699
G0 F900 X92.109 Y112.668
G1 F600 X100.264 Y104.513 E0.38359
G0 F900 X100.264 Y103.947
G1 F600 X91.544 Y112.668 E0.41019
G0 F900 X90.978 Y112.668
G1 F600 X100.264 Y103.381 E0.43681
G0 F900 X100.264 Y102.816
G1 F600 X90.412 Y112.668 E0.46341
G0 F900 X89.847 Y112.668
G1 F600 X100.264 Y102.25 E0.49001
G0 F900 X100.264 Y101.684
G1 F600 X89.281 Y112.668 E0.51663
G0 F900 X88.715 Y112.668
G1 F600 X100.264 Y101.119 E0.54323
G0 F900 X100.264 Y100.553
G1 F600 X88.15 Y112.668 E0.56983
G0 F900 X87.626 Y112.626
G1 F600 X100.223 Y100.028 E0.59255
G0 F900 X99.658 Y100.028
G1 F600 X87.626 Y112.06 E0.56595
G0 F900 X87.626 Y111.495
G1 F600 X99.092 Y100.028 E0.53935
G0 F900 X98.526 Y100.028
G1 F600 X87.626 Y110.929 E0.51273
G0 F900 X87.626 Y110.363
G1 F600 X97.961 Y100.028 E0.48613
G0 F900 X97.395 Y100.028
G1 F600 X87.626 Y109.798 E0.45953
G0 F900 X87.626 Y109.232
G1 F600 X96.829 Y100.028 E0.4329
G0 F900 X96.264 Y100.028
G1 F600 X87.626 Y108.666 E0.40631
G0 F900 X87.626 Y108.101
G1 F600 X95.698 Y100.028 E0.37971
G0 F900 X95.132 Y100.028
G1 F600 X87.626 Y107.535 E0.35308
G0 F900 X87.626 Y106.969
G1 F600 X94.567 Y100.028 E0.32648
G0 F900 X94.001 Y100.028
G1 F600 X87.626 Y106.404 E0.29988
G0 F900 X87.626 Y105.838
G1 F600 X93.435 Y100.028 E0.27326
G0 F900 X92.869 Y100.028
G1 F600 X87.626 Y105.272 E0.24664
G0 F900 X87.626 Y104.706
G1 F600 X92.304 Y100.028 E0.22004
G0 F900 X91.738 Y100.028
G1 F600 X87.626 Y104.141 E0.19344
G0 F900 X87.626 Y103.575
G1 F600 X91.172 Y100.028 E0.16682
G0 F900 X90.607 Y100.028
G1 F600 X87.626 Y103.009 E0.14022
G0 F900 X87.626 Y102.444
G1 F600 X90.041 Y100.028 E0.11362
G0 F900 X89.475 Y100.028
G1 F600 X87.626 Y101.878 E0.08699
G0 F900 X87.626 Y101.312
G1 F600 X88.91 Y100.028 E0.0604
G0 F900 X88.344 Y100.028
G1 F600 X87.626 Y100.747 E0.0338
G0 F900 X87.626 Y100.181
G1 F600 X87.778 Y100.028 E0.00717
G0 F900 X87.778 Y100.049
G1 F2100 E-0.8
;MESH:NONMESH
G0 F600 X87.778 Y100.049 Z0.6
G0 F900 X87.046 Y99.449
;TIME_ELAPSED:171.633659
;LAYER:2
;TYPE:WALL-INNER
;MESH:Tensile_Test_Object.3mf
G1 F2100 E0.8
G1 F1200 X87.046 Y113.249 E0.45899
G1 X100.846 Y113.249 E0.45899
G1 X100.846 Y99.449 E0.45899
G1 X87.046 Y99.449 E0.45899
G0 X86.646 Y99.049
;TYPE:WALL-OUTER
G1 F600 X86.646 Y113.649 E0.4856
G1 X101.246 Y113.649 E0.4856
G1 X101.246 Y99.049 E0.4856
G1 X86.646 Y99.049 E0.4856
G0 F1200 X86.646 Y99.249
G0 X87.426 Y99.829
;TYPE:SKIN
G1 F600 X87.426 Y112.869 E0.43371
G1 X100.466 Y112.869 E0.43371
G1 X100.466 Y99.829 E0.43371
G1 X87.426 Y99.829 E0.43371
G0 F1200 X100.265 Y100.265
G1 F600 X100.028 Y100.028 E0.01115
G0 F1200 X99.463 Y100.028
G1 F600 X100.265 Y100.831 E0.03775
G0 F1200 X100.265 Y101.396
G1 F600 X98.897 Y100.028 E0.06435
G0 F1200 X98.331 Y100.028
G1 F600 X100.265 Y101.962 E0.09097
G0 F1200 X100.265 Y102.528
G1 F600 X97.765 Y100.028 E0.11759
G0 F1200 X97.2 Y100.028
G1 F600 X100.265 Y103.094 E0.14419
G0 F1200 X100.265 Y103.659
G1 F600 X96.634 Y100.028 E0.17079
G0 F1200 X96.068 Y100.028
G1 F600 X100.265 Y104.225 E0.19741
G0 F1200 X100.265 Y104.791
G1 F600 X95.503 Y100.028 E0.22401
G0 F1200 X94.937 Y100.028
G1 F600 X100.265 Y105.356 E0.25061
G0 F1200 X100.265 Y105.922
G1 F600 X94.371 Y100.028 E0.27724
G0 F1200 X93.806 Y100.028
G1 F600 X100.265 Y106.488 E0.30384
G0 F1200 X100.265 Y107.053
G1 F600 X93.24 Y100.028 E0.33043
G0 F1200 X92.674 Y100.028
G1 F600 X100.265 Y107.619 E0.35706
G0 F1200 X100.265 Y108.185
G1 F600 X92.109 Y100.028 E0.38366
G0 F1200 X91.543 Y100.028
G1 F600 X100.265 Y108.75 E0.41026
G0 F1200 X100.265 Y109.316
G1 F600 X90.977 Y100.028 E0.43688
G0 F1200 X90.412 Y100.028
G1 F600 X100.265 Y109.882 E0.46348
G0 F1200 X100.265 Y110.447
G1 F600 X89.846 Y100.028 E0.49008
G0 F1200 X89.28 Y100.028
G1 F600 X100.265 Y111.013 E0.5167
G0 F1200 X100.265 Y111.579
G1 F600 X88.715 Y100.028 E0.5433
G0 F1200 X88.149 Y100.028
G1 F600 X100.265 Y112.145 E0.56992
G0 F1200 X100.223 Y112.668
G1 F600 X87.625 Y100.07 E0.59257
G0 F1200 X87.625 Y100.636
G1 F600 X99.657 Y112.668 E0.56595
G0 F1200 X99.091 Y112.668
G1 F600 X87.625 Y101.201 E0.53935
G0 F1200 X87.625 Y101.767
G1 F600 X98.526 Y112.668 E0.51275
G0 F1200 X97.96 Y112.668
G1 F600 X87.625 Y102.333 E0.48613
G0 F1200 X87.625 Y102.898
G1 F600 X97.394 Y112.668 E0.45953
G0 F1200 X96.829 Y112.668
G1 F600 X87.625 Y103.464 E0.43293
G0 F1200 X87.625 Y104.03
G1 F600 X96.263 Y112.668 E0.40631
G0 F1200 X95.697 Y112.668
G1 F600 X87.625 Y104.595 E0.37971
G0 F1200 X87.625 Y105.161
G1 F600 X95.132 Y112.668 E0.35311
G0 F1200 X94.566 Y112.668
G1 F600 X87.625 Y105.727 E0.32648
G0 F1200 X87.625 Y106.292
G1 F600 X94 Y112.668 E0.29988
G0 F1200 X93.434 Y112.668
G1 F600 X87.625 Y106.858 E0.27326
G0 F1200 X87.625 Y107.424
G1 F600 X92.869 Y112.668 E0.24666
G0 F1200 X92.303 Y112.668
G1 F600 X87.625 Y107.99 E0.22004
G0 F1200 X87.625 Y108.555
