M106 P2 S0.0    ;deactivateAllLaser
M106 P3 S0.0    ;deactivateAllLaser
M106 P6 S0.8
;FLAVOR:Marlin
;TIME:5560
;Filament used: 4.75123m
;Layer height: 0.2
;MINX:98.144
;MINY:87.288
;MINZ:0.2
;MAXX:151.841
;MAXY:122.705
;MAXZ:40
;Generated with Cura_SteamEngine 5.2.2
M82 ;absolute extrusion mode
G21 ; set units to millimeters
G90 ; use absolute positioning
M82 ; absolute extrusion mode
M104 S200 ; set extruder temp
M140 S60 ; set bed temp
M190 S60 ; wait for bed temp
M109 S200 ; wait for extruder temp
G28 W ; home all without mesh bed level
G80 ; mesh bed leveling
G92 E0.0 ; reset extruder distance position
G1 Y-3.0 F1000.0 ; go outside print area
G1 X60.0 E9.0 F1000.0 ; intro line
G1 X100.0 E21.5 F1000.0 ; intro line
G92 E0.0 ; reset extruder distance position
M83 ;relative extrusion mode
G1 F2100 E-0.8
;LAYER_COUNT:200
;LAYER:0
M107
G0 F3600 X100.557 Y92.809 Z0.2
;TYPE:SKIRT
G1 F2100 E0.8
G1 F1200 X101.062 Y92.337 E0.02299
G1 X101.676 Y91.829 E0.02651
G1 X102.353 Y91.326 E0.02805
G1 X102.93 Y90.939 E0.02311
G1 X103.509 Y90.59 E0.02249
G1 X104.138 Y90.246 E0.02384
G1 X104.866 Y89.892 E0.02692
G1 X105.603 Y89.576 E0.02667
G1 X106.513 Y89.24 E0.03226
G1 X107.112 Y89.052 E0.02088
G1 X107.994 Y88.819 E0.03034
G1 X108.778 Y88.654 E0.02665
G1 X109.316 Y88.563 E0.01815
G1 X110.087 Y88.471 E0.02583
G1 X111.421 Y88.38 E0.04447
G1 X112.281 Y88.391 E0.02861
G1 X113.433 Y88.444 E0.03836
G1 X116.181 Y88.536 E0.09145
G1 X118.915 Y88.552 E0.09093
G1 X121.644 Y88.49 E0.09079
G1 X124.337 Y88.353 E0.08969
G1 X127.067 Y88.137 E0.09108
G1 X130.585 Y87.743 E0.11774
G1 X132.522 Y87.491 E0.06497
G1 X133.582 Y87.383 E0.03544
G1 X134.738 Y87.312 E0.03852
G1 X135.436 Y87.291 E0.02323
G1 X136.012 Y87.288 E0.01916
G1 X136.664 Y87.298 E0.02169
G1 X137.432 Y87.33 E0.02557
G1 X138.166 Y87.381 E0.02447
G1 X138.754 Y87.437 E0.01965
G1 X139.508 Y87.53 E0.02527
G1 X140.233 Y87.642 E0.0244
G1 X141.037 Y87.792 E0.0272
G1 X141.664 Y87.93 E0.02135
G1 X142.303 Y88.095 E0.02195
G1 X143.331 Y88.405 E0.03571
G1 X144.067 Y88.659 E0.0259
G1 X144.598 Y88.864 E0.01893
G1 X145.144 Y89.102 E0.01981
G1 X145.777 Y89.41 E0.02341
G1 X146.64 Y89.883 E0.03273
G1 X147.266 Y90.294 E0.02491
G1 X148.013 Y90.83 E0.03058
G1 X149.143 Y91.827 E0.05012
G1 X149.982 Y92.814 E0.04309
G1 X150.639 Y93.779 E0.03883
G1 X150.969 Y94.416 E0.02386
G1 X151.326 Y95.257 E0.03039
G1 X151.611 Y96.206 E0.03296
G1 X151.724 Y96.788 E0.01972
G1 X151.834 Y97.694 E0.03035
G1 X151.841 Y98.407 E0.02372
G1 X151.776 Y99.28 E0.02912
G1 X151.681 Y99.855 E0.01938
G1 X151.47 Y100.682 E0.02839
G1 X151.155 Y101.586 E0.03184
G1 X150.713 Y102.461 E0.0326
G1 X150.26 Y103.18 E0.02826
G1 X149.792 Y103.82 E0.02637
G1 X149.272 Y104.417 E0.02633
G1 X148.911 Y104.784 E0.01712
G1 X148.303 Y105.349 E0.02761
G1 X146.284 Y107.273 E0.09276
G1 X144.365 Y109.209 E0.09066
G1 X142.52 Y111.178 E0.08975
G1 X140.693 Y113.242 E0.09168
G1 X138.95 Y115.325 E0.09034
G1 X137.261 Y117.465 E0.09067
G1 X136.5 Y118.496 E0.04262
G1 X135.388 Y119.956 E0.06104
G1 X134.924 Y120.458 E0.02274
G1 X134.309 Y120.988 E0.027
G1 X133.78 Y121.356 E0.02143
G1 X132.994 Y121.803 E0.03007
G1 X132.062 Y122.166 E0.03327
G1 X131.495 Y122.338 E0.01971
G1 X130.722 Y122.489 E0.0262
G1 X129.794 Y122.62 E0.03117
G1 X128.947 Y122.675 E0.02823
G1 X127.891 Y122.705 E0.03514
G1 X126.713 Y122.698 E0.03918
G1 X125.379 Y122.623 E0.04444
G1 X124.132 Y122.528 E0.0416
G1 X123.158 Y122.444 E0.03252
G1 X120.181 Y122.159 E0.09947
G1 X116.247 Y121.799 E0.13139
G1 X115.191 Y121.681 E0.03534
G1 X114.134 Y121.537 E0.03548
G1 X113.571 Y121.444 E0.01898
G1 X112.716 Y121.275 E0.02899
G1 X111.689 Y121.018 E0.03521
G1 X111.203 Y120.875 E0.01685
G1 X110.54 Y120.654 E0.02324
G1 X109.896 Y120.41 E0.02291
G1 X109.003 Y120.027 E0.03232
G1 X108.327 Y119.686 E0.02518
G1 X107.712 Y119.332 E0.0236
G1 X107.076 Y118.921 E0.02519
G1 X106.641 Y118.61 E0.01779
G1 X106.089 Y118.171 E0.02346
G1 X105.364 Y117.548 E0.03179
G1 X104.509 Y116.575 E0.04308
G1 X103.871 Y115.661 E0.03707
G1 X103.616 Y115.23 E0.01666
G1 X103.393 Y114.782 E0.01664
G1 X103.067 Y114.077 E0.02583
G1 X102.832 Y113.322 E0.0263
G1 X102.695 Y112.817 E0.0174
G1 X102.253 Y111.092 E0.05923
G1 X101.502 Y108.474 E0.09059
G1 X100.675 Y105.876 E0.09068
G1 X99.781 Y103.314 E0.09025
G1 X98.628 Y100.302 E0.10727
G1 X98.417 Y99.716 E0.02072
G1 X98.203 Y98.851 E0.02964
G1 X98.144 Y97.837 E0.03378
G1 X98.246 Y96.956 E0.0295
G1 X98.354 Y96.45 E0.01721
G1 X98.548 Y95.825 E0.02177
G1 X98.888 Y95.064 E0.02772
G1 X99.129 Y94.629 E0.01654
G1 X99.613 Y93.907 E0.02891
G1 X99.926 Y93.5 E0.01708
G1 X100.557 Y92.809 E0.03112
G0 F3600 X100.759 Y93.181
G1 F1200 X101.297 Y92.663 E0.02484
G1 X102.069 Y92.029 E0.03323
G1 X102.475 Y91.729 E0.01679
G1 X103.138 Y91.28 E0.02663
G1 X103.569 Y91.017 E0.01679
G1 X104.484 Y90.518 E0.03466
G1 X105.171 Y90.193 E0.02528
G1 X105.759 Y89.944 E0.02124
G1 X106.633 Y89.622 E0.03098
G1 X107.371 Y89.394 E0.02569
G1 X108.077 Y89.21 E0.02427
G1 X108.706 Y89.075 E0.0214
G1 X109.382 Y88.958 E0.02282
G1 X110.114 Y88.87 E0.02452
G1 X111.431 Y88.78 E0.04391
G1 X112.276 Y88.791 E0.02811
G1 X113.4 Y88.843 E0.03742
G1 X116.166 Y88.936 E0.09205
G1 X118.921 Y88.952 E0.09163
G1 X121.637 Y88.89 E0.09036
G1 X124.391 Y88.75 E0.09172
G1 X127.109 Y88.535 E0.09068
G1 X130.624 Y88.142 E0.11764
G1 X132.666 Y87.877 E0.06849
G1 X133.622 Y87.781 E0.03196
G1 X134.657 Y87.716 E0.03449
G1 X135.439 Y87.691 E0.02602
G1 X136.006 Y87.688 E0.01886
G1 X136.658 Y87.698 E0.02169
G1 X137.405 Y87.729 E0.02487
G1 X138.128 Y87.779 E0.0241
G1 X138.716 Y87.835 E0.01965
G1 X139.348 Y87.912 E0.02118
G1 X140.269 Y88.054 E0.03099
G1 X140.849 Y88.162 E0.01962
G1 X141.578 Y88.321 E0.02482
G1 X142.202 Y88.482 E0.02143
G1 X143.201 Y88.783 E0.0347
G1 X144.191 Y89.127 E0.03486
G1 X144.984 Y89.469 E0.02872
G1 X145.738 Y89.84 E0.02795
G1 X146.445 Y90.232 E0.02689
G1 X147.169 Y90.712 E0.02889
G1 X147.763 Y91.143 E0.02441
G1 X148.638 Y91.914 E0.03879
G1 X149.001 Y92.281 E0.01717
G1 X149.478 Y92.838 E0.02439
G1 X149.948 Y93.456 E0.02582
G1 X150.5 Y94.336 E0.03455
G1 X150.96 Y95.42 E0.03917
G1 X151.243 Y96.406 E0.03412
G1 X151.351 Y96.959 E0.01874
G1 X151.436 Y97.84 E0.02944
G1 X151.444 Y98.484 E0.02142
G1 X151.334 Y99.595 E0.03713
G1 X151.092 Y100.55 E0.03277
G1 X150.775 Y101.452 E0.0318
G1 X150.364 Y102.265 E0.0303
G1 X149.933 Y102.95 E0.02692
G1 X149.473 Y103.579 E0.02592
G1 X149.06 Y104.057 E0.02101
G1 X148.639 Y104.491 E0.02011
G1 X148.027 Y105.059 E0.02777
G1 X146.007 Y106.984 E0.09281
G1 X144.089 Y108.919 E0.09062
G1 X142.212 Y110.922 E0.0913
G1 X140.402 Y112.966 E0.09081
G1 X138.631 Y115.083 E0.0918
G1 X136.949 Y117.215 E0.09032
G1 X136.182 Y118.254 E0.04295
G1 X135.07 Y119.714 E0.06104
G1 X134.657 Y120.16 E0.02022
G1 X134.053 Y120.681 E0.02653
G1 X133.582 Y121.008 E0.01907
G1 X132.818 Y121.442 E0.02922
G1 X131.923 Y121.791 E0.03195
G1 X131.396 Y121.952 E0.01833
G1 X130.46 Y122.127 E0.03167
G1 X129.748 Y122.223 E0.0239
G1 X128.936 Y122.275 E0.02706
G1 X127.88 Y122.305 E0.03514
G1 X126.694 Y122.297 E0.03945
G1 X125.409 Y122.224 E0.04281
G1 X124.167 Y122.13 E0.04143
G1 X123.196 Y122.045 E0.03242
G1 X120.233 Y121.762 E0.099
G1 X116.356 Y121.408 E0.12949
G1 X115.162 Y121.274 E0.03996
G1 X113.951 Y121.109 E0.04065
G1 X112.793 Y120.882 E0.03925
G1 X111.582 Y120.58 E0.04151
G1 X110.793 Y120.319 E0.02764
G1 X110.054 Y120.042 E0.02625
G1 X109.045 Y119.609 E0.03652
G1 X108.379 Y119.258 E0.02504
G1 X107.604 Y118.802 E0.02991
G1 X106.874 Y118.284 E0.02977
G1 X106.349 Y117.868 E0.02228
G1 X105.702 Y117.297 E0.0287
G1 X105.245 Y116.818 E0.02202
G1 X104.711 Y116.166 E0.02803
G1 X104.201 Y115.434 E0.02967
G1 X103.903 Y114.933 E0.01939
G1 X103.444 Y113.94 E0.03638
G1 X103.218 Y113.217 E0.02519
G1 X103.082 Y112.718 E0.0172
G1 X102.636 Y110.978 E0.05974
G1 X101.884 Y108.357 E0.09069
G1 X101.057 Y105.76 E0.09065
G1 X100.146 Y103.146 E0.09207
G1 X99.004 Y100.166 E0.10614
G1 X98.793 Y99.58 E0.02072
G1 X98.599 Y98.796 E0.02686
G1 X98.544 Y97.847 E0.03162
G1 X98.637 Y97.039 E0.02705
G1 X98.745 Y96.533 E0.01721
G1 X98.918 Y95.978 E0.01934
G1 X99.343 Y95.027 E0.03465
G1 X100.093 Y93.91 E0.04475
G1 X100.759 Y93.181 E0.03284
G1 F2100 E-0.8
;MESH:20x40_Freeform.stl
G0 F3600 X102.588 Y94.924
G0 X103.399 Y95.642
G0 X131.045 Y117.748
G1 F2100 E0.8
G0 F3600 X131.167 Y118.02
;TYPE:WALL-INNER
G1 F1200 X131.618 Y117.775 E0.01622
G1 X132.096 Y117.364 E0.01992
G1 X132.498 Y116.741 E0.02343
G1 X132.673 Y116.279 E0.01561
G1 X132.848 Y115.54 E0.024
G1 X132.962 Y114.709 E0.0265
G1 X133.13 Y113.007 E0.05404
G1 X133.262 Y112.084 E0.02946
G1 X133.421 Y111.393 E0.0224
G1 X133.731 Y110.44 E0.03167
G1 X134.05 Y109.761 E0.0237
G1 X134.622 Y108.89 E0.03293
G1 X135.158 Y108.265 E0.02602
G1 X135.761 Y107.737 E0.02532
G1 X136.24 Y107.37 E0.01907
G1 X136.836 Y106.965 E0.02277
G1 X137.484 Y106.583 E0.02377
G1 X138.024 Y106.289 E0.01943
G1 X138.581 Y106.005 E0.01976
G1 X139.156 Y105.725 E0.02021
G1 X140.946 Y104.894 E0.06236
G1 X142.096 Y104.347 E0.04024
G1 X142.724 Y104.028 E0.02226
G1 X143.228 Y103.759 E0.01805
G1 X143.765 Y103.454 E0.01951
G1 X144.278 Y103.135 E0.01909
G1 X144.893 Y102.718 E0.02348
G1 X145.435 Y102.29 E0.02182
G1 X145.937 Y101.842 E0.02126
G1 X146.459 Y101.279 E0.02426
G1 X146.815 Y100.793 E0.01904
G1 X147.259 Y100.003 E0.02863
G1 X147.493 Y99.368 E0.02138
G1 X147.583 Y98.991 E0.01225
G1 X147.657 Y98.152 E0.02661
G1 X147.566 Y97.327 E0.02623
G1 X147.394 Y96.728 E0.01969
G1 X147.142 Y96.117 E0.02088
G1 X146.645 Y95.343 E0.02906
G1 X146.09 Y94.719 E0.02639
G1 X145.529 Y94.211 E0.02391
G1 X145 Y93.819 E0.0208
G1 X144.438 Y93.452 E0.02121
G1 X143.819 Y93.116 E0.02225
G1 X143.308 Y92.874 E0.01787
G1 X142.768 Y92.645 E0.01853
G1 X142.214 Y92.442 E0.01864
G1 X141.633 Y92.255 E0.01929
G1 X141.065 Y92.099 E0.01861
G1 X140.473 Y91.955 E0.01925
G1 X139.876 Y91.833 E0.01925
G1 X139.27 Y91.73 E0.01942
G1 X138.674 Y91.648 E0.01901
G1 X138.074 Y91.583 E0.01907
G1 X137.477 Y91.534 E0.01893
G1 X136.886 Y91.502 E0.0187
G1 X136.301 Y91.485 E0.01849
G1 X135.402 Y91.484 E0.02841
G1 X134.61 Y91.518 E0.02505
G1 X133.729 Y91.576 E0.0279
G1 X132.282 Y91.743 E0.04602
G1 X131.086 Y91.948 E0.03834
G1 X130.179 Y92.132 E0.02924
G1 X129.238 Y92.346 E0.03049
G1 X126.785 Y92.947 E0.0798
G1 X125.933 Y93.142 E0.02762
G1 X125.096 Y93.313 E0.02699
G1 X123.992 Y93.502 E0.03539
G1 X122.908 Y93.621 E0.03446
G1 X122.006 Y93.678 E0.02856
G1 X121.09 Y93.692 E0.02895
G1 X120.168 Y93.659 E0.02915
G1 X119.026 Y93.564 E0.03621
G1 X117.834 Y93.393 E0.03805
G1 X116.895 Y93.232 E0.0301
G1 X114.98 Y92.881 E0.06152
G1 X113.774 Y92.695 E0.03856
G1 X113.013 Y92.622 E0.02416
G1 X112.505 Y92.588 E0.01609
G1 X111.988 Y92.573 E0.01634
G1 X111.467 Y92.575 E0.01646
G1 X110.934 Y92.601 E0.01686
G1 X110.396 Y92.65 E0.01707
G1 X109.849 Y92.724 E0.01744
G1 X109.295 Y92.826 E0.0178
G1 X108.75 Y92.951 E0.01767
G1 X108.176 Y93.11 E0.01882
G1 X107.618 Y93.295 E0.01857
G1 X107.06 Y93.51 E0.01889
G1 X106.509 Y93.753 E0.01903
G1 X105.968 Y94.022 E0.01909
G1 X105.443 Y94.316 E0.01901
G1 X104.943 Y94.631 E0.01867
G1 X104.468 Y94.965 E0.01835
G1 X104.031 Y95.313 E0.01765
G1 X103.53 Y95.767 E0.02136
G1 X103.038 Y96.322 E0.02343
G1 X102.671 Y96.87 E0.02084
G1 X102.437 Y97.391 E0.01805
G1 X102.354 Y97.785 E0.01272
G1 X102.342 Y98.08 E0.00933
G1 X102.383 Y98.362 E0.009
G1 X102.474 Y98.633 E0.00903
G1 X102.625 Y98.903 E0.00977
G1 X102.84 Y99.176 E0.01098
G1 X103.123 Y99.447 E0.01238
G1 X103.557 Y99.776 E0.01721
G1 X104.223 Y100.155 E0.02421
G1 X104.877 Y100.446 E0.02262
G1 X105.433 Y100.663 E0.01886
G1 X106.016 Y100.866 E0.01951
G1 X106.615 Y101.056 E0.01986
G1 X107.244 Y101.241 E0.02072
G1 X108.957 Y101.721 E0.05621
G1 X109.773 Y101.961 E0.02688
G1 X110.661 Y102.29 E0.02992
G1 X111.395 Y102.75 E0.02737
G1 X111.677 Y103.077 E0.01364
G1 X111.854 Y103.53 E0.01537
G1 X111.866 Y103.91 E0.01201
G1 X111.647 Y104.51 E0.02018
G1 X111.192 Y105.104 E0.02364
G1 X110.589 Y105.71 E0.02701
G1 X109.2 Y106.997 E0.05983
G1 X108.503 Y107.702 E0.03132
G1 X107.877 Y108.442 E0.03063
G1 X107.447 Y109.038 E0.02322
G1 X107.082 Y109.764 E0.02568
G1 X106.834 Y110.541 E0.02577
G1 X106.76 Y111.104 E0.01794
G1 X106.774 Y111.666 E0.01776
G1 X106.876 Y112.216 E0.01767
G1 X106.99 Y112.582 E0.01211
G1 X107.345 Y113.315 E0.02573
G1 X107.842 Y114.022 E0.02731
G1 X108.266 Y114.507 E0.02036
G1 X109.004 Y115.157 E0.03107
G1 X109.972 Y115.799 E0.0367
G1 X110.989 Y116.342 E0.03643
G1 X111.933 Y116.718 E0.03211
G1 X112.933 Y117.025 E0.03305
G1 X114.085 Y117.276 E0.03725
G1 X114.584 Y117.363 E0.016
G1 X115.08 Y117.437 E0.01585
G1 X116.127 Y117.565 E0.03333
G1 X117.266 Y117.679 E0.03617
G1 X120.241 Y117.945 E0.09438
G1 X123.603 Y118.266 E0.10671
G1 X124.924 Y118.381 E0.0419
G1 X126.255 Y118.472 E0.04215
G1 X126.897 Y118.501 E0.02031
G1 X127.52 Y118.516 E0.01969
G1 X128.414 Y118.51 E0.02825
G1 X129.106 Y118.475 E0.02189
G1 X129.866 Y118.386 E0.02418
G1 X130.643 Y118.221 E0.0251
G1 X131.167 Y118.02 E0.01773
G0 F3600 X131.045 Y117.748
G0 X131.128 Y92.245
G0 X131.012 Y91.555
;TYPE:WALL-OUTER
G1 F1200 X130.095 Y91.741 E0.02956
G1 X129.216 Y91.94 E0.02848
G1 X126.695 Y92.557 E0.08201
G1 X125.853 Y92.75 E0.02729
G1 X125.028 Y92.919 E0.02661
G1 X123.948 Y93.104 E0.03462
G1 X122.882 Y93.222 E0.03389
G1 X122 Y93.278 E0.02792
G1 X121.104 Y93.292 E0.02831
G1 X120.201 Y93.26 E0.02855
G1 X119.082 Y93.168 E0.03548
G1 X117.902 Y92.999 E0.03767
G1 X116.967 Y92.838 E0.02998
G1 X115.046 Y92.487 E0.0617
G1 X114.063 Y92.335 E0.03143
G1 X113.558 Y92.272 E0.01608
G1 X113.045 Y92.223 E0.01628
G1 X112.524 Y92.188 E0.0165
G1 X111.993 Y92.173 E0.01678
G1 X111.456 Y92.175 E0.01697
G1 X110.906 Y92.202 E0.0174
G1 X110.351 Y92.252 E0.01761
G1 X109.786 Y92.329 E0.01802
G1 X109.214 Y92.434 E0.01838
G1 X108.652 Y92.563 E0.01822
G1 X108.06 Y92.727 E0.01941
G1 X107.483 Y92.918 E0.0192
G1 X106.907 Y93.14 E0.0195
G1 X106.339 Y93.391 E0.01962
G1 X105.781 Y93.668 E0.01968
G1 X105.239 Y93.972 E0.01964
G1 X104.721 Y94.298 E0.01934
G1 X104.228 Y94.645 E0.01905
G1 X103.772 Y95.008 E0.01842
G1 X103.245 Y95.485 E0.02246
G1 X102.721 Y96.077 E0.02498
G1 X102.32 Y96.675 E0.02275
G1 X102.055 Y97.266 E0.02047
G1 X101.956 Y97.735 E0.01515
G1 X101.941 Y98.1 E0.01154
G1 X101.992 Y98.455 E0.01133
G1 X102.107 Y98.795 E0.01134
G1 X102.291 Y99.125 E0.01194
G1 X102.543 Y99.446 E0.01289
G1 X102.863 Y99.752 E0.01399
G1 X103.337 Y100.111 E0.01879
G1 X104.042 Y100.513 E0.02564
G1 X104.723 Y100.815 E0.02354
G1 X105.295 Y101.039 E0.01941
G1 X105.89 Y101.246 E0.01991
G1 X106.554 Y101.455 E0.022
G1 X107.136 Y101.626 E0.01917
G1 X108.844 Y102.105 E0.05605
G1 X109.656 Y102.344 E0.02675
G1 X110.481 Y102.65 E0.0278
G1 X111.155 Y103.074 E0.02516
G1 X111.342 Y103.295 E0.00915
G1 X111.453 Y103.55 E0.00879
G1 X111.469 Y103.82 E0.00855
G1 X111.298 Y104.303 E0.01619
G1 X110.888 Y104.844 E0.02145
G1 X110.317 Y105.416 E0.02554
G1 X108.924 Y106.707 E0.06001
G1 X108.563 Y107.062 E0.016
G1 X108.209 Y107.43 E0.01613
G1 X107.704 Y107.999 E0.02404
G1 X107.104 Y108.83 E0.03239
G1 X106.71 Y109.612 E0.02767
G1 X106.442 Y110.453 E0.02789
G1 X106.359 Y111.082 E0.02005
G1 X106.375 Y111.708 E0.01979
G1 X106.487 Y112.312 E0.01941
G1 X106.617 Y112.73 E0.01383
G1 X106.999 Y113.519 E0.0277
G1 X107.527 Y114.269 E0.02898
G1 X107.982 Y114.79 E0.02186
G1 X108.543 Y115.284 E0.02362
G1 X109.125 Y115.739 E0.02334
G1 X109.768 Y116.143 E0.02399
G1 X110.208 Y116.39 E0.01594
G1 X110.658 Y116.618 E0.01594
G1 X111.117 Y116.823 E0.01588
G1 X111.8 Y117.096 E0.02324
G1 X112.538 Y117.322 E0.02439
G1 X113.022 Y117.454 E0.01585
G1 X113.513 Y117.568 E0.01593
G1 X114.011 Y117.669 E0.01606
G1 X114.52 Y117.758 E0.01633
G1 X115.026 Y117.833 E0.01616
G1 X116.083 Y117.963 E0.03365
G1 X117.23 Y118.077 E0.03642
G1 X120.203 Y118.343 E0.09431
G1 X123.568 Y118.664 E0.10681
G1 X124.893 Y118.78 E0.04203
G1 X126.233 Y118.872 E0.04244
G1 X126.883 Y118.901 E0.02056
G1 X127.516 Y118.916 E0.02001
G1 X128.426 Y118.91 E0.02875
G1 X129.14 Y118.874 E0.02259
G1 X129.931 Y118.781 E0.02517
G1 X130.757 Y118.606 E0.02668
G1 X131.335 Y118.384 E0.01956
G1 X131.846 Y118.106 E0.01838
G1 X132.386 Y117.642 E0.0225
G1 X132.597 Y117.373 E0.0108
