M106 P2 S0.0    ;deactivateAllLaser
M106 P3 S0.0    ;deactivateAllLaser
M106 P4 S0.0    ;deactivateAllLaser
M106 P5 S0.0    ;deactivateAllLaser
M106 P6 S0.8
;FLAVOR:Marlin
;TIME:3717
;Filament used: 1.64501m
;Layer height: 0.2
;MINX:113.668
;MINY:55.54
;MINZ:0.2
;MAXX:137.468
;MAXY:79.34
;MAXZ:58
;Generated with Cura_SteamEngine 5.2.2
M82 ;absolute extrusion mode
G21 ; set units to millimeters
G90 ; use absolute positioning
M82 ; absolute extrusion mode
M104 S200 ; set extruder temp
M140 S60 ; set bed temp
M190 S60 ; wait for bed temp
M109 S200 ; wait for extruder temp
;G28 W ; home all without mesh bed level
;G80 ; mesh bed leveling
G92 E0.0 ; reset extruder distance position
G1 Y-3.0 F1000.0 ; go outside print area
G1 X60.0 E9.0 F1000.0 ; intro line
G1 X100.0 E21.5 F1000.0 ; intro line
G92 E0.0 ; reset extruder distance position
M83 ;relative extrusion mode
G1 F2100 E-0.8
;LAYER_COUNT:290
;LAYER:0
M107
G0 F3600 X114.056 Y58.162 Z0.2
;TYPE:SKIRT
G1 F2100 E0.8
G1 F600 X114.333 Y57.638 E0.01971
G1 X114.678 Y57.156 E0.01971
G1 X115.084 Y56.724 E0.01972
G1 X115.545 Y56.351 E0.01972
G1 X116.052 Y56.043 E0.01973
G1 X116.595 Y55.806 E0.01971
G1 X117.166 Y55.644 E0.01974
G1 X118.047 Y55.54 E0.02951
G1 X132.424 Y55.54 E0.47818
G1 X133.122 Y55.55 E0.02322
G1 X133.713 Y55.599 E0.01972
G1 X134.292 Y55.726 E0.01972
G1 X134.849 Y55.93 E0.01973
G1 X135.373 Y56.208 E0.01973
G1 X135.855 Y56.553 E0.01971
G1 X136.287 Y56.96 E0.01974
G1 X136.659 Y57.421 E0.0197
G1 X136.967 Y57.928 E0.01973
G1 X137.203 Y58.472 E0.01972
G1 X137.364 Y59.042 E0.0197
G1 X137.468 Y59.919 E0.02937
G1 X137.468 Y74.258 E0.47692
G1 X137.459 Y74.985 E0.02418
G1 X137.411 Y75.577 E0.01975
G1 X137.285 Y76.156 E0.01971
G1 X137.082 Y76.713 E0.01972
G1 X136.806 Y77.238 E0.01973
G1 X136.462 Y77.721 E0.01972
G1 X136.056 Y78.153 E0.01972
G1 X135.595 Y78.526 E0.01972
G1 X135.089 Y78.835 E0.01972
G1 X134.546 Y79.072 E0.01971
G1 X133.975 Y79.235 E0.01975
G1 X133.089 Y79.34 E0.02967
G1 X118.718 Y79.34 E0.47798
G1 X118.02 Y79.331 E0.02322
G1 X117.429 Y79.283 E0.01972
G1 X116.85 Y79.156 E0.01972
G1 X116.293 Y78.953 E0.01972
G1 X115.768 Y78.677 E0.01973
G1 X115.286 Y78.332 E0.01971
G1 X114.854 Y77.926 E0.01972
G1 X114.48 Y77.465 E0.01974
G1 X114.172 Y76.959 E0.0197
G1 X113.935 Y76.415 E0.01974
G1 X113.773 Y75.845 E0.01971
G1 X113.668 Y74.957 E0.02974
G1 X113.668 Y60.554 E0.47905
G1 X113.677 Y59.889 E0.02212
G1 X113.725 Y59.298 E0.01972
G1 X113.852 Y58.719 E0.01972
G1 X114.056 Y58.162 E0.01973
G0 F3600 X114.454 Y58.253
G1 F600 X114.73 Y57.759 E0.01882
G1 X115.072 Y57.309 E0.0188
G1 X115.474 Y56.912 E0.01879
G1 X115.928 Y56.575 E0.01881
G1 X116.425 Y56.306 E0.0188
G1 X116.955 Y56.109 E0.01881
G1 X117.508 Y55.99 E0.01881
G1 X118.094 Y55.94 E0.01956
G1 X132.418 Y55.94 E0.47642
G1 X133.116 Y55.95 E0.02322
G1 X133.68 Y55.998 E0.01883
G1 X134.23 Y56.125 E0.01877
G1 X134.758 Y56.329 E0.01883
G1 X135.252 Y56.604 E0.0188
G1 X135.701 Y56.947 E0.01879
G1 X136.098 Y57.349 E0.01879
G1 X136.435 Y57.804 E0.01883
G1 X136.703 Y58.301 E0.01878
G1 X136.899 Y58.831 E0.01879
G1 X137.019 Y59.384 E0.01882
G1 X137.068 Y59.969 E0.01953
G1 X137.068 Y74.254 E0.47512
G1 X137.059 Y74.981 E0.02418
G1 X137.012 Y75.544 E0.01879
G1 X136.886 Y76.095 E0.0188
G1 X136.684 Y76.623 E0.0188
G1 X136.409 Y77.117 E0.0188
G1 X136.067 Y77.567 E0.0188
G1 X135.665 Y77.965 E0.01882
G1 X135.212 Y78.302 E0.01878
G1 X134.715 Y78.572 E0.01881
G1 X134.185 Y78.769 E0.01881
G1 X133.633 Y78.89 E0.0188
G1 X133.041 Y78.94 E0.01976
G1 X118.723 Y78.94 E0.47622
G1 X118.025 Y78.931 E0.02322
G1 X117.462 Y78.883 E0.01879
G1 X116.911 Y78.757 E0.0188
G1 X116.383 Y78.555 E0.0188
G1 X115.889 Y78.28 E0.0188
G1 X115.439 Y77.938 E0.0188
G1 X115.041 Y77.536 E0.01882
G1 X114.705 Y77.082 E0.01879
G1 X114.435 Y76.585 E0.01881
G1 X114.238 Y76.055 E0.01881
G1 X114.118 Y75.503 E0.01879
G1 X114.069 Y74.935 E0.01896
G1 X114.068 Y60.56 E0.47811
G1 X114.077 Y59.895 E0.02212
G1 X114.125 Y59.332 E0.01879
G1 X114.251 Y58.781 E0.0188
G1 X114.454 Y58.253 E0.01881
G0 F3600 X114.853 Y58.348
G1 F600 X115.126 Y57.887 E0.01782
G1 X115.465 Y57.471 E0.01785
G1 X115.862 Y57.111 E0.01782
G1 X116.309 Y56.813 E0.01787
G1 X116.794 Y56.585 E0.01782
G1 X117.308 Y56.432 E0.01784
G1 X118.049 Y56.341 E0.02483
G1 X132.413 Y56.34 E0.47775
G1 X133.111 Y56.35 E0.02322
G1 X133.645 Y56.398 E0.01783
G1 X134.166 Y56.524 E0.01783
G1 X134.663 Y56.727 E0.01786
G1 X135.124 Y57.001 E0.01784
G1 X135.539 Y57.34 E0.01782
G1 X135.899 Y57.738 E0.01785
G1 X136.196 Y58.184 E0.01782
G1 X136.424 Y58.67 E0.01785
G1 X136.576 Y59.184 E0.01783
G1 X136.667 Y59.922 E0.02473
G1 X136.668 Y74.249 E0.47652
G1 X136.659 Y74.976 E0.02418
G1 X136.612 Y75.51 E0.01783
G1 X136.487 Y76.031 E0.01782
G1 X136.285 Y76.528 E0.01784
G1 X136.012 Y76.99 E0.01785
G1 X135.674 Y77.406 E0.01783
G1 X135.277 Y77.767 E0.01785
G1 X134.831 Y78.065 E0.01784
G1 X134.346 Y78.293 E0.01782
G1 X133.832 Y78.447 E0.01785
G1 X133.087 Y78.539 E0.02497
G1 X118.729 Y78.54 E0.47755
G1 X118.031 Y78.531 E0.02322
G1 X117.496 Y78.484 E0.01786
G1 X116.975 Y78.358 E0.01783
G1 X116.478 Y78.156 E0.01784
G1 X116.017 Y77.883 E0.01782
G1 X115.601 Y77.544 E0.01785
G1 X115.24 Y77.148 E0.01782
G1 X114.942 Y76.702 E0.01784
G1 X114.714 Y76.216 E0.01785
G1 X114.561 Y75.702 E0.01784
G1 X114.469 Y74.955 E0.02503
G1 X114.468 Y60.565 E0.47861
G1 X114.477 Y59.9 E0.02212
G1 X114.525 Y59.366 E0.01783
G1 X114.651 Y58.845 E0.01783
G1 X114.853 Y58.348 E0.01784
G0 F3600 X115.251 Y58.449
G1 F600 X115.522 Y58.022 E0.01682
G1 X115.857 Y57.644 E0.0168
G1 X116.248 Y57.323 E0.01683
G1 X116.685 Y57.068 E0.01683
G1 X117.156 Y56.884 E0.01682
G1 X117.65 Y56.778 E0.0168
G1 X118.095 Y56.741 E0.01485
G1 X132.407 Y56.74 E0.47602
G1 X133.105 Y56.75 E0.02322
G1 X133.608 Y56.797 E0.0168
G1 X134.098 Y56.923 E0.01683
G1 X134.562 Y57.125 E0.01683
G1 X134.988 Y57.397 E0.01681
G1 X135.366 Y57.732 E0.0168
G1 X135.686 Y58.123 E0.0168
G1 X135.941 Y58.56 E0.01683
G1 X136.124 Y59.031 E0.01681
G1 X136.231 Y59.525 E0.01681
G1 X136.267 Y60.18 E0.02182
G1 X136.268 Y74.244 E0.46777
G1 X136.259 Y74.971 E0.02418
G1 X136.213 Y75.474 E0.0168
G1 X136.088 Y75.964 E0.01682
G1 X135.887 Y76.428 E0.01682
G1 X135.616 Y76.855 E0.01682
G1 X135.281 Y77.234 E0.01682
G1 X134.891 Y77.555 E0.0168
G1 X134.455 Y77.811 E0.01682
G1 X133.984 Y77.994 E0.01681
G1 X133.49 Y78.102 E0.01682
G1 X133.04 Y78.139 E0.01502
G1 X118.734 Y78.14 E0.47582
G1 X118.036 Y78.131 E0.02322
G1 X117.532 Y78.084 E0.01684
G1 X117.042 Y77.959 E0.01682
G1 X116.578 Y77.758 E0.01682
G1 X116.152 Y77.487 E0.01679
G1 X115.773 Y77.152 E0.01682
G1 X115.452 Y76.761 E0.01683
G1 X115.197 Y76.325 E0.0168
G1 X115.013 Y75.854 E0.01682
G1 X114.906 Y75.36 E0.01681
G1 X114.869 Y74.907 E0.01512
G1 X114.868 Y60.571 E0.47682
G1 X114.877 Y59.906 E0.02212
G1 X114.924 Y59.402 E0.01684
G1 X115.05 Y58.913 E0.0168
G1 X115.251 Y58.449 E0.01682
G1 F2100 E-0.8
;MESH:Tensile_Testing_V2.stl
G0 F3600 X117.403 Y60.354
G0 X118.482 Y60.354
G1 F2100 E0.8
G0 F3600 X118.668 Y60.54
;TYPE:WALL-INNER
G1 F600 X118.668 Y74.34 E0.45899
G1 X132.468 Y74.34 E0.45899
G1 X132.468 Y60.54 E0.45899
G1 X118.668 Y60.54 E0.45899
G0 F3600 X118.268 Y60.14
;TYPE:WALL-OUTER
G1 F600 X118.268 Y74.74 E0.4856
G1 X132.868 Y74.74 E0.4856
G1 X132.868 Y60.14 E0.4856
G1 X118.268 Y60.14 E0.4856
G0 F3600 X118.268 Y60.34
G0 X119.048 Y60.92
;TYPE:SKIN
G1 F600 X119.048 Y67.44 E0.21686
G1 X119.048 Y73.96 E0.21686
G1 X132.088 Y73.96 E0.43371
G1 X132.088 Y60.92 E0.43371
G1 X119.048 Y60.92 E0.43371
G0 F3600 X131.887 Y61.176
G1 F600 X131.83 Y61.12 E0.00266
G0 F3600 X131.265 Y61.12
G1 F600 X131.887 Y61.742 E0.02926
G0 F3600 X131.887 Y62.308
G1 F600 X130.699 Y61.12 E0.05588
G0 F3600 X130.133 Y61.12
G1 F600 X131.887 Y62.873 E0.08248
G0 F3600 X131.887 Y63.439
G1 F600 X129.568 Y61.12 E0.10908
G0 F3600 X129.002 Y61.12
G1 F600 X131.887 Y64.005 E0.1357
G0 F3600 X131.887 Y64.57
G1 F600 X128.436 Y61.12 E0.1623
G0 F3600 X127.871 Y61.12
G1 F600 X131.887 Y65.136 E0.1889
G0 F3600 X131.887 Y65.702
G1 F600 X127.305 Y61.12 E0.21552
G0 F3600 X126.739 Y61.12
G1 F600 X131.887 Y66.267 E0.24212
G0 F3600 X131.887 Y66.833
G1 F600 X126.174 Y61.12 E0.26872
G0 F3600 X125.608 Y61.12
G1 F600 X131.887 Y67.399 E0.29534
G0 F3600 X131.887 Y67.964
G1 F600 X125.042 Y61.12 E0.32194
G0 F3600 X124.476 Y61.12
G1 F600 X131.887 Y68.53 E0.34857
G0 F3600 X131.887 Y69.096
G1 F600 X123.911 Y61.12 E0.37517
G0 F3600 X123.345 Y61.12
G1 F600 X131.887 Y69.662 E0.40179
G0 F3600 X131.887 Y70.227
G1 F600 X122.779 Y61.12 E0.42839
G0 F3600 X122.214 Y61.12
G1 F600 X131.887 Y70.793 E0.45499
G0 F3600 X131.887 Y71.359
G1 F600 X121.648 Y61.12 E0.48161
G0 F3600 X121.082 Y61.12
G1 F600 X131.887 Y71.924 E0.50821
G0 F3600 X131.887 Y72.49
G1 F600 X120.517 Y61.12 E0.53481
G0 F3600 X119.951 Y61.12
G1 F600 X131.887 Y73.056 E0.56143
G0 F3600 X131.887 Y73.621
G1 F600 X119.385 Y61.12 E0.58803
G0 F3600 X119.247 Y61.547
G1 F600 X131.46 Y73.76 E0.57446
G0 F3600 X130.894 Y73.76
G1 F600 X119.247 Y62.112 E0.54786
G0 F3600 X119.247 Y62.678
G1 F600 X130.328 Y73.76 E0.52124
G0 F3600 X129.763 Y73.76
G1 F600 X119.247 Y63.244 E0.49464
G0 F3600 X119.247 Y63.81
G1 F600 X129.197 Y73.76 E0.46802
G0 F3600 X128.631 Y73.76
G1 F600 X119.247 Y64.375 E0.44142
G0 F3600 X119.247 Y64.941
G1 F600 X128.066 Y73.76 E0.41482
G0 F3600 X127.5 Y73.76
G1 F600 X119.247 Y65.507 E0.3882
G0 F3600 X119.247 Y66.072
G1 F600 X126.934 Y73.76 E0.3616
G0 F3600 X126.369 Y73.76
G1 F600 X119.247 Y66.638 E0.335
G0 F3600 X119.247 Y67.204
G1 F600 X125.803 Y73.76 E0.30837
G0 F3600 X125.237 Y73.76
G1 F600 X119.247 Y67.769 E0.28177
G0 F3600 X119.247 Y68.335
G1 F600 X124.672 Y73.76 E0.25518
G0 F3600 X124.106 Y73.76
G1 F600 X119.247 Y68.901 E0.22855
G0 F3600 X119.247 Y69.466
G1 F600 X123.54 Y73.76 E0.20195
G0 F3600 X122.975 Y73.76
G1 F600 X119.247 Y70.032 E0.17535
G0 F3600 X119.247 Y70.598
G1 F600 X122.409 Y73.76 E0.14873
G0 F3600 X121.843 Y73.76
G1 F600 X119.247 Y71.163 E0.12213
G0 F3600 X119.247 Y71.729
G1 F600 X121.278 Y73.76 E0.09553
G0 F3600 X120.712 Y73.76
G1 F600 X119.247 Y72.295 E0.06891
G0 F3600 X119.247 Y72.86
G1 F600 X120.146 Y73.76 E0.04231
G0 F3600 X119.58 Y73.76
G1 F600 X119.247 Y73.426 E0.01569
M104 S200
G0 F3600 X119.268 Y73.426
;MESH:NONMESH
G0 F600 X119.268 Y73.426 Z0.4
G0 F3600 X118.938 Y60.81
G0 X118.668 Y60.54
;TIME_ELAPSED:96.932838
;LAYER:1
M106 S255
;TYPE:WALL-INNER
;MESH:Tensile_Testing_V2.stl
G1 F900 X118.668 Y74.34 E0.45899
G1 X132.468 Y74.34 E0.45899
G1 X132.468 Y60.54 E0.45899
G1 X118.668 Y60.54 E0.45899
G0 F5400 X118.268 Y60.14
;TYPE:WALL-OUTER
G1 F600 X118.268 Y74.74 E0.4856
G1 X132.868 Y74.74 E0.4856
G1 X132.868 Y60.14 E0.4856
G1 X118.268 Y60.14 E0.4856
G0 F5400 X118.268 Y60.34
G0 X119.048 Y60.92
;TYPE:SKIN
G1 F600 X119.048 Y67.44 E0.21686
G1 X119.048 Y73.96 E0.21686
G1 X132.088 Y73.96 E0.43371
G1 X132.088 Y60.92 E0.43371
G1 X119.048 Y60.92 E0.43371
G0 F5400 X119.333 Y61.12
G1 F600 X119.247 Y61.206 E0.00405
G0 F5400 X119.247 Y61.772
G1 F600 X119.899 Y61.12 E0.03067
G0 F5400 X120.464 Y61.12
G1 F600 X119.247 Y62.337 E0.05724
G0 F5400 X119.247 Y62.903
G1 F600 X121.03 Y61.12 E0.08387
G0 F5400 X121.596 Y61.12
G1 F600 X119.247 Y63.469 E0.11049
G0 F5400 X119.247 Y64.034
G1 F600 X122.161 Y61.12 E0.13707
G0 F5400 X122.727 Y61.12
G1 F600 X119.247 Y64.6 E0.16369
G0 F5400 X119.247 Y65.166
G1 F600 X123.293 Y61.12 E0.19031
G0 F5400 X123.858 Y61.12
G1 F600 X119.247 Y65.731 E0.21689
G0 F5400 X119.247 Y66.297
G1 F600 X124.424 Y61.12 E0.24351
G0 F5400 X124.99 Y61.12
G1 F600 X119.247 Y66.863 E0.27013
G0 F5400 X119.247 Y67.428
G1 F600 X125.556 Y61.12 E0.29673
G0 F5400 X126.121 Y61.12
G1 F600 X119.247 Y67.994 E0.32333
G0 F5400 X119.247 Y68.56
G1 F600 X126.687 Y61.12 E0.34995
G0 F5400 X127.253 Y61.12
G1 F600 X119.247 Y69.126 E0.37658
G0 F5400 X119.247 Y69.691
G1 F600 X127.818 Y61.12 E0.40315
G0 F5400 X128.384 Y61.12
G1 F600 X119.247 Y70.257 E0.42978
G0 F5400 X119.247 Y70.823
G1 F600 X128.95 Y61.12 E0.4564
G0 F5400 X129.515 Y61.12
G1 F600 X119.247 Y71.388 E0.48298
G0 F5400 X119.247 Y71.954
G1 F600 X130.081 Y61.12 E0.5096
G0 F5400 X130.647 Y61.12
G1 F600 X119.247 Y72.52 E0.53622
G0 F5400 X119.247 Y73.085
G1 F600 X131.212 Y61.12 E0.5628
G0 F5400 X131.778 Y61.12
G1 F600 X119.247 Y73.651 E0.58942
G0 F5400 X119.703 Y73.76
G1 F600 X131.887 Y61.576 E0.5731
G0 F5400 X131.887 Y62.142
G1 F600 X120.269 Y73.76 E0.54648
G0 F5400 X120.835 Y73.76
G1 F600 X131.887 Y62.708 E0.51985
G0 F5400 X131.887 Y63.274
G1 F600 X121.401 Y73.76 E0.49323
G0 F5400 X121.966 Y73.76
G1 F600 X131.887 Y63.839 E0.46665
G0 F5400 X131.887 Y64.405
G1 F600 X122.532 Y73.76 E0.44003
G0 F5400 X123.098 Y73.76
G1 F600 X131.887 Y64.971 E0.41341
G0 F5400 X131.887 Y65.536
G1 F600 X123.663 Y73.76 E0.38683
G0 F5400 X124.229 Y73.76
G1 F600 X131.887 Y66.102 E0.36021
G0 F5400 X131.887 Y66.668
G1 F600 X124.795 Y73.76 E0.33359
G0 F5400 X125.36 Y73.76
G1 F600 X131.887 Y67.233 E0.30701
G0 F5400 X131.887 Y67.799
G1 F600 X125.926 Y73.76 E0.28039
G0 F5400 X126.492 Y73.76
G1 F600 X131.887 Y68.365 E0.25376
G0 F5400 X131.887 Y68.93
G1 F600 X127.057 Y73.76 E0.22719
G0 F5400 X127.623 Y73.76
G1 F600 X131.887 Y69.496 E0.20057
G0 F5400 X131.887 Y70.062
G1 F600 X128.189 Y73.76 E0.17394
G0 F5400 X128.754 Y73.76
G1 F600 X131.887 Y70.627 E0.14737
G0 F5400 X131.887 Y71.193
G1 F600 X129.32 Y73.76 E0.12074
G0 F5400 X129.886 Y73.76
G1 F600 X131.887 Y71.759 E0.09412
G0 F5400 X131.887 Y72.325
G1 F600 X130.452 Y73.76 E0.0675
G0 F5400 X131.017 Y73.76
G1 F600 X131.887 Y72.89 E0.04092
G0 F5400 X131.887 Y73.456
G1 F600 X131.583 Y73.76 E0.0143
G0 F5400 X131.583 Y73.74
;MESH:NONMESH
G0 F600 X131.583 Y73.74 Z0.6
G0 F5400 X118.938 Y60.81
G0 X118.668 Y60.54
;TIME_ELAPSED:153.993925
;LAYER:2
;TYPE:WALL-INNER
;MESH:Tensile_Testing_V2.stl
G1 F1200 X118.668 Y67.44 E0.22949
G1 X118.668 Y74.34 E0.22949
G1 X132.468 Y74.34 E0.45899
G1 X132.468 Y60.54 E0.45899
G1 X118.668 Y60.54 E0.45899
G0 F7200 X118.268 Y60.14
;TYPE:WALL-OUTER
G1 F600 X118.268 Y67.44 E0.2428
G1 X118.268 Y74.74 E0.2428
G1 X132.868 Y74.74 E0.4856
G1 X132.868 Y60.14 E0.4856
G1 X118.268 Y60.14 E0.4856
G0 F7200 X118.268 Y60.34
G0 X119.048 Y60.92
;TYPE:SKIN
G1 F600 X119.048 Y67.44 E0.21686
G1 X119.048 Y73.96 E0.21686
G1 X132.088 Y73.96 E0.43371
G1 X132.088 Y60.92 E0.43371
G1 X119.048 Y60.92 E0.43371
G0 F7200 X131.887 Y61.176
G1 F600 X131.83 Y61.12 E0.00266
G0 F7200 X131.265 Y61.12
G1 F600 X131.887 Y61.742 E0.02926
G0 F7200 X131.887 Y62.308
G1 F600 X130.699 Y61.12 E0.05588
G0 F7200 X130.133 Y61.12
G1 F600 X131.887 Y62.873 E0.08248
G0 F7200 X131.887 Y63.439
G1 F600 X129.568 Y61.12 E0.10908
G0 F7200 X129.002 Y61.12
G1 F600 X131.887 Y64.005 E0.1357
G0 F7200 X131.887 Y64.57
G1 F600 X128.436 Y61.12 E0.1623
G0 F7200 X127.871 Y61.12
G1 F600 X131.887 Y65.136 E0.1889
G0 F7200 X131.887 Y65.702
G1 F600 X127.305 Y61.12 E0.21552
G0 F7200 X126.739 Y61.12
G1 F600 X131.887 Y66.267 E0.24212
G0 F7200 X131.887 Y66.833
G1 F600 X126.174 Y61.12 E0.26872
G0 F7200 X125.608 Y61.12
G1 F600 X131.887 Y67.399 E0.29534
G0 F7200 X131.887 Y67.964
G1 F600 X125.042 Y61.12 E0.32194
G0 F7200 X124.476 Y61.12
G1 F600 X131.887 Y68.53 E0.34857
G0 F7200 X131.887 Y69.096
G1 F600 X123.911 Y61.12 E0.37517
G0 F7200 X123.345 Y61.12
G1 F600 X131.887 Y69.662 E0.40179
G0 F7200 X131.887 Y70.227
G1 F600 X122.779 Y61.12 E0.42839
G0 F7200 X122.214 Y61.12
G1 F600 X131.887 Y70.793 E0.45499
G0 F7200 X131.887 Y71.359
G1 F600 X121.648 Y61.12 E0.48161
G0 F7200 X121.082 Y61.12
G1 F600 X131.887 Y71.924 E0.50821
G0 F7200 X131.887 Y72.49
G1 F600 X120.517 Y61.12 E0.53481
G0 F7200 X119.951 Y61.12
G1 F600 X131.887 Y73.056 E0.56143
G0 F7200 X131.887 Y73.621
G1 F600 X119.385 Y61.12 E0.58803
G0 F7200 X119.247 Y61.547
G1 F600 X131.46 Y73.76 E0.57446
G0 F7200 X130.894 Y73.76
G1 F600 X119.247 Y62.112 E0.54786
G0 F7200 X119.247 Y62.678
G1 F600 X130.328 Y73.76 E0.52124
G0 F7200 X129.763 Y73.76
G1 F600 X119.247 Y63.244 E0.49464
G0 F7200 X119.247 Y63.81
G1 F600 X129.197 Y73.76 E0.46802
G0 F7200 X128.631 Y73.76
G1 F600 X119.247 Y64.375 E0.44142
G0 F7200 X119.247 Y64.941
G1 F600 X128.066 Y73.76 E0.41482
G0 F7200 X127.5 Y73.76
G1 F600 X119.247 Y65.507 E0.3882
G0 F7200 X119.247 Y66.072
G1 F600 X126.934 Y73.76 E0.3616
