;FLAVOR:Marlin
;TIME:4334
;Filament used: 2.81148m
;Layer height: 0.2
;MINX:113.1
;MINY:43.1
;MINZ:0.2
;MAXX:136.9
;MAXY:66.9
;MAXZ:58
;Generated with Cura_SteamEngine 5.2.2
M82 ;absolute extrusion mode
G21 ; set units to millimeters
G90 ; use absolute positioning
M82 ; absolute extrusion mode
M104 S200 ; set extruder temp
M140 S60 ; set bed temp
M190 S60 ; wait for bed temp
M109 S200 ; wait for extruder temp
;G28 W ; home all without mesh bed level
;G80 ; mesh bed leveling
G92 E0.0 ; reset extruder distance position
G1 Y-3.0 F1000.0 ; go outside print area
G1 X60.0 E9.0 F1000.0 ; intro line
G1 X100.0 E21.5 F1000.0 ; intro line
G92 E0.0 ; reset extruder distance position
M83 ;relative extrusion mode
G1 F2100 E-0.8
;LAYER_COUNT:290
;LAYER:0
M107
G0 F3600 X113.488 Y45.722 Z0.2
;TYPE:SKIRT
G1 F2100 E0.8
G1 F1200 X113.765 Y45.198 E0.01971
G1 X114.11 Y44.716 E0.01971
G1 X114.516 Y44.284 E0.01972
G1 X114.977 Y43.911 E0.01972
G1 X115.484 Y43.603 E0.01973
G1 X116.027 Y43.366 E0.01971
G1 X116.598 Y43.204 E0.01974
G1 X117.479 Y43.1 E0.02951
G1 X131.856 Y43.1 E0.47818
G1 X132.554 Y43.11 E0.02322
G1 X133.145 Y43.159 E0.01972
G1 X133.724 Y43.286 E0.01972
G1 X134.281 Y43.49 E0.01973
G1 X134.805 Y43.768 E0.01973
G1 X135.287 Y44.113 E0.01971
G1 X135.719 Y44.52 E0.01974
G1 X136.091 Y44.981 E0.0197
G1 X136.399 Y45.488 E0.01973
G1 X136.635 Y46.032 E0.01972
G1 X136.796 Y46.602 E0.0197
G1 X136.9 Y47.479 E0.02937
G1 X136.9 Y61.818 E0.47692
G1 X136.891 Y62.545 E0.02418
G1 X136.843 Y63.137 E0.01975
G1 X136.717 Y63.716 E0.01971
G1 X136.514 Y64.273 E0.01972
G1 X136.238 Y64.798 E0.01973
G1 X135.894 Y65.281 E0.01972
G1 X135.488 Y65.713 E0.01972
G1 X135.027 Y66.086 E0.01972
G1 X134.521 Y66.395 E0.01972
G1 X133.978 Y66.632 E0.01971
G1 X133.407 Y66.795 E0.01975
G1 X132.521 Y66.9 E0.02967
G1 X118.15 Y66.9 E0.47798
G1 X117.452 Y66.891 E0.02322
G1 X116.861 Y66.843 E0.01972
G1 X116.282 Y66.716 E0.01972
G1 X115.725 Y66.513 E0.01972
G1 X115.2 Y66.237 E0.01973
G1 X114.718 Y65.892 E0.01971
G1 X114.286 Y65.486 E0.01972
G1 X113.912 Y65.025 E0.01974
G1 X113.604 Y64.519 E0.0197
G1 X113.367 Y63.975 E0.01974
G1 X113.205 Y63.405 E0.01971
G1 X113.1 Y62.517 E0.02974
G1 X113.1 Y48.114 E0.47905
G1 X113.109 Y47.449 E0.02212
G1 X113.157 Y46.858 E0.01972
G1 X113.284 Y46.279 E0.01972
G1 X113.488 Y45.722 E0.01973
G0 F3600 X113.886 Y45.813
G1 F1200 X114.162 Y45.319 E0.01882
G1 X114.504 Y44.869 E0.0188
G1 X114.906 Y44.472 E0.01879
G1 X115.36 Y44.135 E0.01881
G1 X115.857 Y43.866 E0.0188
G1 X116.387 Y43.669 E0.01881
G1 X116.94 Y43.55 E0.01881
G1 X117.526 Y43.5 E0.01956
G1 X131.85 Y43.5 E0.47642
G1 X132.548 Y43.51 E0.02322
G1 X133.112 Y43.558 E0.01883
G1 X133.662 Y43.685 E0.01877
G1 X134.19 Y43.889 E0.01883
G1 X134.684 Y44.164 E0.0188
G1 X135.133 Y44.507 E0.01879
G1 X135.53 Y44.909 E0.01879
G1 X135.867 Y45.364 E0.01883
G1 X136.135 Y45.861 E0.01878
G1 X136.331 Y46.391 E0.01879
G1 X136.451 Y46.944 E0.01882
G1 X136.5 Y47.529 E0.01953
G1 X136.5 Y61.814 E0.47512
G1 X136.491 Y62.541 E0.02418
G1 X136.444 Y63.104 E0.01879
G1 X136.318 Y63.655 E0.0188
G1 X136.116 Y64.183 E0.0188
G1 X135.841 Y64.677 E0.0188
G1 X135.499 Y65.127 E0.0188
G1 X135.097 Y65.525 E0.01882
G1 X134.644 Y65.862 E0.01878
G1 X134.147 Y66.132 E0.01881
G1 X133.617 Y66.329 E0.01881
G1 X133.065 Y66.45 E0.0188
G1 X132.473 Y66.5 E0.01976
G1 X118.155 Y66.5 E0.47622
G1 X117.457 Y66.491 E0.02322
G1 X116.894 Y66.443 E0.01879
G1 X116.343 Y66.317 E0.0188
G1 X115.815 Y66.115 E0.0188
G1 X115.321 Y65.84 E0.0188
G1 X114.871 Y65.498 E0.0188
G1 X114.473 Y65.096 E0.01882
G1 X114.137 Y64.642 E0.01879
G1 X113.867 Y64.145 E0.01881
G1 X113.67 Y63.615 E0.01881
G1 X113.55 Y63.063 E0.01879
G1 X113.501 Y62.495 E0.01896
G1 X113.5 Y48.12 E0.47811
G1 X113.509 Y47.455 E0.02212
G1 X113.557 Y46.892 E0.01879
G1 X113.683 Y46.341 E0.0188
G1 X113.886 Y45.813 E0.01881
G0 F3600 X114.285 Y45.908
G1 F1200 X114.558 Y45.447 E0.01782
G1 X114.897 Y45.031 E0.01785
G1 X115.294 Y44.671 E0.01782
G1 X115.741 Y44.373 E0.01787
G1 X116.226 Y44.145 E0.01782
G1 X116.74 Y43.992 E0.01784
G1 X117.481 Y43.901 E0.02483
G1 X131.845 Y43.9 E0.47775
G1 X132.543 Y43.91 E0.02322
G1 X133.077 Y43.958 E0.01783
G1 X133.598 Y44.084 E0.01783
G1 X134.095 Y44.287 E0.01786
G1 X134.556 Y44.561 E0.01784
G1 X134.971 Y44.9 E0.01782
G1 X135.331 Y45.298 E0.01785
G1 X135.628 Y45.744 E0.01782
G1 X135.856 Y46.23 E0.01785
G1 X136.008 Y46.744 E0.01783
G1 X136.099 Y47.482 E0.02473
G1 X136.1 Y61.809 E0.47652
G1 X136.091 Y62.536 E0.02418
G1 X136.044 Y63.07 E0.01783
G1 X135.919 Y63.591 E0.01782
G1 X135.717 Y64.088 E0.01784
G1 X135.444 Y64.55 E0.01785
G1 X135.106 Y64.966 E0.01783
G1 X134.709 Y65.327 E0.01785
G1 X134.263 Y65.625 E0.01784
G1 X133.778 Y65.853 E0.01782
G1 X133.264 Y66.007 E0.01785
G1 X132.519 Y66.099 E0.02497
G1 X118.161 Y66.1 E0.47755
G1 X117.463 Y66.091 E0.02322
G1 X116.928 Y66.044 E0.01786
G1 X116.407 Y65.918 E0.01783
G1 X115.91 Y65.716 E0.01784
G1 X115.449 Y65.443 E0.01782
G1 X115.033 Y65.104 E0.01785
G1 X114.672 Y64.708 E0.01782
G1 X114.374 Y64.262 E0.01784
G1 X114.146 Y63.776 E0.01785
G1 X113.993 Y63.262 E0.01784
G1 X113.901 Y62.515 E0.02503
G1 X113.9 Y48.125 E0.47861
G1 X113.909 Y47.46 E0.02212
G1 X113.957 Y46.926 E0.01783
G1 X114.083 Y46.405 E0.01783
G1 X114.285 Y45.908 E0.01784
G0 F3600 X114.683 Y46.009
G1 F1200 X114.954 Y45.582 E0.01682
G1 X115.289 Y45.204 E0.0168
G1 X115.68 Y44.883 E0.01683
G1 X116.117 Y44.628 E0.01683
G1 X116.588 Y44.444 E0.01682
G1 X117.082 Y44.338 E0.0168
G1 X117.527 Y44.301 E0.01485
G1 X131.839 Y44.3 E0.47602
G1 X132.537 Y44.31 E0.02322
G1 X133.04 Y44.357 E0.0168
G1 X133.53 Y44.483 E0.01683
G1 X133.994 Y44.685 E0.01683
G1 X134.42 Y44.957 E0.01681
G1 X134.798 Y45.292 E0.0168
G1 X135.118 Y45.683 E0.0168
G1 X135.373 Y46.12 E0.01683
G1 X135.556 Y46.591 E0.01681
G1 X135.663 Y47.085 E0.01681
G1 X135.699 Y47.74 E0.02182
G1 X135.7 Y61.804 E0.46777
G1 X135.691 Y62.531 E0.02418
G1 X135.645 Y63.034 E0.0168
G1 X135.52 Y63.524 E0.01682
G1 X135.319 Y63.988 E0.01682
G1 X135.048 Y64.415 E0.01682
G1 X134.713 Y64.794 E0.01682
G1 X134.323 Y65.115 E0.0168
G1 X133.887 Y65.371 E0.01682
G1 X133.416 Y65.554 E0.01681
G1 X132.922 Y65.662 E0.01682
G1 X132.472 Y65.699 E0.01502
G1 X118.166 Y65.7 E0.47582
G1 X117.468 Y65.691 E0.02322
G1 X116.964 Y65.644 E0.01684
G1 X116.474 Y65.519 E0.01682
G1 X116.01 Y65.318 E0.01682
G1 X115.584 Y65.047 E0.01679
G1 X115.205 Y64.712 E0.01682
G1 X114.884 Y64.321 E0.01683
G1 X114.629 Y63.885 E0.0168
G1 X114.445 Y63.414 E0.01682
G1 X114.338 Y62.92 E0.01681
G1 X114.301 Y62.467 E0.01512
G1 X114.3 Y48.131 E0.47682
G1 X114.309 Y47.466 E0.02212
G1 X114.356 Y46.962 E0.01684
G1 X114.482 Y46.473 E0.0168
G1 X114.683 Y46.009 E0.01682
G1 F2100 E-0.8
;MESH:Tensile_Testing_V2.stl
G0 F3600 X116.835 Y47.914
G0 X117.914 Y47.914
G1 F2100 E0.8
G0 F3600 X118.1 Y48.1
;TYPE:WALL-INNER
G1 F1200 X118.1 Y61.9 E0.43604
G1 X131.9 Y61.9 E0.43604
G1 X131.9 Y48.1 E0.43604
G1 X118.1 Y48.1 E0.43604
G0 F3600 X118.37 Y48.37
G0 X132.03 Y62.03
G0 X132.3 Y62.3
;TYPE:WALL-OUTER
G1 F1200 X132.3 Y47.7 E0.46132
G1 X117.7 Y47.7 E0.46132
G1 X117.7 Y62.3 E0.46132
G1 X132.3 Y62.3 E0.46132
G0 F3600 X132.3 Y62.1
G0 X131.63 Y61.63
G0 X131.52 Y48.48
;TYPE:SKIN
G1 F1200 X118.48 Y48.48 E0.43371
G1 X118.48 Y55 E0.21686
G1 X118.48 Y61.52 E0.21686
G1 X131.52 Y61.52 E0.43371
G1 X131.52 Y48.48 E0.43371
G0 F3600 X131.2 Y61.32
G1 F1200 X131.2 Y48.68 E0.42041
G0 F3600 X130.8 Y48.68
G1 F1200 X130.8 Y61.32 E0.42041
G0 F3600 X130.4 Y61.32
G1 F1200 X130.4 Y48.68 E0.42041
G0 F3600 X130 Y48.68
G1 F1200 X130 Y61.32 E0.42041
G0 F3600 X129.6 Y61.32
G1 F1200 X129.6 Y48.68 E0.42041
G0 F3600 X129.2 Y48.68
G1 F1200 X129.2 Y61.32 E0.42041
G0 F3600 X128.8 Y61.32
G1 F1200 X128.8 Y48.68 E0.42041
G0 F3600 X128.4 Y48.68
G1 F1200 X128.4 Y61.32 E0.42041
G0 F3600 X128 Y61.32
G1 F1200 X128 Y48.68 E0.42041
G0 F3600 X127.6 Y48.68
G1 F1200 X127.6 Y61.32 E0.42041
G0 F3600 X127.2 Y61.32
G1 F1200 X127.2 Y48.68 E0.42041
G0 F3600 X126.8 Y48.68
G1 F1200 X126.8 Y61.32 E0.42041
G0 F3600 X126.4 Y61.32
G1 F1200 X126.4 Y48.68 E0.42041
G0 F3600 X126 Y48.68
G1 F1200 X126 Y61.32 E0.42041
G0 F3600 X125.6 Y61.32
G1 F1200 X125.6 Y48.68 E0.42041
G0 F3600 X125.2 Y48.68
G1 F1200 X125.2 Y61.32 E0.42041
G0 F3600 X124.8 Y61.32
G1 F1200 X124.8 Y48.68 E0.42041
G0 F3600 X124.4 Y48.68
G1 F1200 X124.4 Y61.32 E0.42041
G0 F3600 X124 Y61.32
G1 F1200 X124 Y48.68 E0.42041
G0 F3600 X123.6 Y48.68
G1 F1200 X123.6 Y61.32 E0.42041
G0 F3600 X123.2 Y61.32
G1 F1200 X123.2 Y48.68 E0.42041
G0 F3600 X122.8 Y48.68
G1 F1200 X122.8 Y61.32 E0.42041
G0 F3600 X122.4 Y61.32
G1 F1200 X122.4 Y48.68 E0.42041
G0 F3600 X122 Y48.68
G1 F1200 X122 Y61.32 E0.42041
G0 F3600 X121.6 Y61.32
G1 F1200 X121.6 Y48.68 E0.42041
G0 F3600 X121.2 Y48.68
G1 F1200 X121.2 Y61.32 E0.42041
G0 F3600 X120.8 Y61.32
G1 F1200 X120.8 Y48.68 E0.42041
G0 F3600 X120.4 Y48.68
G1 F1200 X120.4 Y61.32 E0.42041
G0 F3600 X120 Y61.32
G1 F1200 X120 Y48.68 E0.42041
G0 F3600 X119.6 Y48.68
G1 F1200 X119.6 Y61.32 E0.42041
G0 F3600 X119.2 Y61.32
G1 F1200 X119.2 Y48.68 E0.42041
G0 F3600 X118.8 Y48.68
G1 F1200 X118.8 Y61.32 E0.42041
G1 X118.8 Y61.42
M104 S200
G0 F3600 X118.8 Y61.3
;MESH:NONMESH
G0 F600 X118.8 Y61.3 Z0.4
G0 F3600 X118.37 Y48.37
G0 X118.1 Y48.1
;TIME_ELAPSED:52.206481
;LAYER:1
M106 S255
;TYPE:WALL-INNER
;MESH:Tensile_Testing_V2.stl
G1 F1800 X118.1 Y61.9 E0.43604
G1 X131.9 Y61.9 E0.43604
G1 X131.9 Y48.1 E0.43604
G1 X118.1 Y48.1 E0.43604
G0 F5400 X117.7 Y47.7
;TYPE:WALL-OUTER
G1 F1200 X117.7 Y62.3 E0.46132
G1 X132.3 Y62.3 E0.46132
G1 X132.3 Y47.7 E0.46132
G1 X117.7 Y47.7 E0.46132
G0 F5400 X117.7 Y47.9
G0 X118.48 Y48.48
;TYPE:SKIN
G1 F1200 X118.48 Y61.52 E0.43371
G1 X131.52 Y61.52 E0.43371
G1 X131.52 Y48.48 E0.43371
G1 X118.48 Y48.48 E0.43371
G0 F5400 X118.68 Y48.8
G1 F1200 X131.32 Y48.8 E0.42041
G0 F5400 X131.32 Y49.2
G1 F1200 X118.68 Y49.2 E0.42041
G0 F5400 X118.68 Y49.6
G1 F1200 X131.32 Y49.6 E0.42041
G0 F5400 X131.32 Y50
G1 F1200 X118.68 Y50 E0.42041
G0 F5400 X118.68 Y50.4
G1 F1200 X131.32 Y50.4 E0.42041
G0 F5400 X131.32 Y50.8
G1 F1200 X118.68 Y50.8 E0.42041
G0 F5400 X118.68 Y51.2
G1 F1200 X131.32 Y51.2 E0.42041
G0 F5400 X131.32 Y51.6
G1 F1200 X118.68 Y51.6 E0.42041
G0 F5400 X118.68 Y52
G1 F1200 X131.32 Y52 E0.42041
G0 F5400 X131.32 Y52.4
G1 F1200 X118.68 Y52.4 E0.42041
G0 F5400 X118.68 Y52.8
G1 F1200 X131.32 Y52.8 E0.42041
G0 F5400 X131.32 Y53.2
G1 F1200 X118.68 Y53.2 E0.42041
G0 F5400 X118.68 Y53.6
G1 F1200 X131.32 Y53.6 E0.42041
G0 F5400 X131.32 Y54
G1 F1200 X118.68 Y54 E0.42041
G0 F5400 X118.68 Y54.4
G1 F1200 X131.32 Y54.4 E0.42041
G0 F5400 X131.32 Y54.8
G1 F1200 X118.68 Y54.8 E0.42041
G0 F5400 X118.68 Y55.2
G1 F1200 X131.32 Y55.2 E0.42041
G0 F5400 X131.32 Y55.6
G1 F1200 X118.68 Y55.6 E0.42041
G0 F5400 X118.68 Y56
G1 F1200 X131.32 Y56 E0.42041
G0 F5400 X131.32 Y56.4
G1 F1200 X118.68 Y56.4 E0.42041
G0 F5400 X118.68 Y56.8
G1 F1200 X131.32 Y56.8 E0.42041
G0 F5400 X131.32 Y57.2
G1 F1200 X118.68 Y57.2 E0.42041
G0 F5400 X118.68 Y57.6
G1 F1200 X131.32 Y57.6 E0.42041
G0 F5400 X131.32 Y58
G1 F1200 X118.68 Y58 E0.42041
G0 F5400 X118.68 Y58.4
G1 F1200 X131.32 Y58.4 E0.42041
G0 F5400 X131.32 Y58.8
G1 F1200 X118.68 Y58.8 E0.42041
G0 F5400 X118.68 Y59.2
G1 F1200 X131.32 Y59.2 E0.42041
G0 F5400 X131.32 Y59.6
G1 F1200 X118.68 Y59.6 E0.42041
G0 F5400 X118.68 Y60
G1 F1200 X131.32 Y60 E0.42041
G0 F5400 X131.32 Y60.4
G1 F1200 X118.68 Y60.4 E0.42041
G0 F5400 X118.68 Y60.8
G1 F1200 X131.32 Y60.8 E0.42041
G0 F5400 X131.32 Y61.2
G1 F1200 X118.68 Y61.2 E0.42041
G1 X118.58 Y61.2
G0 F5400 X118.7 Y61.2
;MESH:NONMESH
G0 F600 X118.7 Y61.2 Z0.6
G0 F5400 X131.63 Y61.63
G0 X131.9 Y61.9
;TIME_ELAPSED:81.660619
;LAYER:2
;TYPE:WALL-INNER
;MESH:Tensile_Testing_V2.stl
G1 F2400 X131.9 Y48.1 E0.43604
G1 X118.1 Y48.1 E0.43604
G1 X118.1 Y61.9 E0.43604
G1 X131.9 Y61.9 E0.43604
G0 F7200 X132.3 Y62.3
;TYPE:WALL-OUTER
G1 F1200 X132.3 Y47.7 E0.46132
G1 X117.7 Y47.7 E0.46132
G1 X117.7 Y62.3 E0.46132
G1 X132.3 Y62.3 E0.46132
G0 F7200 X132.3 Y62.1
G0 X131.63 Y61.63
G0 X118.48 Y61.52
;TYPE:SKIN
G1 F1200 X131.52 Y61.52 E0.43371
G1 X131.52 Y48.48 E0.43371
G1 X118.48 Y48.48 E0.43371
G1 X118.48 Y61.52 E0.43371
G0 F7200 X118.8 Y61.32
G1 F1200 X118.8 Y48.68 E0.42041
G0 F7200 X119.2 Y48.68
G1 F1200 X119.2 Y61.32 E0.42041
G0 F7200 X119.6 Y61.32
G1 F1200 X119.6 Y48.68 E0.42041
G0 F7200 X120 Y48.68
G1 F1200 X120 Y61.32 E0.42041
G0 F7200 X120.4 Y61.32
G1 F1200 X120.4 Y48.68 E0.42041
G0 F7200 X120.8 Y48.68
G1 F1200 X120.8 Y61.32 E0.42041
G0 F7200 X121.2 Y61.32
G1 F1200 X121.2 Y48.68 E0.42041
G0 F7200 X121.6 Y48.68
G1 F1200 X121.6 Y61.32 E0.42041
G0 F7200 X122 Y61.32
G1 F1200 X122 Y48.68 E0.42041
G0 F7200 X122.4 Y48.68
G1 F1200 X122.4 Y61.32 E0.42041
G0 F7200 X122.8 Y61.32
G1 F1200 X122.8 Y48.68 E0.42041
G0 F7200 X123.2 Y48.68
G1 F1200 X123.2 Y61.32 E0.42041
G0 F7200 X123.6 Y61.32
G1 F1200 X123.6 Y48.68 E0.42041
G0 F7200 X124 Y48.68
G1 F1200 X124 Y61.32 E0.42041
G0 F7200 X124.4 Y61.32
G1 F1200 X124.4 Y48.68 E0.42041
G0 F7200 X124.8 Y48.68
G1 F1200 X124.8 Y61.32 E0.42041
G0 F7200 X125.2 Y61.32
G1 F1200 X125.2 Y48.68 E0.42041
G0 F7200 X125.6 Y48.68
G1 F1200 X125.6 Y61.32 E0.42041
G0 F7200 X126 Y61.32
G1 F1200 X126 Y48.68 E0.42041
G0 F7200 X126.4 Y48.68
G1 F1200 X126.4 Y61.32 E0.42041
G0 F7200 X126.8 Y61.32
G1 F1200 X126.8 Y48.68 E0.42041
G0 F7200 X127.2 Y48.68
G1 F1200 X127.2 Y61.32 E0.42041
G0 F7200 X127.6 Y61.32
G1 F1200 X127.6 Y48.68 E0.42041
G0 F7200 X128 Y48.68
G1 F1200 X128 Y61.32 E0.42041
G0 F7200 X128.4 Y61.32
G1 F1200 X128.4 Y48.68 E0.42041
G0 F7200 X128.8 Y48.68
G1 F1200 X128.8 Y61.32 E0.42041
G0 F7200 X129.2 Y61.32
G1 F1200 X129.2 Y48.68 E0.42041
G0 F7200 X129.6 Y48.68
G1 F1200 X129.6 Y61.32 E0.42041
G0 F7200 X130 Y61.32
G1 F1200 X130 Y48.68 E0.42041
G0 F7200 X130.4 Y48.68
G1 F1200 X130.4 Y61.32 E0.42041
G0 F7200 X130.8 Y61.32
G1 F1200 X130.8 Y48.68 E0.42041
G0 F7200 X131.2 Y48.68
G1 F1200 X131.2 Y61.32 E0.42041
G1 X131.2 Y61.42
G0 F7200 X131.2 Y61.3
;MESH:NONMESH
G0 F600 X131.2 Y61.3 Z0.8
G0 F7200 X131.63 Y48.37
G0 X131.9 Y48.1
;TIME_ELAPSED:110.914432
;LAYER:3
;TYPE:WALL-INNER
;MESH:Tensile_Testing_V2.stl
G1 F2400 X118.1 Y48.1 E0.43604
G1 X118.1 Y61.9 E0.43604
G1 X131.9 Y61.9 E0.43604
G1 X131.9 Y48.1 E0.43604
G0 F7200 X131.63 Y48.37
G0 X132.03 Y62.03
G0 X132.3 Y62.3
;TYPE:WALL-OUTER
G1 F1200 X132.3 Y47.7 E0.46132
G1 X117.7 Y47.7 E0.46132
G1 X117.7 Y62.3 E0.46132
G1 X132.3 Y62.3 E0.46132
G0 F7200 X132.3 Y62.1
G0 X131.63 Y61.63
G0 X118.48 Y61.52
;TYPE:SKIN
G1 F1200 X131.52 Y61.52 E0.43371
G1 X131.52 Y48.48 E0.43371
G1 X118.48 Y48.48 E0.43371
G1 X118.48 Y61.52 E0.43371
G0 F7200 X118.68 Y48.8
G1 F1200 X131.32 Y48.8 E0.42041
G0 F7200 X131.32 Y49.2
G1 F1200 X118.68 Y49.2 E0.42041
G0 F7200 X118.68 Y49.6
G1 F1200 X131.32 Y49.6 E0.42041
G0 F7200 X131.32 Y50
G1 F1200 X118.68 Y50 E0.42041
G0 F7200 X118.68 Y50.4
G1 F1200 X131.32 Y50.4 E0.42041
G0 F7200 X131.32 Y50.8
G1 F1200 X118.68 Y50.8 E0.42041
G0 F7200 X118.68 Y51.2
G1 F1200 X131.32 Y51.2 E0.42041
G0 F7200 X131.32 Y51.6
G1 F1200 X118.68 Y51.6 E0.42041
G0 F7200 X118.68 Y52
G1 F1200 X131.32 Y52 E0.42041
G0 F7200 X131.32 Y52.4
G1 F1200 X118.68 Y52.4 E0.42041
G0 F7200 X118.68 Y52.8
G1 F1200 X131.32 Y52.8 E0.42041
G0 F7200 X131.32 Y53.2
G1 F1200 X118.68 Y53.2 E0.42041
G0 F7200 X118.68 Y53.6
G1 F1200 X131.32 Y53.6 E0.42041
G0 F7200 X131.32 Y54
G1 F1200 X118.68 Y54 E0.42041
G0 F7200 X118.68 Y54.4
G1 F1200 X131.32 Y54.4 E0.42041
G0 F7200 X131.32 Y54.8
G1 F1200 X118.68 Y54.8 E0.42041
G0 F7200 X118.68 Y55.2
G1 F1200 X131.32 Y55.2 E0.42041
G0 F7200 X131.32 Y55.6
G1 F1200 X118.68 Y55.6 E0.42041
G0 F7200 X118.68 Y56
G1 F1200 X131.32 Y56 E0.42041
G0 F7200 X131.32 Y56.4
G1 F1200 X118.68 Y56.4 E0.42041
G0 F7200 X118.68 Y56.8
G1 F1200 X131.32 Y56.8 E0.42041
G0 F7200 X131.32 Y57.2
G1 F1200 X118.68 Y57.2 E0.42041
G0 F7200 X118.68 Y57.6
G1 F1200 X131.32 Y57.6 E0.42041
G0 F7200 X131.32 Y58
G1 F1200 X118.68 Y58 E0.42041
G0 F7200 X118.68 Y58.4
G1 F1200 X131.32 Y58.4 E0.42041
G0 F7200 X131.32 Y58.8
G1 F1200 X118.68 Y58.8 E0.42041
G0 F7200 X118.68 Y59.2
G1 F1200 X131.32 Y59.2 E0.42041
G0 F7200 X131.32 Y59.6
G1 F1200 X118.68 Y59.6 E0.42041
G0 F7200 X118.68 Y60
G1 F1200 X131.32 Y60 E0.42041
G0 F7200 X131.32 Y60.4
