M106 P2 S0.0    ;deactivateAllLaser
M106 P3 S0.0    ;deactivateAllLaser
M106 P4 S0.0    ;deactivateAllLaser
M106 P5 S0.0    ;deactivateAllLaser
M106 P6 S0.8
;FLAVOR:Marlin
;TIME:143
;Filament used: 0.121512m
;Layer height: 0.2
;MINX:123.4
;MINY:51.803
;MINZ:0.2
;MAXX:149.819
;MAXY:158.197
;MAXZ:4
;Generated with Cura_SteamEngine 5.2.2
M82 ;absolute extrusion mode
G21 ; set units to millimeters
G90 ; use absolute positioning
M82 ; absolute extrusion mode
M104 S200 ; set extruder temp
M140 S60 ; set bed temp
M190 S60 ; wait for bed temp
M109 S200 ; wait for extruder temp
;G28 W ; home all without mesh bed level
;G80 ; mesh bed leveling
G92 E0.0 ; reset extruder distance position
G1 Y-3.0 F1000.0 ; go outside print area
G1 X60.0 E9.0 F1000.0 ; intro line
G1 X100.0 E21.5 F1000.0 ; intro line
G92 E0.0 ; reset extruder distance position
G92 E0
G92 E0
G1 F2100 E-0.8
;LAYER_COUNT:20
;LAYER:0
M107
G0 F3600 X123.782 Y53.495 Z0.2
;TYPE:SKIRT
G1 F2100 E0
G1 F1800 X124.054 Y53.069 E0.01681
G1 X124.389 Y52.69 E0.03363
G1 X124.779 Y52.37 E0.05041
G1 X125.216 Y52.114 E0.06726
G1 X125.687 Y51.931 E0.08407
G1 X126.181 Y51.824 E0.10088
G1 X126.876 Y51.806 E0.124
G1 X129.779 Y52.049 E0.22089
G1 X132.505 Y52.202 E0.3117
G1 X135.255 Y52.279 E0.4032
G1 X137.974 Y52.277 E0.49364
G1 X140.727 Y52.198 E0.58524
G1 X143.475 Y52.042 E0.67679
G1 X146.347 Y51.805 E0.77263
G1 X146.853 Y51.803 E0.78946
G1 X147.352 Y51.881 E0.80626
G1 X147.833 Y52.037 E0.82308
G1 X148.284 Y52.267 E0.83992
G1 X148.693 Y52.564 E0.85673
G1 X149.049 Y52.923 E0.87355
G1 X149.345 Y53.333 E0.89037
G1 X149.572 Y53.784 E0.90716
G1 X149.726 Y54.266 E0.92399
G1 X149.818 Y54.978 E0.94787
G1 X149.819 Y154.303 E4.25143
G1 X149.81 Y155.044 E4.27608
G1 X149.764 Y155.547 E4.29288
G1 X149.639 Y156.037 E4.3097
G1 X149.439 Y156.501 E4.3265
G1 X149.168 Y156.928 E4.34332
G1 X148.833 Y157.307 E4.36015
G1 X148.442 Y157.628 E4.37697
G1 X148.006 Y157.884 E4.39379
G1 X147.535 Y158.068 E4.41061
G1 X147.041 Y158.176 E4.42743
G1 X146.343 Y158.194 E4.45065
G1 X143.44 Y157.951 E4.54754
G1 X140.714 Y157.798 E4.63835
G1 X137.964 Y157.721 E4.72985
G1 X135.245 Y157.723 E4.82029
G1 X132.492 Y157.802 E4.91189
G1 X129.744 Y157.958 E5.00344
G1 X126.872 Y158.195 E5.09928
G1 X126.366 Y158.197 E5.11611
G1 X125.867 Y158.119 E5.13291
G1 X125.386 Y157.963 E5.14973
G1 X124.935 Y157.733 E5.16657
G1 X124.526 Y157.436 E5.18338
G1 X124.17 Y157.077 E5.2002
G1 X123.874 Y156.667 E5.21701
G1 X123.647 Y156.216 E5.23381
G1 X123.493 Y155.734 E5.25064
G1 X123.4 Y155.011 E5.27488
G1 X123.4 Y55.632 E8.58024
G1 X123.409 Y54.953 E8.60283
G1 X123.456 Y54.449 E8.61966
G1 X123.581 Y53.959 E8.63648
G1 X123.782 Y53.495 E8.6533
G1 F2100 E7.8533
;MESH:LangeGerade.stl(1)
G0 F3600 X125.935 Y55.1
G0 X126.7 Y55.1
;TYPE:WALL-OUTER
G1 F2100 E8.6533
G1 F2117.6 X126.7 Y154.9 E11.47476
G1 F2100 E10.67476
;MESH:LangeGerade.stl
G0 F3600 X127.465 Y154.9
G0 X145.754 Y154.9
G0 X146.519 Y154.9
M104 S200
;TYPE:WALL-OUTER
G1 F2100 E11.47476
G1 F2117.6 X146.519 Y55.1 E14.29622
G1 F2100 E13.49622
;MESH:NONMESH
G0 F600 X146.519 Y55.1 Z0.4
G0 F3600 X145.754 Y55.1
G0 X127.465 Y55.1
G0 X126.7 Y55.1
;TIME_ELAPSED:19.683021
;LAYER:1
M106 S255
;TYPE:WALL-OUTER
;MESH:LangeGerade.stl(1)
G1 F2100 E14.29622
G1 F2117.6 X126.7 Y154.9 E17.11767
G1 F2100 E16.31767
;MESH:LangeGerade.stl
G0 F5400 X127.465 Y154.9
G0 X145.754 Y154.9
G0 X146.519 Y154.9
;TYPE:WALL-OUTER
G1 F2100 E17.11767
G1 F2117.6 X146.519 Y55.1 E19.93913
G1 F2100 E19.13913
;MESH:NONMESH
G0 F600 X146.519 Y55.1 Z0.6
G0 F5400 X145.754 Y55.1
G0 X127.465 Y55.1
G0 X126.7 Y55.1
;TIME_ELAPSED:26.252657
;LAYER:2
;TYPE:WALL-OUTER
;MESH:LangeGerade.stl(1)
G1 F2100 E19.93913
G1 F2117.6 X126.7 Y154.9 E22.76059
G1 F2100 E21.96059
;MESH:LangeGerade.stl
G0 F7200 X127.465 Y154.9
G0 X145.754 Y154.9
G0 X146.519 Y154.9
;TYPE:WALL-OUTER
G1 F2100 E22.76059
G1 F2117.6 X146.519 Y55.1 E25.58204
G1 F2100 E24.78204
;MESH:NONMESH
G0 F600 X146.519 Y55.1 Z0.8
G0 F7200 X145.754 Y55.1
G0 X127.465 Y55.1
G0 X126.7 Y55.1
;TIME_ELAPSED:32.766985
;LAYER:3
;TYPE:WALL-OUTER
;MESH:LangeGerade.stl(1)
G1 F2100 E25.58204
G1 F2117.6 X126.7 Y154.9 E28.4035
G1 F2100 E27.6035
;MESH:LangeGerade.stl
G0 F7200 X127.465 Y154.9
G0 X145.754 Y154.9
G0 X146.519 Y154.9
;TYPE:WALL-OUTER
G1 F2100 E28.4035
G1 F2117.6 X146.519 Y55.1 E31.22496
G1 F2100 E30.42496
;MESH:NONMESH
G0 F600 X146.519 Y55.1 Z1
G0 F7200 X145.754 Y55.1
G0 X127.465 Y55.1
G0 X126.7 Y55.1
;TIME_ELAPSED:39.281313
M106 P6 S1.0
;LAYER:4
;TYPE:WALL-OUTER
;MESH:LangeGerade.stl(1)
G1 F2100 E31.22496
G1 F2117.6 X126.7 Y154.9 E34.04642
G1 F2100 E33.24642
;MESH:LangeGerade.stl
G0 F7200 X127.465 Y154.9
G0 X145.754 Y154.9
G0 X146.519 Y154.9
;TYPE:WALL-OUTER
G1 F2100 E34.04642
G1 F2117.6 X146.519 Y55.1 E36.86787
G1 F2100 E36.06787
;MESH:NONMESH
G0 F600 X146.519 Y55.1 Z1.2
G0 F7200 X145.754 Y55.1
G0 X127.465 Y55.1
G0 X126.7 Y55.1
;TIME_ELAPSED:45.795641
;LAYER:5
;TYPE:WALL-OUTER
;MESH:LangeGerade.stl(1)
; Rotate
G1 E-1 F3600
G1 Z1.7
G0 A23.5
G1 Z1.2
G1 E1 
G1 F2100.0
M106 P2 S1.0
G1 F2100 E36.86787

M106 P2 S0
; Rotate
G1 E-1 F3600
G1 Z1.7
G0 A0.0
G1 Z1.2
G1 E1 
G1 F2117.6
M106 P3 S1.0
G1 F2117.6 X126.7 Y154.9 E39.68933

M106 P3 S0
M106 P2 S1.0
G1 F2100 E38.88933 A0.0
;MESH:LangeGerade.stl
M106 P2 S0   ;deactivateONLaser
G0 F7200 X127.465 Y154.9
G0 X145.754 Y154.9
G0 X146.519 Y154.9
;TYPE:WALL-OUTER
M106 P2 S1.0
G1 F2100 E39.68933 A0.0
M106 P2 S0
; Rotate
G0 F3600 A0.0
G1 F2117.6
M106 P5 S1.0
G1 F2117.6 X146.519 Y55.1 E42.51079

M106 P5 S0
M106 P2 S1.0
G1 F2100 E41.71079 A0.0
;MESH:NONMESH
M106 P2 S0   ;deactivateONLaser
G0 F600 X146.519 Y55.1 Z1.4
G0 F7200 X145.754 Y55.1
G0 X127.465 Y55.1
G0 X126.7 Y55.1
;TIME_ELAPSED:52.309969
;LAYER:6
;TYPE:WALL-OUTER
;MESH:LangeGerade.stl(1)
M106 P2 S1.0
G1 F2100 E42.51079 A0.0
M106 P2 S0
; Rotate
G0 F3600 A0.0
G1 F2117.6
M106 P3 S1.0
G1 F2117.6 X126.7 Y154.9 E45.33225

M106 P3 S0
M106 P2 S1.0
G1 F2100 E44.53225 A0.0
;MESH:LangeGerade.stl
M106 P2 S0   ;deactivateONLaser
G0 F7200 X127.465 Y154.9
G0 X145.754 Y154.9
G0 X146.519 Y154.9
;TYPE:WALL-OUTER
M106 P2 S1.0
G1 F2100 E45.33225 A0.0
M106 P2 S0
; Rotate
G0 F3600 A0.0
G1 F2117.6
M106 P5 S1.0
G1 F2117.6 X146.519 Y55.1 E48.1537

M106 P5 S0
M106 P2 S1.0
G1 F2100 E47.3537 A0.0
;MESH:NONMESH
M106 P2 S0   ;deactivateONLaser
G0 F600 X146.519 Y55.1 Z1.6
G0 F7200 X145.754 Y55.1
G0 X127.465 Y55.1
G0 X126.7 Y55.1
;TIME_ELAPSED:58.824298
;LAYER:7
;TYPE:WALL-OUTER
;MESH:LangeGerade.stl(1)
M106 P2 S1.0
G1 F2100 E48.1537 A0.0
M106 P2 S0
; Rotate
G0 F3600 A0.0
G1 F2117.6
M106 P3 S1.0
G1 F2117.6 X126.7 Y154.9 E50.97516

M106 P3 S0
M106 P2 S1.0
G1 F2100 E50.17516 A0.0
;MESH:LangeGerade.stl
M106 P2 S0   ;deactivateONLaser
G0 F7200 X127.465 Y154.9
G0 X145.754 Y154.9
G0 X146.519 Y154.9
;TYPE:WALL-OUTER
M106 P2 S1.0
G1 F2100 E50.97516 A0.0
M106 P2 S0
; Rotate
G0 F3600 A0.0
G1 F2117.6
M106 P5 S1.0
G1 F2117.6 X146.519 Y55.1 E53.79662

M106 P5 S0
M106 P2 S1.0
G1 F2100 E52.99662 A0.0
;MESH:NONMESH
M106 P2 S0   ;deactivateONLaser
G0 F600 X146.519 Y55.1 Z1.8
G0 F7200 X145.754 Y55.1
G0 X127.465 Y55.1
G0 X126.7 Y55.1
;TIME_ELAPSED:65.338626
;LAYER:8
;TYPE:WALL-OUTER
;MESH:LangeGerade.stl(1)
M106 P2 S1.0
G1 F2100 E53.79662 A0.0
M106 P2 S0
; Rotate
G0 F3600 A0.0
G1 F2117.6
M106 P3 S1.0
G1 F2117.6 X126.7 Y154.9 E56.61807

M106 P3 S0
M106 P2 S1.0
G1 F2100 E55.81807 A0.0
;MESH:LangeGerade.stl
M106 P2 S0   ;deactivateONLaser
G0 F7200 X127.465 Y154.9
G0 X145.754 Y154.9
G0 X146.519 Y154.9
;TYPE:WALL-OUTER
M106 P2 S1.0
G1 F2100 E56.61807 A0.0
M106 P2 S0
; Rotate
G0 F3600 A0.0
G1 F2117.6
M106 P5 S1.0
G1 F2117.6 X146.519 Y55.1 E59.43953

M106 P5 S0
M106 P2 S1.0
G1 F2100 E58.63953 A0.0
;MESH:NONMESH
M106 P2 S0   ;deactivateONLaser
G0 F600 X146.519 Y55.1 Z2
G0 F7200 X145.754 Y55.1
G0 X127.465 Y55.1
G0 X126.7 Y55.1
;TIME_ELAPSED:71.852954
;LAYER:9
;TYPE:WALL-OUTER
;MESH:LangeGerade.stl(1)
M106 P2 S1.0
G1 F2100 E59.43953 A0.0
M106 P2 S0
; Rotate
G0 F3600 A0.0
G1 F2117.6
M106 P3 S1.0
G1 F2117.6 X126.7 Y154.9 E62.26099

M106 P3 S0
M106 P2 S1.0
G1 F2100 E61.46099 A0.0
;MESH:LangeGerade.stl
M106 P2 S0   ;deactivateONLaser
G0 F7200 X127.465 Y154.9
G0 X145.754 Y154.9
G0 X146.519 Y154.9
;TYPE:WALL-OUTER
M106 P2 S1.0
G1 F2100 E62.26099 A0.0
M106 P2 S0
; Rotate
G0 F3600 A0.0
G1 F2117.6
M106 P5 S1.0
G1 F2117.6 X146.519 Y55.1 E65.08245

M106 P5 S0
M106 P2 S1.0
G1 F2100 E64.28245 A0.0
;MESH:NONMESH
M106 P2 S0   ;deactivateONLaser
G0 F600 X146.519 Y55.1 Z2.2
G0 F7200 X145.754 Y55.1
G0 X127.465 Y55.1
G0 X126.7 Y55.1
;TIME_ELAPSED:78.367282
;LAYER:10
;TYPE:WALL-OUTER
;MESH:LangeGerade.stl(1)
M106 P2 S1.0
G1 F2100 E65.08245 A0.0
M106 P2 S0
; Rotate
G0 F3600 A0.0
G1 F2117.6
M106 P3 S1.0
G1 F2117.6 X126.7 Y154.9 E67.9039

M106 P3 S0
M106 P2 S1.0
G1 F2100 E67.1039 A0.0
;MESH:LangeGerade.stl
M106 P2 S0   ;deactivateONLaser
G0 F7200 X127.465 Y154.9
G0 X145.754 Y154.9
G0 X146.519 Y154.9
;TYPE:WALL-OUTER
M106 P2 S1.0
G1 F2100 E67.9039 A0.0
M106 P2 S0
; Rotate
G0 F3600 A0.0
G1 F2117.6
M106 P5 S1.0
G1 F2117.6 X146.519 Y55.1 E70.72536

M106 P5 S0
M106 P2 S1.0
G1 F2100 E69.92536 A0.0
;MESH:NONMESH
M106 P2 S0   ;deactivateONLaser
G0 F600 X146.519 Y55.1 Z2.4
G0 F7200 X145.754 Y55.1
G0 X127.465 Y55.1
G0 X126.7 Y55.1
;TIME_ELAPSED:84.881610
;LAYER:11
;TYPE:WALL-OUTER
;MESH:LangeGerade.stl(1)
M106 P2 S1.0
G1 F2100 E70.72536 A0.0
M106 P2 S0
; Rotate
G0 F3600 A0.0
G1 F2117.6
M106 P3 S1.0
G1 F2117.6 X126.7 Y154.9 E73.54682

M106 P3 S0
M106 P2 S1.0
G1 F2100 E72.74682 A0.0
;MESH:LangeGerade.stl
M106 P2 S0   ;deactivateONLaser
G0 F7200 X127.465 Y154.9
G0 X145.754 Y154.9
G0 X146.519 Y154.9
;TYPE:WALL-OUTER
M106 P2 S1.0
G1 F2100 E73.54682 A0.0
M106 P2 S0
; Rotate
G0 F3600 A0.0
G1 F2117.6
M106 P5 S1.0
G1 F2117.6 X146.519 Y55.1 E76.36828

M106 P5 S0
M106 P2 S1.0
G1 F2100 E75.56828 A0.0
;MESH:NONMESH
M106 P2 S0   ;deactivateONLaser
G0 F600 X146.519 Y55.1 Z2.6
G0 F7200 X145.754 Y55.1
G0 X127.465 Y55.1
G0 X126.7 Y55.1
;TIME_ELAPSED:91.395938
;LAYER:12
;TYPE:WALL-OUTER
;MESH:LangeGerade.stl(1)
M106 P2 S1.0
G1 F2100 E76.36828 A0.0
M106 P2 S0
; Rotate
G0 F3600 A0.0
G1 F2117.6
M106 P3 S1.0
G1 F2117.6 X126.7 Y154.9 E79.18973

M106 P3 S0
M106 P2 S1.0
G1 F2100 E78.38973 A0.0
;MESH:LangeGerade.stl
M106 P2 S0   ;deactivateONLaser
G0 F7200 X127.465 Y154.9
G0 X145.754 Y154.9
G0 X146.519 Y154.9
;TYPE:WALL-OUTER
M106 P2 S1.0
G1 F2100 E79.18973 A0.0
M106 P2 S0
; Rotate
G0 F3600 A0.0
G1 F2117.6
M106 P5 S1.0
G1 F2117.6 X146.519 Y55.1 E82.01119

M106 P5 S0
M106 P2 S1.0
G1 F2100 E81.21119 A0.0
;MESH:NONMESH
M106 P2 S0   ;deactivateONLaser
G0 F600 X146.519 Y55.1 Z2.8
G0 F7200 X145.754 Y55.1
G0 X127.465 Y55.1
G0 X126.7 Y55.1
;TIME_ELAPSED:97.910266
;LAYER:13
;TYPE:WALL-OUTER
;MESH:LangeGerade.stl(1)
M106 P2 S1.0
G1 F2100 E82.01119 A0.0
M106 P2 S0
; Rotate
G0 F3600 A0.0
G1 F2117.6
M106 P3 S1.0
G1 F2117.6 X126.7 Y154.9 E84.83265

M106 P3 S0
M106 P2 S1.0
G1 F2100 E84.03265 A0.0
;MESH:LangeGerade.stl
M106 P2 S0   ;deactivateONLaser
G0 F7200 X127.465 Y154.9
G0 X145.754 Y154.9
G0 X146.519 Y154.9
;TYPE:WALL-OUTER
M106 P2 S1.0
G1 F2100 E84.83265 A0.0
M106 P2 S0
; Rotate
G0 F3600 A0.0
G1 F2117.6
M106 P5 S1.0
G1 F2117.6 X146.519 Y55.1 E87.6541

M106 P5 S0
M106 P2 S1.0
G1 F2100 E86.8541 A0.0
;MESH:NONMESH
M106 P2 S0   ;deactivateONLaser
G0 F600 X146.519 Y55.1 Z3
G0 F7200 X145.754 Y55.1
G0 X127.465 Y55.1
G0 X126.7 Y55.1
;TIME_ELAPSED:104.424595
;LAYER:14
;TYPE:WALL-OUTER
;MESH:LangeGerade.stl(1)
M106 P2 S1.0
G1 F2100 E87.6541 A0.0
M106 P2 S0
; Rotate
G0 F3600 A0.0
G1 F2117.6
M106 P3 S1.0
G1 F2117.6 X126.7 Y154.9 E90.47556

M106 P3 S0
M106 P2 S1.0
G1 F2100 E89.67556 A0.0
;MESH:LangeGerade.stl
M106 P2 S0   ;deactivateONLaser
G0 F7200 X127.465 Y154.9
G0 X145.754 Y154.9
G0 X146.519 Y154.9
;TYPE:WALL-OUTER
M106 P2 S1.0
G1 F2100 E90.47556 A0.0
M106 P2 S0
; Rotate
G0 F3600 A0.0
G1 F2117.6
M106 P5 S1.0
G1 F2117.6 X146.519 Y55.1 E93.29702

M106 P5 S0
M106 P2 S1.0
G1 F2100 E92.49702 A0.0
;MESH:NONMESH
M106 P2 S0   ;deactivateONLaser
G0 F600 X146.519 Y55.1 Z3.2
G0 F7200 X145.754 Y55.1
G0 X127.465 Y55.1
G0 X126.7 Y55.1
;TIME_ELAPSED:110.938923
;LAYER:15
;TYPE:WALL-OUTER
;MESH:LangeGerade.stl(1)
M106 P2 S1.0
G1 F2100 E93.29702 A0.0
M106 P2 S0
; Rotate
G0 F3600 A0.0
G1 F2117.6
M106 P3 S1.0
G1 F2117.6 X126.7 Y154.9 E96.11848

M106 P3 S0
M106 P2 S1.0
G1 F2100 E95.31848 A0.0
;MESH:LangeGerade.stl
M106 P2 S0   ;deactivateONLaser
G0 F7200 X127.465 Y154.9
G0 X145.754 Y154.9
G0 X146.519 Y154.9
;TYPE:WALL-OUTER
M106 P2 S1.0
G1 F2100 E96.11848 A0.0
M106 P2 S0
; Rotate
G0 F3600 A0.0
G1 F2117.6
M106 P5 S1.0
G1 F2117.6 X146.519 Y55.1 E98.93993

M106 P5 S0
M106 P2 S1.0
G1 F2100 E98.13993 A0.0
;MESH:NONMESH
M106 P2 S0   ;deactivateONLaser
G0 F600 X146.519 Y55.1 Z3.4
G0 F7200 X145.754 Y55.1
G0 X127.465 Y55.1
G0 X126.7 Y55.1
;TIME_ELAPSED:117.453251
;LAYER:16
;TYPE:WALL-OUTER
;MESH:LangeGerade.stl(1)
M106 P2 S1.0
G1 F2100 E98.93993 A0.0
M106 P2 S0
; Rotate
G0 F3600 A0.0
G1 F2117.6
M106 P3 S1.0
G1 F2117.6 X126.7 Y154.9 E101.76139

M106 P3 S0
M106 P2 S1.0
G1 F2100 E100.96139 A0.0
;MESH:LangeGerade.stl
M106 P2 S0   ;deactivateONLaser
G0 F7200 X127.465 Y154.9
G0 X145.754 Y154.9
G0 X146.519 Y154.9
;TYPE:WALL-OUTER
M106 P2 S1.0
G1 F2100 E101.76139 A0.0
M106 P2 S0
; Rotate
G0 F3600 A0.0
G1 F2117.6
M106 P5 S1.0
G1 F2117.6 X146.519 Y55.1 E104.58285

M106 P5 S0
M106 P2 S1.0
G1 F2100 E103.78285 A0.0
;MESH:NONMESH
M106 P2 S0   ;deactivateONLaser
G0 F600 X146.519 Y55.1 Z3.6
G0 F7200 X145.754 Y55.1
G0 X127.465 Y55.1
G0 X126.7 Y55.1
;TIME_ELAPSED:123.967579
;LAYER:17
;TYPE:WALL-OUTER
;MESH:LangeGerade.stl(1)
M106 P2 S1.0
G1 F2100 E104.58285 A0.0
M106 P2 S0
; Rotate
G0 F3600 A0.0
G1 F2117.6
M106 P3 S1.0
G1 F2117.6 X126.7 Y154.9 E107.40431

M106 P3 S0
M106 P2 S1.0
G1 F2100 E106.60431 A0.0
;MESH:LangeGerade.stl
M106 P2 S0   ;deactivateONLaser
G0 F7200 X127.465 Y154.9
G0 X145.754 Y154.9
G0 X146.519 Y154.9
;TYPE:WALL-OUTER
M106 P2 S1.0
G1 F2100 E107.40431 A0.0
M106 P2 S0
; Rotate
G0 F3600 A0.0
G1 F2117.6
M106 P5 S1.0
G1 F2117.6 X146.519 Y55.1 E110.22576

M106 P5 S0
M106 P2 S1.0
G1 F2100 E109.42576 A0.0
;MESH:NONMESH
M106 P2 S0   ;deactivateONLaser
G0 F600 X146.519 Y55.1 Z3.8
G0 F7200 X145.754 Y55.1
G0 X127.465 Y55.1
G0 X126.7 Y55.1
;TIME_ELAPSED:130.481907
;LAYER:18
;TYPE:WALL-OUTER
;MESH:LangeGerade.stl(1)
M106 P2 S1.0
G1 F2100 E110.22576 A0.0
M106 P2 S0
; Rotate
G0 F3600 A0.0
G1 F2117.6
M106 P3 S1.0
G1 F2117.6 X126.7 Y154.9 E113.04722

M106 P3 S0
M106 P2 S1.0
G1 F2100 E112.24722 A0.0
;MESH:LangeGerade.stl
M106 P2 S0   ;deactivateONLaser
G0 F7200 X127.465 Y154.9
G0 X145.754 Y154.9
G0 X146.519 Y154.9
;TYPE:WALL-OUTER
M106 P2 S1.0
G1 F2100 E113.04722 A0.0
M106 P2 S0
; Rotate
G0 F3600 A0.0
G1 F2117.6
M106 P5 S1.0
G1 F2117.6 X146.519 Y55.1 E115.86868

M106 P5 S0
M106 P2 S1.0
G1 F2100 E115.06868 A0.0
;MESH:NONMESH
M106 P2 S0   ;deactivateONLaser
G0 F600 X146.519 Y55.1 Z4
G0 F7200 X145.754 Y55.1
G0 X127.465 Y55.1
G0 X126.7 Y55.1
;TIME_ELAPSED:136.996235
;LAYER:19
;TYPE:WALL-OUTER
;MESH:LangeGerade.stl(1)
M106 P2 S1.0
G1 F2100 E115.86868 A0.0
M106 P2 S0
; Rotate
G0 F3600 A0.0
G1 F2117.6
M106 P3 S1.0
G1 F2117.6 X126.7 Y154.9 E118.69013

M106 P3 S0
M106 P2 S1.0
G1 F2100 E117.89013 A0.0
;MESH:LangeGerade.stl
M106 P2 S0   ;deactivateONLaser
G0 F7200 X127.465 Y154.9
G0 X145.754 Y154.9
G0 X146.519 Y154.9
;TYPE:WALL-OUTER
M106 P2 S1.0
G1 F2100 E118.69013 A0.0
M106 P2 S0
; Rotate
G0 F3600 A0.0
G1 F2117.6
M106 P5 S1.0
G1 F2117.6 X146.519 Y55.1 E121.51159

M106 P2 S0.0    ;deactivateAllLaser
M106 P3 S0.0    ;deactivateAllLaser
M106 P4 S0.0    ;deactivateAllLaser
M106 P5 S0.0    ;deactivateAllLaser
G1 F2117.6 X146.519 Y55.1 E121.51159
;TIME_ELAPSED:143.140705

G1 F2100 E120.71159

M107

M104 S0 ; turn off extruder

M140 S0 ; turn off heatbed

M107 ; turn off fan

G1 X0 Y210; home X axis and push Y forward

M84 ; disable motors

M82 ;absolute extrusion mode

M104 S0

;End of Gcode

