;FLAVOR:Marlin
;TIME:1637
;Filament used: 1.32353m
;Layer height: 0.15
;MINX:96.41
;MINY:86.412
;MINZ:0.2
;MAXX:153.588
;MAXY:123.588
;MAXZ:5
;Generated with Cura_SteamEngine 5.3.1
M82 ;absolute extrusion mode
G21 ; set units to millimeters
G90 ; use absolute positioning
M82 ; absolute extrusion mode
M104 S200 ; set extruder temp
M140 S60 ; set bed temp
M190 S60 ; wait for bed temp
M109 S200 ; wait for extruder temp
G28 W ; home all without mesh bed level
G80 ; mesh bed leveling
G92 E0.0 ; reset extruder distance position
G1 Y-3.0 F1000.0 ; go outside print area
G1 X60.0 E9.0 F1000.0 ; intro line
G1 X100.0 E21.5 F1000.0 ; intro line
G92 E0.0 ; reset extruder distance position
G92 E0
G92 E0
G1 F2100 E-0.8
;LAYER_COUNT:33
;LAYER:0
M107
G0 F3600 X100.855 Y95.492 Z0.2
;TYPE:SKIRT
G1 F2100 E0
G1 F1800 X100.425 Y95.963 E0.02121
G1 X100.066 Y96.396 E0.03992
G1 X99.496 Y97.144 E0.0712
G1 X98.988 Y97.854 E0.10024
G1 X98.622 Y98.481 E0.12438
G1 X98.096 Y99.487 E0.16214
G1 X97.696 Y100.362 E0.19414
G1 X97.469 Y101.015 E0.21713
G1 X97.318 Y101.501 E0.23406
G1 X97.099 Y102.334 E0.26271
G1 X96.974 Y103.031 E0.28626
G1 X96.857 Y103.833 E0.31322
G1 X96.81 Y104.717 E0.34266
G1 X96.827 Y105.746 E0.37689
G1 X96.906 Y106.503 E0.4022
G1 X97.02 Y107.316 E0.42951
G1 X97.251 Y108.262 E0.4619
G1 X97.584 Y109.351 E0.49977
G1 X97.894 Y110.08 E0.52612
G1 X98.374 Y111.065 E0.56256
G1 X98.625 Y111.535 E0.58029
G1 X99.004 Y112.164 E0.60471
G1 X99.773 Y113.238 E0.64865
G1 X100.348 Y113.946 E0.67898
G1 X101.046 Y114.716 E0.71355
G1 X101.814 Y115.467 E0.74927
G1 X102.227 Y115.845 E0.7679
G1 X102.969 Y116.464 E0.80004
G1 X103.713 Y117.032 E0.83117
G1 X104.428 Y117.536 E0.86026
G1 X105.578 Y118.282 E0.90586
G1 X106.435 Y118.784 E0.93889
G1 X106.93 Y119.055 E0.95766
G1 X107.869 Y119.529 E0.99264
G1 X108.64 Y119.886 E1.0209
G1 X110.017 Y120.471 E1.07066
G1 X110.783 Y120.767 E1.09798
G1 X111.6 Y121.057 E1.12681
G1 X112.896 Y121.473 E1.17208
G1 X113.813 Y121.737 E1.20382
G1 X114.502 Y121.917 E1.22751
G1 X115.979 Y122.261 E1.27795
G1 X117.132 Y122.488 E1.31703
G1 X118.592 Y122.731 E1.36626
G1 X119.399 Y122.842 E1.39335
G1 X120.346 Y122.952 E1.42506
G1 X121.431 Y123.054 E1.46131
G1 X121.97 Y123.095 E1.47929
G1 X122.978 Y123.15 E1.51286
G1 X124.276 Y123.188 E1.55605
G1 X125.723 Y123.188 E1.60418
G1 X126.933 Y123.153 E1.64444
G1 X128.299 Y123.071 E1.68996
G1 X129.758 Y122.94 E1.73868
G1 X130.531 Y122.851 E1.76456
G1 X131.498 Y122.718 E1.79703
G1 X132.777 Y122.505 E1.84015
G1 X134.127 Y122.237 E1.88593
G1 X135.495 Y121.918 E1.93265
G1 X136.186 Y121.738 E1.9564
G1 X137.011 Y121.501 E1.98495
G1 X138.496 Y121.025 E2.03681
G1 X139.142 Y120.795 E2.05962
G1 X139.883 Y120.511 E2.08602
G1 X141.356 Y119.887 E2.13922
G1 X142.233 Y119.48 E2.17138
G1 X142.987 Y119.098 E2.19949
G1 X143.485 Y118.829 E2.21832
G1 X144.291 Y118.363 E2.24928
G1 X145.571 Y117.536 E2.29997
G1 X146.376 Y116.969 E2.33272
G1 X147.303 Y116.244 E2.37186
G1 X147.77 Y115.848 E2.39223
G1 X148.202 Y115.449 E2.41179
G1 X148.7 Y114.966 E2.43486
G1 X149.145 Y114.508 E2.4561
G1 X149.575 Y114.037 E2.47731
G1 X149.934 Y113.604 E2.49602
G1 X150.504 Y112.856 E2.5273
G1 X151.003 Y112.16 E2.55578
G1 X151.322 Y111.621 E2.57661
G1 X151.914 Y110.492 E2.61901
G1 X152.309 Y109.627 E2.65064
G1 X152.637 Y108.671 E2.68426
G1 X152.901 Y107.665 E2.71885
G1 X153.026 Y106.969 E2.74237
G1 X153.144 Y106.166 E2.76936
G1 X153.178 Y105.507 E2.79131
G1 X153.188 Y104.874 E2.81237
G1 X153.16 Y104.115 E2.83763
G1 X153.094 Y103.497 E2.8583
G1 X152.982 Y102.701 E2.88504
G1 X152.797 Y101.913 E2.91196
G1 X152.62 Y101.277 E2.93392
G1 X152.353 Y100.503 E2.96115
G1 X152.105 Y99.919 E2.98225
G1 X151.57 Y98.826 E3.02272
G1 X151.203 Y98.171 E3.0477
G1 X150.821 Y97.592 E3.07077
G1 X150.214 Y96.745 E3.10543
G1 X149.531 Y95.913 E3.14123
G1 X149.16 Y95.508 E3.1595
G1 X148.703 Y95.037 E3.18132
G1 X148.186 Y94.533 E3.20534
G1 X147.763 Y94.146 E3.22441
G1 X147.128 Y93.614 E3.25196
G1 X146.285 Y92.967 E3.2873
G1 X145.465 Y92.392 E3.32061
G1 X144.422 Y91.718 E3.36192
G1 X143.565 Y91.216 E3.39495
G1 X143.07 Y90.945 E3.41372
G1 X142.131 Y90.471 E3.44871
G1 X141.36 Y90.114 E3.47697
G1 X139.983 Y89.529 E3.52673
G1 X139.217 Y89.233 E3.55404
G1 X138.4 Y88.943 E3.58287
G1 X137.104 Y88.527 E3.62815
G1 X136.187 Y88.263 E3.65988
G1 X135.498 Y88.083 E3.68357
G1 X134.021 Y87.739 E3.73401
G1 X132.868 Y87.512 E3.77309
G1 X131.408 Y87.269 E3.82232
G1 X130.601 Y87.158 E3.84942
G1 X129.654 Y87.048 E3.88113
G1 X128.567 Y86.946 E3.91744
G1 X128.031 Y86.905 E3.93532
G1 X127.023 Y86.85 E3.96889
G1 X125.723 Y86.812 E4.01215
G1 X124.277 Y86.812 E4.06024
G1 X123.067 Y86.847 E4.10051
G1 X121.701 Y86.929 E4.14602
G1 X120.242 Y87.06 E4.19474
G1 X119.469 Y87.149 E4.22062
G1 X118.502 Y87.282 E4.25309
G1 X117.223 Y87.495 E4.29621
G1 X115.873 Y87.763 E4.34199
G1 X114.505 Y88.082 E4.38871
G1 X113.814 Y88.262 E4.41246
G1 X112.989 Y88.499 E4.44101
G1 X111.504 Y88.975 E4.49288
G1 X110.858 Y89.205 E4.51568
G1 X110.117 Y89.489 E4.54208
G1 X108.644 Y90.113 E4.59529
G1 X107.767 Y90.52 E4.62744
G1 X107.013 Y90.902 E4.65556
G1 X106.515 Y91.171 E4.67438
G1 X105.709 Y91.637 E4.70535
G1 X104.429 Y92.464 E4.75603
G1 X103.624 Y93.031 E4.78878
G1 X102.697 Y93.756 E4.82792
G1 X102.23 Y94.152 E4.84829
G1 X101.798 Y94.551 E4.86785
G1 X101.3 Y95.034 E4.89092
G1 X100.855 Y95.492 E4.91216
G0 F3600 X100.568 Y95.213
G1 F1800 X100.13 Y95.693 E4.93377
G1 X99.758 Y96.141 E4.95314
G1 X99.178 Y96.902 E4.98497
G1 X98.663 Y97.621 E5.01438
G1 X98.277 Y98.279 E5.03975
G1 X97.732 Y99.321 E5.07887
G1 X97.332 Y100.196 E5.11087
G1 X97.091 Y100.884 E5.13511
G1 X96.936 Y101.382 E5.15246
G1 X96.712 Y102.232 E5.1817
G1 X96.58 Y102.96 E5.2063
G1 X96.461 Y103.775 E5.2337
G1 X96.41 Y104.724 E5.26531
G1 X96.429 Y105.788 E5.3007
G1 X96.508 Y106.545 E5.32602
G1 X96.631 Y107.411 E5.35511
G1 X96.862 Y108.357 E5.3875
G1 X97.201 Y109.468 E5.42613
G1 X97.526 Y110.237 E5.4539
G1 X98.014 Y111.24 E5.491
G1 X98.272 Y111.723 E5.50921
G1 X98.661 Y112.37 E5.53432
G1 X99.448 Y113.471 E5.57933
G1 X100.052 Y114.215 E5.61121
G1 X100.75 Y114.985 E5.64577
G1 X101.534 Y115.753 E5.68228
G1 X101.957 Y116.14 E5.70134
G1 X102.713 Y116.771 E5.7341
G1 X103.47 Y117.35 E5.76579
G1 X104.21 Y117.872 E5.79591
G1 X105.36 Y118.618 E5.84151
G1 X106.233 Y119.129 E5.87515
G1 X106.738 Y119.406 E5.89431
G1 X107.689 Y119.886 E5.92974
G1 X108.472 Y120.249 E5.95844
G1 X109.861 Y120.839 E6.00864
G1 X110.639 Y121.14 E6.03638
G1 X111.466 Y121.434 E6.06558
G1 X112.774 Y121.854 E6.11127
G1 X113.702 Y122.121 E6.14339
G1 X114.401 Y122.304 E6.16742
G1 X115.888 Y122.651 E6.2182
G1 X117.066 Y122.883 E6.25814
G1 X118.526 Y123.126 E6.30737
G1 X119.344 Y123.238 E6.33483
G1 X120.3 Y123.349 E6.36684
G1 X121.394 Y123.452 E6.40338
G1 X121.94 Y123.494 E6.4216
G1 X122.956 Y123.549 E6.45544
G1 X124.264 Y123.588 E6.49896
G1 X125.735 Y123.588 E6.54789
G1 X126.945 Y123.553 E6.58815
G1 X128.323 Y123.47 E6.63407
G1 X129.794 Y123.338 E6.68319
G1 X130.577 Y123.248 E6.7094
G1 X131.553 Y123.114 E6.74217
G1 X132.843 Y122.9 E6.78566
G1 X134.205 Y122.629 E6.83185
G1 X135.586 Y122.308 E6.87901
G1 X136.287 Y122.125 E6.9031
G1 X137.121 Y121.885 E6.93197
G1 X138.618 Y121.406 E6.98424
G1 X139.276 Y121.172 E7.00747
G1 X140.026 Y120.885 E7.03418
G1 X141.512 Y120.255 E7.08786
G1 X142.401 Y119.843 E7.12045
G1 X143.168 Y119.455 E7.14904
G1 X143.675 Y119.181 E7.16821
G1 X144.491 Y118.709 E7.19956
G1 X145.788 Y117.872 E7.2509
G1 X146.606 Y117.296 E7.28418
G1 X147.549 Y116.559 E7.32399
G1 X148.029 Y116.153 E7.3449
G1 X148.473 Y115.743 E7.365
G1 X148.978 Y115.253 E7.3884
G1 X149.432 Y114.787 E7.41004
G1 X149.87 Y114.307 E7.43165
G1 X150.242 Y113.859 E7.45102
G1 X150.822 Y113.098 E7.48284
G1 X151.328 Y112.393 E7.51171
G1 X151.666 Y111.825 E7.53369
G1 X152.268 Y110.678 E7.57678
G1 X152.673 Y109.793 E7.60915
G1 X153.024 Y108.773 E7.64502
G1 X153.288 Y107.767 E7.67962
G1 X153.42 Y107.04 E7.70419
G1 X153.54 Y106.224 E7.73162
G1 X153.577 Y105.528 E7.75481
G1 X153.588 Y104.88 E7.77636
G1 X153.56 Y104.1 E7.80232
G1 X153.492 Y103.455 E7.82389
G1 X153.378 Y102.645 E7.8511
G1 X153.186 Y101.822 E7.87921
G1 X153.005 Y101.17 E7.90171
G1 X152.731 Y100.373 E7.92974
G1 X152.473 Y99.763 E7.95177
G1 X151.919 Y98.63 E7.99372
G1 X151.552 Y97.975 E8.01869
G1 X151.155 Y97.372 E8.0427
G1 X150.539 Y96.512 E8.07789
G1 X149.84 Y95.659 E8.11457
G1 X149.455 Y95.238 E8.13354
G1 X148.99 Y94.758 E8.15577
G1 X148.465 Y94.247 E8.18014
G1 X148.033 Y93.851 E8.19963
G1 X147.385 Y93.307 E8.22777
G1 X146.529 Y92.65 E8.26366
G1 X145.695 Y92.064 E8.29756
G1 X144.639 Y91.382 E8.33937
G1 X143.767 Y90.871 E8.37299
G1 X143.262 Y90.594 E8.39215
G1 X142.311 Y90.114 E8.42758
G1 X141.528 Y89.751 E8.45628
G1 X140.139 Y89.161 E8.50648
G1 X139.361 Y88.86 E8.53422
G1 X138.534 Y88.566 E8.56341
G1 X137.226 Y88.146 E8.60911
G1 X136.298 Y87.879 E8.64122
G1 X135.599 Y87.696 E8.66526
G1 X134.112 Y87.349 E8.71604
G1 X132.934 Y87.117 E8.75598
G1 X131.474 Y86.874 E8.8052
G1 X130.656 Y86.762 E8.83266
G1 X129.7 Y86.651 E8.86467
G1 X128.604 Y86.548 E8.90129
G1 X128.062 Y86.506 E8.91937
G1 X127.045 Y86.451 E8.95324
G1 X125.735 Y86.412 E8.99683
G1 X124.265 Y86.412 E9.04573
G1 X123.055 Y86.447 E9.08599
G1 X121.677 Y86.53 E9.1319
G1 X120.206 Y86.662 E9.18103
G1 X119.423 Y86.752 E9.20724
G1 X118.447 Y86.886 E9.24001
G1 X117.157 Y87.1 E9.2835
G1 X115.795 Y87.371 E9.32969
G1 X114.414 Y87.692 E9.37684
G1 X113.713 Y87.875 E9.40094
G1 X112.879 Y88.115 E9.42981
G1 X111.382 Y88.594 E9.48208
G1 X110.724 Y88.828 E9.50531
G1 X109.974 Y89.115 E9.53202
G1 X108.488 Y89.745 E9.5857
G1 X107.599 Y90.157 E9.61829
G1 X106.832 Y90.545 E9.64688
G1 X106.325 Y90.819 E9.66605
G1 X105.509 Y91.291 E9.6974
G1 X104.212 Y92.128 E9.74874
G1 X103.394 Y92.704 E9.78202
G1 X102.451 Y93.441 E9.82182
G1 X101.971 Y93.847 E9.84273
G1 X101.527 Y94.257 E9.86284
G1 X101.022 Y94.747 E9.88624
G1 X100.568 Y95.213 E9.90788
G1 F2100 E9.10788
;MESH:Ellipse_50_30_mm.stl
G0 F3600 X102.699 Y97.228
G0 X103.489 Y97.971
G0 X126.205 Y119.082
G0 X126.208 Y119.382
;TYPE:WALL-INNER
G1 F2100 E9.90788
G1 F1800 X127.413 Y119.328 E9.948
G1 X128.61 Y119.24 E9.98792
G1 X129.665 Y119.13 E10.0232
G1 X130.345 Y119.047 E10.04598
G1 X131.568 Y118.865 E10.08711
G1 X132.724 Y118.654 E10.12619
G1 X133.859 Y118.41 E10.1648
G1 X134.924 Y118.145 E10.2013
G1 X135.522 Y117.983 E10.22191
G1 X136.601 Y117.657 E10.2594
G1 X137.654 Y117.299 E10.29639
G1 X138.157 Y117.113 E10.31423
G1 X139.162 Y116.71 E10.35024
G1 X140.131 Y116.28 E10.3855
G1 X140.592 Y116.059 E10.40251
G1 X141.504 Y115.586 E10.43668
G1 X142.127 Y115.24 E10.46038
G1 X142.998 Y114.704 E10.4944
G1 X143.582 Y114.309 E10.51784
G1 X144.343 Y113.751 E10.54923
G1 X145.227 Y113.036 E10.58705
G1 X146.02 Y112.286 E10.62335
G1 X146.748 Y111.512 E10.65869
G1 X147.37 Y110.723 E10.69211
G1 X147.935 Y109.904 E10.7252
G1 X148.386 Y109.086 E10.75627
G1 X148.777 Y108.238 E10.78733
G1 X149.055 Y107.395 E10.81685
G1 X149.214 Y106.748 E10.83901
G1 X149.364 Y105.865 E10.8688
G1 X149.399 Y104.996 E10.89773
G1 X149.371 Y104.311 E10.92053
G1 X149.265 Y103.454 E10.94925
G1 X149.054 Y102.6 E10.97851
G1 X148.774 Y101.752 E11.00821
G1 X148.386 Y100.914 E11.03892
G1 X147.935 Y100.096 E11.06999
G1 X147.37 Y99.277 E11.10309
G1 X146.748 Y98.488 E11.1365
G1 X146.016 Y97.71 E11.17203
G1 X145.227 Y96.964 E11.20815
G1 X144.341 Y96.247 E11.24605
G1 X143.582 Y95.691 E11.27735
G1 X142.999 Y95.297 E11.30075
G1 X142.128 Y94.761 E11.33477
G1 X141.506 Y94.416 E11.35842
G1 X140.593 Y93.943 E11.39262
G1 X140.129 Y93.72 E11.40975
G1 X139.162 Y93.29 E11.44495
G1 X138.157 Y92.887 E11.48096
G1 X137.654 Y92.701 E11.4988
G1 X136.601 Y92.343 E11.53579
G1 X135.521 Y92.017 E11.57331
G1 X134.923 Y91.852 E11.59394
G1 X133.86 Y91.59 E11.63036
G1 X132.724 Y91.346 E11.669
G1 X131.568 Y91.134 E11.70809
G1 X130.346 Y90.95 E11.74919
G1 X128.611 Y90.76 E11.80724
G1 X127.418 Y90.672 E11.84703
G1 X126.208 Y90.618 E11.88732
G1 X125 Y90.601 E11.9275
G1 X123.792 Y90.618 E11.96768
G1 X122.587 Y90.672 E12.0078
G1 X121.39 Y90.76 E12.04772
G1 X120.335 Y90.87 E12.083
G1 X119.655 Y90.953 E12.10578
G1 X118.432 Y91.135 E12.14691
G1 X117.276 Y91.346 E12.18599
G1 X116.141 Y91.59 E12.22461
G1 X115.076 Y91.855 E12.26111
G1 X114.478 Y92.017 E12.28171
G1 X113.399 Y92.343 E12.3192
G1 X112.346 Y92.701 E12.3562
G1 X111.843 Y92.887 E12.37403
G1 X110.838 Y93.29 E12.41005
G1 X109.869 Y93.72 E12.44531
G1 X109.408 Y93.942 E12.46232
G1 X108.497 Y94.414 E12.49645
G1 X107.877 Y94.758 E12.52003
G1 X107.002 Y95.296 E12.5542
G1 X106.418 Y95.691 E12.57765
G1 X105.657 Y96.249 E12.60903
G1 X104.773 Y96.964 E12.64685
G1 X103.981 Y97.714 E12.68313
G1 X103.252 Y98.488 E12.71849
G1 X102.63 Y99.277 E12.75191
G1 X102.064 Y100.095 E12.78499
G1 X101.614 Y100.914 E12.81607
G1 X101.223 Y101.762 E12.84713
G1 X100.945 Y102.605 E12.87665
G1 X100.786 Y103.252 E12.89881
G1 X100.637 Y104.135 E12.9286
G1 X100.601 Y105.003 E12.95749
G1 X100.629 Y105.684 E12.98016
G1 X100.733 Y106.535 E13.00868
G1 X100.945 Y107.395 E13.03814
G1 X101.223 Y108.238 E13.06766
G1 X101.614 Y109.086 E13.09872
G1 X102.064 Y109.905 E13.1298
G1 X102.63 Y110.723 E13.16288
G1 X103.252 Y111.512 E13.1963
G1 X103.981 Y112.286 E13.23166
G1 X104.773 Y113.036 E13.26794
G1 X105.657 Y113.751 E13.30576
G1 X106.418 Y114.309 E13.33715
G1 X107.001 Y114.703 E13.36055
G1 X107.853 Y115.227 E13.39382
G1 X108.494 Y115.584 E13.41822
G1 X109.406 Y116.057 E13.45239
G1 X109.871 Y116.28 E13.46954
G1 X110.838 Y116.71 E13.50474
G1 X111.843 Y117.113 E13.54076
G1 X112.346 Y117.299 E13.55859
G1 X113.399 Y117.657 E13.59558
G1 X114.479 Y117.983 E13.63311
G1 X115.077 Y118.148 E13.65374
G1 X116.14 Y118.41 E13.69015
G1 X117.276 Y118.654 E13.7288
G1 X118.432 Y118.866 E13.76789
G1 X119.654 Y119.05 E13.80899
G1 X121.389 Y119.24 E13.86704
G1 X122.582 Y119.328 E13.90683
G1 X123.792 Y119.382 E13.94711
G1 X125 Y119.399 E13.9873
G1 X126.208 Y119.382 E14.02748
G0 F3600 X126.22 Y119.782
;TYPE:WALL-OUTER
G1 F1800 X127.437 Y119.728 E14.06799
G1 X128.646 Y119.638 E14.10832
G1 X129.852 Y119.512 E14.14865
G1 X130.399 Y119.443 E14.16699
G1 X131.634 Y119.26 E14.20851
G1 X132.802 Y119.046 E14.248
G1 X133.949 Y118.8 E14.28702
G1 X135.024 Y118.532 E14.32387
G1 X135.632 Y118.367 E14.34482
G1 X136.723 Y118.038 E14.38272
G1 X137.788 Y117.676 E14.42014
G1 X138.301 Y117.486 E14.43833
G1 X139.318 Y117.078 E14.47478
G1 X140.299 Y116.643 E14.51047
G1 X140.77 Y116.417 E14.52785
G1 X141.693 Y115.938 E14.56243
G1 X142.139 Y115.69 E14.57941
G1 X142.573 Y115.435 E14.59615
G1 X143.215 Y115.04 E14.62122
G1 X143.812 Y114.636 E14.64519
G1 X144.587 Y114.068 E14.67715
G1 X145.491 Y113.337 E14.71582
G1 X146.303 Y112.568 E14.75302
G1 X147.051 Y111.774 E14.7893
G1 X147.692 Y110.961 E14.82373
G1 X148.276 Y110.115 E14.85792
G1 X148.743 Y109.266 E14.89015
G1 X149.15 Y108.385 E14.92243
G1 X149.44 Y107.505 E14.95325
G1 X149.606 Y106.829 E14.9764
G1 X149.762 Y105.907 E15.0075
G1 X149.799 Y104.996 E15.03783
G1 X149.77 Y104.278 E15.06173
G1 X149.659 Y103.381 E15.09179
G1 X149.438 Y102.489 E15.12235
G1 X149.146 Y101.605 E15.15332
G1 X148.743 Y100.734 E15.18524
G1 X148.276 Y99.885 E15.21747
G1 X147.692 Y99.039 E15.25166
G1 X147.051 Y98.226 E15.28609
G1 X146.299 Y97.428 E15.32256
G1 X145.491 Y96.663 E15.35957
G1 X144.585 Y95.93 E15.39833
G1 X143.812 Y95.364 E15.43019
G1 X143.216 Y94.961 E15.45412
G1 X142.574 Y94.566 E15.4792
G1 X142.138 Y94.31 E15.49601
G1 X141.695 Y94.064 E15.51287
G1 X140.772 Y93.585 E15.54745
G1 X140.297 Y93.357 E15.56498
G1 X139.318 Y92.922 E15.60061
G1 X138.301 Y92.514 E15.63705
G1 X137.788 Y92.324 E15.65525
G1 X136.723 Y91.962 E15.69266
