;FLAVOR:Marlin
;TIME:149
;Filament used: 0.130436m
;Layer height: 0.15
;MINX:80.429
;MINY:73.42
;MINZ:0.2
;MAXX:169.566
;MAXY:136.577
;MAXZ:3.05
;Generated with Cura_SteamEngine 5.2.1
M82 ;absolute extrusion mode
G21 ; set units to millimeters
G90 ; use absolute positioning
M82 ; absolute extrusion mode
M104 S200.0 ; set extruder temp
M140 S45 ; set bed temp
M190 S45 ; wait for bed temp
M109 S200.0 ; wait for extruder temp
G28 W ; home all without mesh bed level
G80 ; mesh bed leveling
G92 E0.0 ; reset extruder distance position
G1 Y-3.0 F1000.0 ; go outside print area
G1 X60.0 E9.0 F1000.0 ; intro line
G1 X100.0 E21.5 F1000.0 ; intro line
G92 E0.0 ; reset extruder distance position
G92 E0
G92 E0
G1 F2100 E-0.8
;LAYER_COUNT:20
;LAYER:0
M107
G0 F3600 X87.618 Y78.032 Z0.2
;TYPE:SKIRT
G1 F2100 E0
G1 F1800 X88.005 Y77.706 E0.01683
G1 X88.438 Y77.445 E0.03365
G1 X89.06 Y77.211 E0.05575
G1 X89.739 Y77.035 E0.07908
G1 X92.364 Y76.309 E0.16966
G1 X95.001 Y75.5 E0.26141
G1 X97.584 Y74.626 E0.3521
G1 X99.303 Y74.007 E0.41287
G1 X99.859 Y73.824 E0.43234
G1 X100.477 Y73.668 E0.45354
G1 X101.132 Y73.542 E0.47572
G1 X102.491 Y73.42 E0.5211
G1 X103.782 Y73.457 E0.56406
G1 X105.003 Y73.639 E0.60512
G1 X106.571 Y73.926 E0.65814
G1 X109.349 Y74.394 E0.75184
G1 X111.995 Y74.763 E0.8407
G1 X114.775 Y75.07 E0.93372
G1 X117.479 Y75.292 E1.02396
G1 X120.194 Y75.437 E1.11439
G1 X122.948 Y75.507 E1.20602
G1 X125.7 Y75.498 E1.29755
G1 X128.417 Y75.414 E1.38796
G1 X131.13 Y75.251 E1.47836
G1 X133.899 Y75.007 E1.57081
G1 X136.464 Y74.725 E1.65664
G1 X137.135 Y74.702 E1.67897
G1 X137.979 Y74.724 E1.70705
G1 X138.973 Y74.892 E1.74058
G1 X140.633 Y75.231 E1.79693
G1 X143.335 Y75.73 E1.88832
G1 X146.032 Y76.149 E1.9791
G1 X148.761 Y76.495 E2.07059
G1 X151.501 Y76.763 E2.16216
G1 X154.215 Y76.952 E2.25265
G1 X156.93 Y77.064 E2.34302
G1 X159.603 Y77.1 E2.43194
G1 X161.059 Y77.1 E2.48036
G1 X161.761 Y77.11 E2.50371
G1 X162.264 Y77.157 E2.52052
G1 X162.754 Y77.283 E2.53734
G1 X163.217 Y77.485 E2.55415
G1 X163.644 Y77.756 E2.57097
G1 X164.022 Y78.092 E2.58779
G1 X164.366 Y78.518 E2.606
G1 X164.956 Y79.391 E2.64104
G1 X165.424 Y80.102 E2.66936
G1 X166.988 Y82.342 E2.76022
G1 X168.777 Y84.751 E2.86002
G1 X169.046 Y85.18 E2.87686
G1 X169.305 Y85.771 E2.89833
G1 X169.462 Y86.252 E2.91515
G1 X169.566 Y87.017 E2.94083
G1 X169.512 Y87.796 E2.9668
G1 X169.416 Y88.344 E2.98531
G1 X168.977 Y91.059 E3.07678
G1 X168.62 Y93.748 E3.167
G1 X168.336 Y96.48 E3.25836
G1 X168.087 Y99.918 E3.37301
G1 X168.044 Y100.702 E3.39912
G1 X167.672 Y103.661 E3.49832
G1 X167.403 Y106.366 E3.58873
G1 X167.21 Y109.109 E3.68019
G1 X167.095 Y111.828 E3.7707
G1 X167.058 Y115.264 E3.88499
G1 X167.065 Y116.716 E3.93328
G1 X167.044 Y117.26 E3.95139
G1 X166.971 Y117.825 E3.97034
G1 X166.731 Y118.915 E4.00746
G1 X166.178 Y121.603 E4.09874
G1 X165.707 Y124.277 E4.18904
G1 X165.308 Y126.989 E4.28022
G1 X164.935 Y130.21 E4.38806
G1 X164.896 Y130.606 E4.4013
G1 X164.806 Y131.103 E4.4181
G1 X164.64 Y131.581 E4.43493
G1 X164.401 Y132.026 E4.45173
G1 X164.094 Y132.428 E4.46855
G1 X163.728 Y132.777 E4.48537
G1 X163.311 Y133.063 E4.50219
G1 X162.655 Y133.35 E4.526
G1 X160.328 Y134.068 E4.607
G1 X157.73 Y134.946 E4.69821
G1 X155.825 Y135.655 E4.76582
G1 X155.74 Y135.679 E4.76876
G1 X154.514 Y136.137 E4.81229
G1 X154.021 Y136.289 E4.82944
G1 X152.918 Y136.515 E4.86689
G1 X151.747 Y136.577 E4.90589
G1 X150.846 Y136.527 E4.93591
G1 X147.701 Y136.011 E5.04191
G1 X144.957 Y135.643 E5.13399
G1 X142.294 Y135.363 E5.22305
G1 X139.507 Y135.149 E5.31602
G1 X136.796 Y135.018 E5.40629
G1 X134.076 Y134.963 E5.49678
G1 X131.323 Y134.986 E5.58835
G1 X127.048 Y135.162 E5.73066
G1 X126.31 Y135.157 E5.7552
G1 X124.888 Y135.091 E5.80255
G1 X124.173 Y135.049 E5.82637
G1 X121.452 Y134.963 E5.91692
G1 X118.7 Y134.954 E6.00845
G1 X115.948 Y135.023 E6.10001
G1 X113.233 Y135.168 E6.19044
G1 X110.527 Y135.39 E6.28075
G1 X107.749 Y135.698 E6.37371
G1 X105.066 Y136.071 E6.4638
G1 X103.102 Y136.378 E6.52992
G1 X102.54 Y136.412 E6.54865
G1 X101.512 Y136.412 E6.58284
G1 X100.541 Y136.293 E6.61537
G1 X99.717 Y136.086 E6.64363
G1 X98.997 Y135.882 E6.66852
G1 X96.941 Y135.27 E6.73987
G1 X94.283 Y134.561 E6.83137
G1 X91.615 Y133.929 E6.92256
G1 X90.536 Y133.71 E6.95918
G1 X89.192 Y133.42 E7.00491
G1 X88.708 Y133.275 E7.02172
G1 X88.253 Y133.055 E7.03852
G1 X87.838 Y132.766 E7.05534
G1 X87.473 Y132.416 E7.07216
G1 X87.052 Y131.814 E7.0966
G1 X85.672 Y129.26 E7.19315
G1 X84.286 Y126.866 E7.28516
G1 X82.852 Y124.54 E7.37604
G1 X81.574 Y122.573 E7.45406
G1 X81.319 Y122.133 E7.47097
G1 X80.914 Y121.26 E7.50298
G1 X80.663 Y120.42 E7.53214
G1 X80.484 Y119.567 E7.56113
G1 X80.429 Y118.518 E7.59607
G1 X80.519 Y117.566 E7.62787
G1 X80.919 Y114.765 E7.72198
G1 X81.238 Y112.016 E7.81403
G1 X81.479 Y109.268 E7.90578
G1 X81.637 Y106.589 E7.99503
G1 X81.722 Y103.806 E8.08764
G1 X81.729 Y101.086 E8.17811
G1 X81.658 Y98.355 E8.26897
G1 X81.522 Y95.959 E8.34879
G1 X81.524 Y95.854 E8.35228
G1 X81.428 Y94.32 E8.40341
G1 X81.512 Y93.358 E8.43552
G1 X81.78 Y92.187 E8.47548
G1 X82.191 Y91.177 E8.51175
G1 X82.627 Y90.219 E8.54675
G1 X83.732 Y87.699 E8.63827
G1 X84.756 Y85.17 E8.72902
G1 X85.719 Y82.587 E8.82071
G1 X86.597 Y80.008 E8.91132
G1 X86.826 Y79.31 E8.93575
G1 X87.022 Y78.844 E8.95257
G1 X87.288 Y78.414 E8.96939
G1 X87.618 Y78.032 E8.98618
G1 F2100 E8.18618
;MESH:K??rper1.stl
G0 F3600 X161.62 Y84.912
M104 S200
;TYPE:WALL-OUTER
G1 F2100 E8.98618
G1 F2117.6 X161.62 Y80.4 E9.11374
G1 X154.902 Y80.404 E9.30366
G1 X154.458 Y80.812 E9.32071
G1 X153.938 Y81.264 E9.34019
G1 X153.477 Y81.635 E9.35692
G1 X153.026 Y81.971 E9.37282
G1 X152.577 Y82.277 E9.38818
G1 X151.96 Y82.656 E9.40865
G1 X151.471 Y82.912 E9.42425
G1 X150.625 Y83.263 E9.45015
G1 X149.992 Y83.437 E9.46871
G1 X149.193 Y83.579 E9.49165
G1 X148.405 Y83.6 E9.51393
G1 X147.418 Y83.487 E9.54202
G1 X146.437 Y83.16 E9.57125
G1 X145.737 Y82.832 E9.59311
G1 X144.985 Y82.391 E9.61775
G1 X144.278 Y81.906 E9.64199
G1 X143.579 Y81.38 E9.66672
G1 X142.2 Y80.283 E9.71654
G1 X141.511 Y79.753 E9.74112
G1 X140.85 Y79.284 E9.76403
G1 X140.149 Y78.849 E9.78735
G1 X139.228 Y78.385 E9.81651
G1 X138.342 Y78.124 E9.84262
G1 X137.459 Y77.991 E9.86787
G1 X136.814 Y78.006 E9.88611
G1 X136.011 Y78.1 E9.90896
G1 X135.307 Y78.248 E9.9293
G1 X134.288 Y78.59 E9.95969
G1 X133.378 Y78.968 E9.98755
G1 X132.446 Y79.403 E10.01662
G1 X130.007 Y80.612 E10.09358
G1 X128.978 Y81.102 E10.1258
G1 X128.454 Y81.336 E10.14203
G1 X127.923 Y81.56 E10.15832
G1 X127.384 Y81.772 E10.1747
G1 X126.85 Y81.969 E10.19079
G1 X126.296 Y82.153 E10.20729
G1 X125.742 Y82.318 E10.22363
G1 X125.17 Y82.464 E10.24032
G1 X124.635 Y82.582 E10.25581
G1 X124.051 Y82.685 E10.27258
G1 X123.479 Y82.762 E10.28889
G1 X122.905 Y82.814 E10.30519
G1 X122.326 Y82.84 E10.32157
G1 X121.746 Y82.84 E10.33797
G1 X121.193 Y82.818 E10.35362
G1 X120.576 Y82.766 E10.37112
G1 X120.018 Y82.698 E10.38701
G1 X119.398 Y82.597 E10.40477
G1 X118.852 Y82.488 E10.42051
G1 X118.222 Y82.339 E10.43882
G1 X117.632 Y82.179 E10.4561
G1 X117.058 Y82.006 E10.47305
G1 X116.456 Y81.805 E10.49099
G1 X115.869 Y81.593 E10.50863
G1 X115.283 Y81.366 E10.5264
G1 X114.113 Y80.874 E10.56228
G1 X112.967 Y80.355 E10.59785
G1 X109.599 Y78.751 E10.70331
G1 X108.519 Y78.259 E10.73686
G1 X107.985 Y78.031 E10.75328
G1 X106.942 Y77.615 E10.78503
G1 X106.43 Y77.433 E10.80039
G1 X105.925 Y77.267 E10.81542
G1 X105.426 Y77.121 E10.83011
G1 X104.678 Y76.928 E10.85195
G1 X103.795 Y76.779 E10.87727
G1 X102.733 Y76.704 E10.90737
G1 X101.72 Y76.78 E10.93609
G1 X100.881 Y76.959 E10.96034
G1 X100.07 Y77.24 E10.98461
G1 X99.289 Y77.633 E11.00932
G1 X98.533 Y78.143 E11.03511
G1 X97.992 Y78.582 E11.0548
G1 X97.627 Y78.934 E11.06914
G1 X97.111 Y79.504 E11.09088
G1 X96.777 Y79.918 E11.10591
G1 X96.424 Y80.4 E11.1228
G1 X89.959 Y80.4 E11.30558
G1 X89.959 Y87.614 E11.50952
G1 X89.404 Y88.026 E11.52907
G1 X88.918 Y88.403 E11.54645
G1 X88.459 Y88.774 E11.56314
G1 X88.027 Y89.141 E11.57917
G1 X87.609 Y89.516 E11.59504
G1 X87.044 Y90.057 E11.61716
G1 X86.404 Y90.747 E11.64376
G1 X85.732 Y91.589 E11.67422
G1 X85.236 Y92.435 E11.70194
G1 X84.931 Y93.191 E11.72499
G1 X84.784 Y93.782 E11.74221
G1 X84.72 Y94.28 E11.7564
G1 X84.783 Y95.074 E11.77892
G1 X85.012 Y95.768 E11.79958
G1 X85.276 Y96.297 E11.8163
G1 X85.695 Y96.935 E11.83787
G1 X86.265 Y97.578 E11.86217
G1 X86.772 Y98.073 E11.8822
G1 X87.329 Y98.561 E11.90313
G1 X87.924 Y99.04 E11.92473
G1 X88.54 Y99.514 E11.9467
G1 X89.79 Y100.453 E11.9909
G1 X90.396 Y100.921 E12.01255
G1 X90.97 Y101.388 E12.03347
G1 X91.509 Y101.865 E12.05382
G1 X91.989 Y102.347 E12.07305
G1 X92.397 Y102.828 E12.09088
G1 X92.792 Y103.411 E12.11079
G1 X92.982 Y103.833 E12.12387
G1 X93.15 Y104.37 E12.13978
G1 X93.224 Y105.042 E12.15889
G1 X93.208 Y105.295 E12.16606
G1 X93.052 Y105.976 E12.18581
G1 X92.816 Y106.564 E12.20372
G1 X92.501 Y107.141 E12.22231
G1 X92.105 Y107.727 E12.2423
G1 X91.637 Y108.321 E12.26368
G1 X91.265 Y108.753 E12.2798
G1 X90.52 Y109.54 E12.31044
G1 X89.896 Y110.161 E12.33533
G1 X87.91 Y112.063 E12.41307
G1 X87.253 Y112.706 E12.43906
G1 X86.619 Y113.352 E12.46465
G1 X86.022 Y114 E12.48956
G1 X85.474 Y114.648 E12.51355
G1 X84.984 Y115.296 E12.53652
G1 X84.567 Y115.941 E12.55823
G1 X84.226 Y116.583 E12.57878
G1 X83.966 Y117.235 E12.59862
G1 X83.776 Y117.948 E12.61949
G1 X83.708 Y118.793 E12.64345
G1 X83.805 Y119.416 E12.66128
G1 X83.982 Y120.037 E12.67953
G1 X84.207 Y120.575 E12.69602
G1 X84.712 Y121.367 E12.72257
G1 X85.153 Y121.88 E12.7417
G1 X85.638 Y122.389 E12.76158
G1 X86.298 Y122.964 E12.78632
G1 X86.912 Y123.425 E12.80803
G1 X87.33 Y123.717 E12.82244
G1 X87.788 Y124.017 E12.83792
G1 X88.272 Y124.314 E12.85398
G1 X88.789 Y124.615 E12.87089
G1 X89.334 Y124.914 E12.88846
G1 X89.959 Y125.239 E12.90838
G1 X89.959 Y130.2 E13.04863
G1 X96.24 Y130.203 E13.2262
G1 X97.198 Y131.026 E13.26191
G1 X97.951 Y131.595 E13.28859
G1 X98.685 Y132.075 E13.31339
G1 X99.286 Y132.405 E13.33277
G1 X99.757 Y132.626 E13.34748
G1 X100.251 Y132.813 E13.36241
G1 X101.133 Y133.042 E13.38817
G1 X101.585 Y133.114 E13.40111
G1 X102.434 Y133.128 E13.42512
G1 X102.853 Y133.084 E13.43703
G1 X103.695 Y132.89 E13.46146
G1 X104.491 Y132.581 E13.4856
G1 X105.286 Y132.157 E13.51107
G1 X106.065 Y131.646 E13.53741
G1 X106.839 Y131.073 E13.56463
G1 X108.391 Y129.861 E13.6203
G1 X109.177 Y129.287 E13.64782
G1 X109.988 Y128.767 E13.67506
G1 X110.82 Y128.339 E13.70151
G1 X111.687 Y128.023 E13.7276
G1 X112.568 Y127.854 E13.75296
G1 X113.018 Y127.806 E13.76575
G1 X114.088 Y127.835 E13.79601
G1 X114.777 Y127.954 E13.81578
G1 X115.44 Y128.126 E13.83514
G1 X115.947 Y128.285 E13.85017
G1 X116.463 Y128.469 E13.86565
G1 X116.987 Y128.675 E13.88157
G1 X118.067 Y129.141 E13.91482
G1 X119.724 Y129.904 E13.9664
G1 X120.862 Y130.415 E14.00167
G1 X121.441 Y130.658 E14.01942
G1 X122.021 Y130.887 E14.03705
G1 X122.618 Y131.104 E14.055
G1 X123.19 Y131.289 E14.072
G1 X123.781 Y131.458 E14.08938
G1 X124.381 Y131.606 E14.10685
G1 X124.961 Y131.719 E14.12355
G1 X125.553 Y131.804 E14.14046
G1 X126.146 Y131.856 E14.15729
G1 X126.738 Y131.874 E14.17404
G1 X127.323 Y131.859 E14.19058
G1 X127.916 Y131.812 E14.2074
G1 X128.499 Y131.735 E14.22402
G1 X129.084 Y131.627 E14.24084
G1 X129.667 Y131.492 E14.25776
G1 X130.247 Y131.332 E14.27477
G1 X130.821 Y131.151 E14.29178
G1 X131.395 Y130.947 E14.30901
G1 X131.963 Y130.728 E14.32622
G1 X132.527 Y130.496 E14.34346
G1 X135.271 Y129.29 E14.4282
G1 X135.82 Y129.06 E14.44502
G1 X136.331 Y128.859 E14.46055
G1 X136.852 Y128.67 E14.47622
G1 X137.365 Y128.502 E14.49148
G1 X137.877 Y128.36 E14.5065
G1 X138.635 Y128.198 E14.52841
G1 X139.369 Y128.117 E14.54929
G1 X140.346 Y128.118 E14.57691
G1 X141.407 Y128.266 E14.6072
G1 X142.207 Y128.521 E14.63093
G1 X143.065 Y128.855 E14.65696
G1 X143.99 Y129.369 E14.68688
G1 X144.427 Y129.633 E14.70131
G1 X145.289 Y130.198 E14.73045
G1 X146.99 Y131.372 E14.78888
G1 X147.894 Y131.969 E14.81951
G1 X148.674 Y132.398 E14.84468
G1 X149.519 Y132.794 E14.87106
G1 X150.359 Y133.08 E14.89615
G1 X150.776 Y133.178 E14.90826
G1 X151.642 Y133.287 E14.93293
G1 X152.495 Y133.234 E14.95709
G1 X152.928 Y133.157 E14.96953
G1 X153.817 Y132.885 E14.99581
G1 X154.56 Y132.559 E15.01875
G1 X155.394 Y132.049 E15.04639
G1 X156.171 Y131.453 E15.07407
G1 X156.759 Y130.928 E15.09636
G1 X157.5 Y130.2 E15.12572
G1 X161.62 Y130.2 E15.2422
G1 X161.616 Y125.357 E15.37912
G1 X160.684 Y124.687 E15.41157
G1 X160.095 Y124.188 E15.43339
G1 X159.724 Y123.832 E15.44793
G1 X159.282 Y123.319 E15.46707
G1 X158.934 Y122.776 E15.48531
G1 X158.77 Y122.254 E15.50077
G1 X158.766 Y121.784 E15.51406
G1 X158.852 Y121.459 E15.52357
G1 X159.172 Y120.951 E15.54054
G1 X159.688 Y120.451 E15.56085
G1 X160.387 Y119.984 E15.58462
G1 X161.798 Y119.157 E15.63086
G1 X162.429 Y118.751 E15.65207
G1 X163.016 Y118.29 E15.67317
G1 X163.466 Y117.778 E15.69244
G1 X163.685 Y117.37 E15.70553
G1 X163.778 Y116.773 E15.72261
G1 X163.695 Y116.103 E15.7417
G1 X163.439 Y115.454 E15.76142
G1 X163.04 Y114.717 E15.78512
G1 X162.576 Y114.025 E15.80867
G1 X161.577 Y112.628 E15.85723
G1 X160.923 Y111.686 E15.88965
G1 X160.616 Y111.208 E15.90571
G1 X160.332 Y110.727 E15.9215
G1 X159.961 Y110.018 E15.94412
G1 X159.589 Y109.031 E15.97394
G1 X159.46 Y108.099 E16.00054
G1 X159.465 Y107.642 E16.01346
G1 X159.587 Y106.972 E16.03271
G1 X159.763 Y106.447 E16.04837
G1 X160.16 Y105.721 E16.07176
G1 X160.649 Y105.052 E16.09519
G1 X161.147 Y104.522 E16.11575
G1 X161.525 Y104.155 E16.13064
G1 X161.913 Y103.8 E16.14551
G1 X163.29 Y102.6 E16.19715
G1 X163.923 Y102.001 E16.22179
G1 X164.432 Y101.401 E16.24403
G1 X164.688 Y100.85 E16.26121
G1 X164.75 Y100.572 E16.26926
G1 X164.75 Y100.276 E16.27763
G1 X164.583 Y99.716 E16.29415
G1 X164.325 Y99.297 E16.30806
G1 X163.79 Y98.706 E16.3306
G1 X163.117 Y98.112 E16.35598
G1 X161.53 Y96.845 E16.41339
G1 X160.79 Y96.204 E16.44106
G1 X160.236 Y95.632 E16.46358
G1 X159.75 Y94.953 E16.48718
G1 X159.575 Y94.529 E16.50015
G1 X159.498 Y94.199 E16.50973
G1 X159.483 Y93.863 E16.51924
G1 X159.532 Y93.52 E16.52904
G1 X159.644 Y93.184 E16.53905
G1 X159.934 Y92.681 E16.55546
G1 X160.3 Y92.202 E16.57251
G1 X160.859 Y91.666 E16.5944
G1 X161.416 Y91.226 E16.61447
G1 X161.823 Y90.927 E16.62874
G1 X162.288 Y90.605 E16.64474
G1 X164.089 Y89.42 E16.70568
G1 X164.752 Y88.964 E16.72843
G1 X165.444 Y88.418 E16.75335
G1 X165.92 Y87.93 E16.77263
G1 X166.21 Y87.449 E16.7885
G1 X166.269 Y87.228 E16.79497
G1 X166.262 Y87.022 E16.8008
G1 X166.131 Y86.701 E16.8106
G1 X165.797 Y86.354 E16.82422
G1 X165.25 Y86.003 E16.84259
G1 X164.719 Y85.778 E16.85889
G1 X163.939 Y85.489 E16.88241
G1 X162.882 Y85.201 E16.91338
G1 X161.62 Y84.912 E16.94998
G1 F2100 E16.14998
;MESH:NONMESH
G0 F600 X161.62 Y84.912 Z0.35
G0 F3600 X89.959 Y80.4
;TIME_ELAPSED:23.766710
;LAYER:1
M106 S255
;TYPE:WALL-OUTER
;MESH:K??rper1.stl
G1 F2100 E16.94998
G1 F2470.6 X96.424 Y80.4 E17.08706
G1 X96.777 Y79.918 E17.09973
G1 X97.111 Y79.504 E17.11101
G1 X97.821 Y78.721 E17.13342
G1 X98.533 Y78.143 E17.15287
G1 X99.289 Y77.633 E17.1722
G1 X100.07 Y77.24 E17.19074
G1 X100.881 Y76.959 E17.20894
G1 X101.729 Y76.779 E17.22732
G1 X102.734 Y76.704 E17.24869
G1 X103.798 Y76.779 E17.27131
G1 X104.687 Y76.93 E17.29043
G1 X105.434 Y77.123 E17.30679
G1 X105.934 Y77.27 E17.31784
G1 X106.44 Y77.436 E17.32913
G1 X106.954 Y77.62 E17.3407
G1 X107.985 Y78.031 E17.36424
G1 X108.533 Y78.265 E17.37687
G1 X109.617 Y78.759 E17.40213
G1 X112.988 Y80.365 E17.4813
G1 X114.142 Y80.886 E17.50815
G1 X115.307 Y81.376 E17.53495
G1 X115.869 Y81.593 E17.54772
G1 X116.494 Y81.818 E17.56181
