M106 P2 S0.0
M106 P3 S0.0
M106 P4 S0.0
M106 P5 S0.0
M106 P6 S0.2
;FLAVOR:Marlin
;TIME:4181
;Filament used: 1.64426m
;Layer height: 0.2
;MINX:113.1
;MINY:93.1
;MINZ:0.2
;MAXX:136.9
;MAXY:116.9
;MAXZ:48.6
;Generated with Cura_SteamEngine 5.2.1
M82 ;absolute extrusion mode
G21 ; set units to millimeters
G90 ; use absolute positioning
M82 ; absolute extrusion mode
M104 S200 ; set extruder temp
M140 S60 ; set bed temp
M190 S60 ; wait for bed temp
M109 S200 ; wait for extruder temp
G92 E0.0 ; reset extruder distance position
G1 Y-3.0 F1000.0 ; go outside print area
G1 X60.0 E9.0 F1000.0 ; intro line
G1 X100.0 E21.5 F1000.0 ; intro line
G92 E0.0 ; reset extruder distance position
G92 E0
G92 E0
G1 F2100 E-0.8
;LAYER_COUNT:243
;LAYER:0
M107
M205 X20 Y20
G0 F600 X114.11 Y94.716 Z0.2
;TYPE:SKIRT
G1 F2100 E0
G1 F600 X114.516 Y94.284 E0.01972
G1 X114.977 Y93.911 E0.03944
G1 X115.484 Y93.603 E0.05917
G1 X116.027 Y93.366 E0.07888
G1 X116.598 Y93.204 E0.09862
G1 X117.479 Y93.1 E0.12812
G1 X131.856 Y93.1 E0.60631
G1 X132.554 Y93.11 E0.62952
G1 X133.145 Y93.159 E0.64925
G1 X133.724 Y93.286 E0.66896
G1 X134.281 Y93.49 E0.68869
G1 X134.805 Y93.768 E0.70842
G1 X135.287 Y94.113 E0.72814
G1 X135.719 Y94.52 E0.74788
G1 X136.091 Y94.981 E0.76758
G1 X136.399 Y95.488 E0.78731
G1 X136.635 Y96.032 E0.80703
G1 X136.796 Y96.602 E0.82673
G1 X136.9 Y97.479 E0.85611
G1 X136.9 Y111.818 E1.33302
G1 X136.891 Y112.545 E1.35721
G1 X136.843 Y113.137 E1.37696
G1 X136.717 Y113.716 E1.39667
G1 X136.514 Y114.273 E1.41639
G1 X136.238 Y114.798 E1.43611
G1 X135.894 Y115.281 E1.45584
G1 X135.488 Y115.713 E1.47555
G1 X135.027 Y116.086 E1.49528
G1 X134.521 Y116.395 E1.515
G1 X133.978 Y116.632 E1.5347
G1 X133.407 Y116.795 E1.55445
G1 X132.521 Y116.9 E1.58413
G1 X118.15 Y116.9 E2.06211
G1 X117.452 Y116.891 E2.08533
G1 X116.861 Y116.843 E2.10505
G1 X116.282 Y116.716 E2.12476
G1 X115.725 Y116.513 E2.14448
G1 X115.2 Y116.237 E2.16421
G1 X114.718 Y115.892 E2.18392
G1 X114.286 Y115.486 E2.20364
G1 X113.912 Y115.025 E2.22339
G1 X113.604 Y114.519 E2.24309
G1 X113.367 Y113.975 E2.26282
G1 X113.205 Y113.405 E2.28253
G1 X113.1 Y112.517 E2.31227
G1 X113.1 Y98.114 E2.79132
G1 X113.109 Y97.449 E2.81344
G1 X113.157 Y96.858 E2.83316
G1 X113.284 Y96.279 E2.85288
G1 X113.488 Y95.722 E2.87261
G1 X113.765 Y95.198 E2.89232
G1 X114.11 Y94.716 E2.91203
G0 X114.504 Y94.869
G1 X114.906 Y94.472 E2.93083
G1 X115.36 Y94.135 E2.94963
G1 X115.857 Y93.866 E2.96843
G1 X116.387 Y93.669 E2.98723
G1 X116.94 Y93.55 E3.00605
G1 X117.526 Y93.5 E3.02561
G1 X131.85 Y93.5 E3.50203
G1 X132.548 Y93.51 E3.52525
G1 X133.112 Y93.558 E3.54407
G1 X133.662 Y93.685 E3.56285
G1 X134.19 Y93.889 E3.58167
G1 X134.684 Y94.164 E3.60048
G1 X135.133 Y94.507 E3.61927
G1 X135.53 Y94.909 E3.63806
G1 X135.867 Y95.364 E3.65689
G1 X136.135 Y95.861 E3.67567
G1 X136.331 Y96.391 E3.69447
G1 X136.451 Y96.944 E3.71329
G1 X136.5 Y97.529 E3.73282
G1 X136.5 Y111.814 E4.20794
G1 X136.491 Y112.541 E4.23212
G1 X136.444 Y113.104 E4.25091
G1 X136.318 Y113.655 E4.26971
G1 X136.116 Y114.183 E4.28851
G1 X135.841 Y114.677 E4.30732
G1 X135.499 Y115.127 E4.32611
G1 X135.097 Y115.525 E4.34493
G1 X134.644 Y115.862 E4.36371
G1 X134.147 Y116.132 E4.38252
G1 X133.617 Y116.329 E4.40133
G1 X133.065 Y116.45 E4.42012
G1 X132.473 Y116.5 E4.43988
G1 X118.155 Y116.5 E4.9161
G1 X117.457 Y116.491 E4.93932
G1 X116.894 Y116.443 E4.95811
G1 X116.343 Y116.317 E4.97691
G1 X115.815 Y116.115 E4.99571
G1 X115.321 Y115.84 E5.01452
G1 X114.871 Y115.498 E5.03332
G1 X114.473 Y115.096 E5.05213
G1 X114.137 Y114.642 E5.07092
G1 X113.867 Y114.145 E5.08973
G1 X113.67 Y113.615 E5.10854
G1 X113.55 Y113.063 E5.12733
G1 X113.501 Y112.495 E5.14629
G1 X113.5 Y98.12 E5.6244
G1 X113.509 Y97.455 E5.64652
G1 X113.557 Y96.892 E5.66532
G1 X113.683 Y96.341 E5.68411
G1 X113.886 Y95.813 E5.70293
G1 X114.162 Y95.319 E5.72175
G1 X114.504 Y94.869 E5.74055
G0 X114.897 Y95.031
G1 X115.294 Y94.671 E5.75837
G1 X115.741 Y94.373 E5.77624
G1 X116.226 Y94.145 E5.79407
G1 X116.74 Y93.992 E5.8119
G1 X117.481 Y93.901 E5.83673
G1 X131.845 Y93.9 E6.31448
G1 X132.543 Y93.91 E6.3377
G1 X133.077 Y93.958 E6.35553
G1 X133.598 Y94.084 E6.37336
G1 X134.095 Y94.287 E6.39122
G1 X134.556 Y94.561 E6.40905
G1 X134.971 Y94.9 E6.42688
G1 X135.331 Y95.298 E6.44473
G1 X135.628 Y95.744 E6.46255
G1 X135.856 Y96.23 E6.4804
G1 X136.008 Y96.744 E6.49823
G1 X136.099 Y97.482 E6.52296
G1 X136.1 Y111.809 E6.99948
G1 X136.091 Y112.536 E7.02366
G1 X136.044 Y113.07 E7.04149
G1 X135.919 Y113.591 E7.05931
G1 X135.717 Y114.088 E7.07716
G1 X135.444 Y114.55 E7.095
G1 X135.106 Y114.966 E7.11283
G1 X134.709 Y115.327 E7.13068
G1 X134.263 Y115.625 E7.14852
G1 X133.778 Y115.853 E7.16634
G1 X133.264 Y116.007 E7.18419
G1 X132.519 Y116.099 E7.20916
G1 X118.161 Y116.1 E7.68671
G1 X117.463 Y116.091 E7.70992
G1 X116.928 Y116.044 E7.72779
G1 X116.407 Y115.918 E7.74562
G1 X115.91 Y115.716 E7.76346
G1 X115.449 Y115.443 E7.78128
G1 X115.033 Y115.104 E7.79913
G1 X114.672 Y114.708 E7.81695
G1 X114.374 Y114.262 E7.83479
G1 X114.146 Y113.776 E7.85265
G1 X113.993 Y113.262 E7.87048
G1 X113.901 Y112.515 E7.89552
G1 X113.9 Y98.125 E8.37413
G1 X113.909 Y97.46 E8.39625
G1 X113.957 Y96.926 E8.41408
G1 X114.083 Y96.405 E8.43191
G1 X114.285 Y95.908 E8.44975
G1 X114.558 Y95.447 E8.46757
G1 X114.897 Y95.031 E8.48542
G0 X115.289 Y95.204
G1 X115.68 Y94.883 E8.50225
G1 X116.117 Y94.628 E8.51908
G1 X116.588 Y94.444 E8.53589
G1 X117.082 Y94.338 E8.5527
G1 X117.527 Y94.301 E8.56755
G1 X131.839 Y94.3 E9.04357
G1 X132.537 Y94.31 E9.06679
G1 X133.04 Y94.357 E9.08359
G1 X133.53 Y94.483 E9.10042
G1 X133.994 Y94.685 E9.11725
G1 X134.42 Y94.957 E9.13406
G1 X134.798 Y95.292 E9.15086
G1 X135.118 Y95.683 E9.16766
G1 X135.373 Y96.12 E9.18449
G1 X135.556 Y96.591 E9.2013
G1 X135.663 Y97.085 E9.21811
G1 X135.699 Y97.74 E9.23993
G1 X135.7 Y111.804 E9.7077
G1 X135.691 Y112.531 E9.73188
G1 X135.645 Y113.034 E9.74868
G1 X135.52 Y113.524 E9.7655
G1 X135.319 Y113.988 E9.78232
G1 X135.048 Y114.415 E9.79914
G1 X134.713 Y114.794 E9.81596
G1 X134.323 Y115.115 E9.83276
G1 X133.887 Y115.371 E9.84958
G1 X133.416 Y115.554 E9.86639
G1 X132.922 Y115.662 E9.8832
G1 X132.472 Y115.699 E9.89822
G1 X118.166 Y115.7 E10.37404
G1 X117.468 Y115.691 E10.39726
G1 X116.964 Y115.644 E10.4141
G1 X116.474 Y115.519 E10.43091
G1 X116.01 Y115.318 E10.44773
G1 X115.584 Y115.047 E10.46453
G1 X115.205 Y114.712 E10.48135
G1 X114.884 Y114.321 E10.49818
G1 X114.629 Y113.885 E10.51498
G1 X114.445 Y113.414 E10.53179
G1 X114.338 Y112.92 E10.54861
G1 X114.301 Y112.467 E10.56372
G1 X114.3 Y98.131 E11.04054
G1 X114.309 Y97.466 E11.06266
G1 X114.356 Y96.962 E11.0795
G1 X114.482 Y96.473 E11.09629
G1 X114.683 Y96.009 E11.11311
G1 X114.954 Y95.582 E11.12993
G1 X115.289 Y95.204 E11.14673
G1 F2100 E10.34673
;MESH:TestObject_Softangle.stl
G0 F600 X117.914 Y96.835
G0 X117.914 Y97.914
G0 X131.6 Y105
G1 F2100 E11.14673
G0 F600 X131.9 Y105
;TYPE:WALL-INNER
G1 X131.9 Y98.1 E11.37622
G1 X118.1 Y98.1 E11.83521
G1 X118.1 Y111.9 E12.2942
G1 X131.9 Y111.9 E12.75319
G1 X131.9 Y105 E12.98269
G0 X131.6 Y105
G0 X132.03 Y112.03
G0 X132.3 Y112.3
;TYPE:WALL-OUTER
G1 X132.3 Y105 E13.22549
G1 X132.3 Y97.7 E13.46829
G1 X117.7 Y97.7 E13.95388
G1 X117.7 Y112.3 E14.43948
G1 X132.3 Y112.3 E14.92508
G0 X132.3 Y112.1
G0 X131.52 Y111.52
;TYPE:SKIN
G1 X131.52 Y105 E15.14194
G1 X131.52 Y98.48 E15.35879
G1 X118.48 Y98.48 E15.79251
G1 X118.48 Y111.52 E16.22622
G1 X131.52 Y111.52 E16.65993
G0 X131.319 Y99.075
G1 X130.924 Y98.68 E16.67851
G0 X130.358 Y98.68
G1 X131.319 Y99.641 E16.72371
G0 X131.319 Y100.206
G1 X129.792 Y98.68 E16.79551
G0 X129.227 Y98.68
G1 X131.319 Y100.772 E16.89391
G0 X131.319 Y101.338
G1 X128.661 Y98.68 E17.01894
G0 X128.095 Y98.68
G1 X131.319 Y101.903 E17.17056
G0 X131.319 Y102.469
G1 X127.53 Y98.68 E17.34879
G0 X126.964 Y98.68
G1 X131.319 Y103.035 E17.55363
G0 X131.319 Y103.601
G1 X126.398 Y98.68 E17.7851
G0 X125.833 Y98.68
G1 X131.319 Y104.166 E18.04314
G0 X131.319 Y104.732
G1 X125.267 Y98.68 E18.32781
G0 X124.701 Y98.68
G1 X131.319 Y105.298 E18.6391
G0 X131.319 Y105.863
G1 X124.136 Y98.68 E18.97697
G0 X123.57 Y98.68
G1 X131.319 Y106.429 E19.34146
G0 X131.319 Y106.995
G1 X123.004 Y98.68 E19.73257
G0 X122.439 Y98.68
G1 X131.319 Y107.56 E20.15026
G0 X131.319 Y108.126
G1 X121.873 Y98.68 E20.59457
G0 X121.307 Y98.68
G1 X131.319 Y108.692 E21.0655
G0 X131.319 Y109.257
G1 X120.742 Y98.68 E21.56301
G0 X120.176 Y98.68
G1 X131.319 Y109.823 E22.08715
G0 X131.319 Y110.389
G1 X119.61 Y98.68 E22.6379
G0 X119.044 Y98.68
G1 X131.319 Y110.954 E23.21526
G0 X131.118 Y111.319
G1 X118.679 Y98.88 E23.80035
G0 X118.679 Y99.446
G1 X130.553 Y111.319 E24.35884
G0 X129.987 Y111.319
G1 X118.679 Y100.011 E24.89073
G0 X118.679 Y100.577
G1 X129.421 Y111.319 E25.39601
G0 X128.856 Y111.319
G1 X118.679 Y101.143 E25.87468
G0 X118.679 Y101.708
G1 X128.29 Y111.319 E26.32675
G0 X127.724 Y111.319
G1 X118.679 Y102.274 E26.7522
G0 X118.679 Y102.84
G1 X127.159 Y111.319 E27.15105
G0 X126.593 Y111.319
G1 X118.679 Y103.405 E27.5233
G0 X118.679 Y103.971
G1 X126.027 Y111.319 E27.86893
G0 X125.461 Y111.319
G1 X118.679 Y104.537 E28.18793
G0 X118.679 Y105.102
G1 X124.896 Y111.319 E28.48036
G0 X124.33 Y111.319
G1 X118.679 Y105.668 E28.74616
G0 X118.679 Y106.234
G1 X123.764 Y111.319 E28.98535
G0 X123.199 Y111.319
G1 X118.679 Y106.799 E29.19795
G0 X118.679 Y107.365
G1 X122.633 Y111.319 E29.38394
G0 X122.067 Y111.319
G1 X118.679 Y107.931 E29.5433
G0 X118.679 Y108.497
G1 X121.502 Y111.319 E29.67606
G0 X120.936 Y111.319
G1 X118.679 Y109.062 E29.78222
G0 X118.679 Y109.628
G1 X120.37 Y111.319 E29.86176
G0 X119.805 Y111.319
G1 X118.679 Y110.194 E29.9147
G0 X118.679 Y110.759
G1 X119.239 Y111.319 E29.94104
M104 S200
G0 X119.239 Y111.3
;MESH:NONMESH
G0 X119.239 Y111.3 Z0.4
G0 X131.6 Y105
G0 X131.9 Y105
;TIME_ELAPSED:114.999920
;LAYER:1
M106 S255
;TYPE:WALL-INNER
;MESH:TestObject_Softangle.stl
