;FLAVOR:Marlin
;TIME:19019
;Filament used: 6.54386m
;Layer height: 0.2
;MINX:72.379
;MINY:39.679
;MINZ:0.2
;MAXX:178.988
;MAXY:153.914
;MAXZ:48.6
;Generated with Cura_SteamEngine 5.2.2
M82 ;absolute extrusion mode
G21 ; set units to millimeters
G90 ; use absolute positioning
M82 ; absolute extrusion mode
M104 S200 ; set extruder temp
M140 S60 ; set bed temp
M190 S60 ; wait for bed temp
M109 S200 ; wait for extruder temp
G28 W ; home all without mesh bed level
G80 ; mesh bed leveling
G92 E0.0 ; reset extruder distance position
G1 Y-3.0 F1000.0 ; go outside print area
G1 X60.0 E9.0 F1000.0 ; intro line
G1 X100.0 E21.5 F1000.0 ; intro line
G92 E0.0 ; reset extruder distance position
G92 E0
G92 E0
G1 F2100 E-0.8
;LAYER_COUNT:243
;LAYER:0
M107
M205 X20 Y20
G0 F600 X73.371 Y92.156 Z0.2
;TYPE:SKIRT
G1 F2100 E0
G1 F600 X73.87 Y91.764 E0.02111
G1 X74.891 Y91.114 E0.06136
G1 X77.187 Y89.607 E0.15271
G1 X79.434 Y88.039 E0.24384
G1 X81.618 Y86.423 E0.3342
G1 X83.767 Y84.735 E0.42509
G1 X85.901 Y82.959 E0.51743
G1 X87.925 Y81.176 E0.60715
G1 X89.954 Y79.284 E0.69942
G1 X91.882 Y77.382 E0.7895
G1 X93.775 Y75.406 E0.88051
G1 X95.636 Y73.349 E0.97277
G1 X97.389 Y71.298 E1.06251
G1 X99.11 Y69.165 E1.15367
G1 X100.793 Y66.954 E1.24609
G1 X102.364 Y64.762 E1.33578
G1 X103.907 Y62.478 E1.42746
G1 X105.364 Y60.185 E1.51782
G1 X106.777 Y57.815 E1.60959
G1 X108.11 Y55.425 E1.70061
G1 X109.387 Y52.979 E1.79239
G1 X110.566 Y50.553 E1.8821
G1 X111.699 Y48.045 E1.97363
G1 X112.765 Y45.493 E2.06562
G1 X113.763 Y42.903 E2.15794
G1 X114.179 Y41.779 E2.1978
G1 X114.391 Y41.32 E2.21462
G1 X114.673 Y40.9 E2.23144
G1 X115.018 Y40.53 E2.24827
G1 X115.416 Y40.219 E2.26507
G1 X115.859 Y39.975 E2.28189
G1 X116.334 Y39.803 E2.29869
G1 X117.161 Y39.679 E2.32651
G1 X131.511 Y39.679 E2.80379
G1 X132.21 Y39.689 E2.82704
G1 X132.713 Y39.736 E2.84384
G1 X133.203 Y39.862 E2.86067
G1 X133.667 Y40.064 E2.8775
G1 X134.093 Y40.336 E2.89431
G1 X134.471 Y40.671 E2.91111
G1 X134.791 Y41.062 E2.92792
G1 X135.046 Y41.499 E2.94475
G1 X135.234 Y41.988 E2.96217
G1 X135.393 Y42.528 E2.98089
G1 X135.868 Y44.241 E3.04002
G1 X136.666 Y46.838 E3.13038
G1 X137.552 Y49.45 E3.22212
G1 X138.502 Y52.016 E3.31312
G1 X139.527 Y54.556 E3.40422
G1 X140.618 Y57.056 E3.49495
G1 X141.792 Y59.551 E3.58666
G1 X143.024 Y61.986 E3.67742
G1 X144.319 Y64.379 E3.76792
G1 X145.705 Y66.772 E3.8599
G1 X147.11 Y69.05 E3.94892
G1 X148.657 Y71.405 E4.04263
G1 X150.196 Y73.608 E4.13202
G1 X151.836 Y75.822 E4.22366
G1 X153.518 Y77.963 E4.31421
G1 X155.293 Y80.093 E4.40643
G1 X157.074 Y82.111 E4.49595
G1 X158.97 Y84.144 E4.58841
G1 X160.854 Y86.052 E4.67759
G1 X162.868 Y87.978 E4.77028
G1 X164.903 Y89.818 E4.86153
G1 X166.961 Y91.575 E4.95153
G1 X169.107 Y93.306 E5.04323
G1 X171.288 Y94.962 E5.13431
G1 X173.521 Y96.563 E5.2257
G1 X175.764 Y98.077 E5.31571
G1 X176.984 Y98.851 E5.36376
G1 X177.533 Y99.211 E5.3856
G1 X177.932 Y99.521 E5.4024
G1 X178.278 Y99.89 E5.41923
G1 X178.561 Y100.308 E5.43602
G1 X178.775 Y100.766 E5.45283
G1 X178.914 Y101.252 E5.46964
G1 X178.988 Y101.893 E5.49111
G1 X178.988 Y116.19 E5.96663
G1 X178.978 Y116.919 E5.99087
G1 X178.931 Y117.422 E6.00768
G1 X178.805 Y117.912 E6.02451
G1 X178.604 Y118.376 E6.04132
G1 X178.333 Y118.802 E6.05812
G1 X177.997 Y119.181 E6.07496
G1 X177.606 Y119.501 E6.09177
G1 X177.016 Y119.826 E6.11417
G1 X176.29 Y120.131 E6.14036
G1 X173.725 Y121.248 E6.23341
G1 X171.301 Y122.387 E6.32249
G1 X168.824 Y123.637 E6.41477
G1 X166.414 Y124.941 E6.50591
G1 X164.051 Y126.307 E6.59669
G1 X161.73 Y127.738 E6.68738
G1 X159.441 Y129.239 E6.77842
G1 X157.149 Y130.838 E6.87137
G1 X154.999 Y132.429 E6.96033
G1 X152.822 Y134.138 E7.05239
G1 X150.746 Y135.865 E7.1422
G1 X148.671 Y137.694 E7.2342
G1 X146.655 Y139.571 E7.32582
G1 X144.746 Y141.455 E7.41502
G1 X142.82 Y143.465 E7.50761
G1 X140.975 Y145.504 E7.59907
G1 X139.219 Y147.559 E7.68898
G1 X137.489 Y149.7 E7.78053
G1 X135.8 Y151.921 E7.87333
G1 X135.293 Y152.607 E7.90171
G1 X134.962 Y152.989 E7.91852
G1 X134.574 Y153.313 E7.93533
G1 X134.14 Y153.573 E7.95216
G1 X133.671 Y153.761 E7.96896
G1 X133.177 Y153.872 E7.9858
G1 X132.706 Y153.913 E8.00153
G1 X118.387 Y153.914 E8.47778
G1 X117.686 Y153.904 E8.5011
G1 X117.183 Y153.857 E8.5179
G1 X116.693 Y153.731 E8.53473
G1 X116.23 Y153.529 E8.55153
G1 X115.803 Y153.257 E8.56837
G1 X115.425 Y152.922 E8.58517
G1 X115.049 Y152.463 E8.6049
G1 X114.276 Y151.081 E8.65757
G1 X112.909 Y148.718 E8.74837
G1 X111.465 Y146.378 E8.83982
G1 X109.961 Y144.088 E8.93094
G1 X108.406 Y141.859 E9.02134
G1 X106.763 Y139.641 E9.11315
G1 X105.088 Y137.508 E9.20335
G1 X103.311 Y135.373 E9.29574
G1 X101.531 Y133.354 E9.38526
G1 X99.636 Y131.322 E9.47767
G1 X97.753 Y129.413 E9.56686
G1 X95.715 Y127.464 E9.66065
G1 X93.723 Y125.661 E9.75001
G1 X91.629 Y123.873 E9.8416
G1 X89.517 Y122.169 E9.93185
G1 X87.328 Y120.504 E10.02333
G1 X85.105 Y118.91 E10.11431
G1 X82.821 Y117.368 E10.20597
G1 X80.526 Y115.912 E10.29636
G1 X78.152 Y114.497 E10.38829
G1 X75.802 Y113.186 E10.47779
G1 X74.802 Y112.663 E10.51532
G1 X74.064 Y112.263 E10.54324
G1 X73.64 Y111.988 E10.56005
G1 X73.265 Y111.649 E10.57686
G1 X72.947 Y111.256 E10.59368
G1 X72.696 Y110.817 E10.6105
G1 X72.517 Y110.345 E10.62729
G1 X72.414 Y109.85 E10.6441
G1 X72.379 Y109.127 E10.66818
G1 X72.379 Y95.118 E11.13412
G1 X72.389 Y94.417 E11.15744
G1 X72.436 Y93.914 E11.17424
G1 X72.562 Y93.424 E11.19107
G1 X72.764 Y92.961 E11.20787
G1 X73.036 Y92.534 E11.22471
G1 X73.371 Y92.156 E11.24151
G1 F2100 E10.44151
;MESH:TestObject_Softangle.stl
G0 F600 X75.993 Y93.792
G0 X75.993 Y94.871
G0 X76.449 Y95.327
G1 F2100 E11.24151
G0 F600 X76.179 Y95.057
;TYPE:WALL-INNER
G1 X76.179 Y108.857 E11.7005
G1 X89.979 Y108.857 E12.15949
G1 X89.979 Y95.057 E12.61848
G1 X76.179 Y95.057 E13.07747
G0 X76.449 Y95.327
G0 X90.109 Y94.927
G0 X90.379 Y94.657
;TYPE:WALL-OUTER
G1 X75.779 Y94.657 E13.56306
G1 X75.779 Y109.257 E14.04866
G1 X90.379 Y109.257 E14.53426
G1 X90.379 Y94.657 E15.01986
G0 X90.179 Y94.657
G0 X89.709 Y95.327
G0 X76.559 Y95.437
;TYPE:SKIN
G1 X76.559 Y108.477 E15.45357
G1 X89.599 Y108.477 E15.88728
G1 X89.599 Y95.437 E16.32099
G1 X76.559 Y95.437 E16.75471
G0 X89.399 Y96.187
G1 X88.847 Y95.636 E16.78065
G0 X88.282 Y95.636
G1 X89.399 Y96.753 E16.83319
G0 X89.399 Y97.319
G1 X87.716 Y95.636 E16.91235
G0 X87.15 Y95.636
G1 X89.399 Y97.884 E17.01811
G0 X89.399 Y98.45
G1 X86.585 Y95.636 E17.15048
G0 X86.019 Y95.636
G1 X89.399 Y99.016 E17.30946
G0 X89.399 Y99.581
G1 X85.453 Y95.636 E17.49504
G0 X84.888 Y95.636
G1 X89.399 Y100.147 E17.70723
G0 X89.399 Y100.713
G1 X84.322 Y95.636 E17.94603
G0 X83.756 Y95.636
G1 X89.399 Y101.278 E18.21144
G0 X89.399 Y101.844
G1 X83.191 Y95.636 E18.50345
G0 X82.625 Y95.636
G1 X89.399 Y102.41 E18.82207
G0 X89.399 Y102.975
G1 X82.059 Y95.636 E19.1673
G0 X81.494 Y95.636
G1 X89.399 Y103.541 E19.53913
G0 X89.399 Y104.107
G1 X80.928 Y95.636 E19.93758
G0 X80.362 Y95.636
G1 X89.399 Y104.673 E20.36265
G0 X89.399 Y105.238
G1 X79.797 Y95.636 E20.8143
G0 X79.231 Y95.636
G1 X89.399 Y105.804 E21.29257
G0 X89.399 Y106.37
G1 X78.665 Y95.636 E21.79747
G0 X78.099 Y95.636
G1 X89.399 Y106.935 E22.32896
G0 X89.399 Y107.501
G1 X77.534 Y95.636 E22.88705
G0 X76.968 Y95.636
G1 X89.399 Y108.067 E23.47177
G0 X89.043 Y108.276
G1 X76.759 Y95.992 E24.04957
G0 X76.759 Y96.558
G1 X88.477 Y108.276 E24.60075
G0 X87.911 Y108.276
G1 X76.759 Y97.123 E25.12533
G0 X76.759 Y97.689
G1 X87.346 Y108.276 E25.62331
G0 X86.78 Y108.276
G1 X76.759 Y98.255 E26.09467
G0 X76.759 Y98.821
G1 X86.214 Y108.276 E26.5394
G0 X85.649 Y108.276
G1 X76.759 Y99.386 E26.95756
G0 X76.759 Y99.952
G1 X85.083 Y108.276 E27.34909
G0 X84.517 Y108.276
G1 X76.759 Y100.518 E27.71401
G0 X76.759 Y101.083
G1 X83.951 Y108.276 E28.05232
G0 X83.386 Y108.276
G1 X76.759 Y101.649 E28.36403
G0 X76.759 Y102.215
G1 X82.82 Y108.276 E28.64912
G0 X82.254 Y108.276
G1 X76.759 Y102.78 E28.90762
G0 X76.759 Y103.346
G1 X81.689 Y108.276 E29.13951
G0 X81.123 Y108.276
G1 X76.759 Y103.912 E29.34478
G0 X76.759 Y104.477
G1 X80.557 Y108.276 E29.52345
G0 X79.992 Y108.276
G1 X76.759 Y105.043 E29.67552
G0 X76.759 Y105.609
G1 X79.426 Y108.276 E29.80096
G0 X78.86 Y108.276
G1 X76.759 Y106.174 E29.89981
G0 X76.759 Y106.74
G1 X78.295 Y108.276 E29.97206
G0 X77.729 Y108.276
G1 X76.759 Y107.306 E30.01769
G0 X76.759 Y107.871
G1 X77.163 Y108.276 E30.03671
G0 X77.163 Y108.257
G1 F2100 E29.23671
;MESH:TestObject_Softangle.stl(2)
G0 F600 X90.165 Y109.043
G0 X91.244 Y109.043
G0 X118.14 Y135.049
G0 X118.14 Y136.128
G0 X118.596 Y149.844
G1 F2100 E30.03671
G0 F600 X118.326 Y150.114
;TYPE:WALL-INNER
G1 X132.126 Y150.114 E30.4957
G1 X132.126 Y136.314 E30.95469
G1 X118.326 Y136.314 E31.41368
G1 X118.326 Y150.114 E31.87267
G0 X118.596 Y149.844
G0 X132.256 Y136.184
G0 X132.526 Y135.914
;TYPE:WALL-OUTER
G1 X117.926 Y135.914 E32.35827
G1 X117.926 Y150.514 E32.84387
G1 X132.526 Y150.514 E33.32947
G1 X132.526 Y135.914 E33.81507
G0 X132.326 Y135.914
G0 X131.856 Y136.584
G0 X131.746 Y149.734
;TYPE:SKIN
G1 X131.746 Y136.694 E34.24878
G1 X118.706 Y136.694 E34.68249
G1 X118.706 Y149.734 E35.1162
G1 X131.746 Y149.734 E35.54991
G0 X131.545 Y137.202
G1 X131.236 Y136.893 E35.56445
G0 X130.67 Y136.893
G1 X131.545 Y137.768 E35.60561
G0 X131.545 Y138.334
G1 X130.104 Y136.893 E35.67339
G0 X129.539 Y136.893
G1 X131.545 Y138.899 E35.76774
G0 X131.545 Y139.465
G1 X128.973 Y136.893 E35.88872
G0 X128.407 Y136.893
G1 X131.545 Y140.031 E36.03632
G0 X131.545 Y140.596
G1 X127.842 Y136.893 E36.2105
G0 X127.276 Y136.893
G1 X131.545 Y141.162 E36.4113
G0 X131.545 Y141.728
G1 X126.71 Y136.893 E36.63872
G0 X126.145 Y136.893
G1 X131.545 Y142.293 E36.89272
G0 X131.545 Y142.859
G1 X125.579 Y136.893 E37.17335
G0 X125.013 Y136.893
G1 X131.545 Y143.425 E37.48059
G0 X131.545 Y143.99
G1 X124.447 Y136.893 E37.81444
G0 X123.882 Y136.893
G1 X131.545 Y144.556 E38.17488
G0 X131.545 Y145.122
G1 X123.316 Y136.893 E38.56195
G0 X122.75 Y136.893
G1 X131.545 Y145.688 E38.97564
G0 X131.545 Y146.253
G1 X122.185 Y136.893 E39.4159
G0 X121.619 Y136.893
G1 X131.545 Y146.819 E39.88279
G0 X131.545 Y147.385
G1 X121.053 Y136.893 E40.3763
G0 X120.488 Y136.893
G1 X131.545 Y147.95 E40.89639
G0 X131.545 Y148.516
G1 X119.922 Y136.893 E41.4431
G0 X119.356 Y136.893
G1 X131.545 Y149.082 E42.01643
G0 X131.431 Y149.533
G1 X118.905 Y137.007 E42.60562
G0 X118.905 Y137.573
G1 X130.865 Y149.533 E43.16818
G0 X130.299 Y149.533
G1 X118.905 Y138.138 E43.70414
G0 X118.905 Y138.704
G1 X129.734 Y149.533 E44.21351
G0 X129.168 Y149.533
G1 X118.905 Y139.27 E44.69625
G0 X118.905 Y139.836
G1 X128.602 Y149.533 E45.15236
G0 X128.037 Y149.533
G1 X118.905 Y140.401 E45.5819
G0 X118.905 Y140.967
G1 X127.471 Y149.533 E45.98482
G0 X126.905 Y149.533
G1 X118.905 Y141.533 E46.36112
G0 X118.905 Y142.098
G1 X126.34 Y149.533 E46.71084
G0 X125.774 Y149.533
G1 X118.905 Y142.664 E47.03393
G0 X118.905 Y143.23
G1 X125.208 Y149.533 E47.33041
G0 X124.643 Y149.533
G1 X118.905 Y143.795 E47.60031
G0 X118.905 Y144.361
G1 X124.077 Y149.533 E47.84358
G0 X123.511 Y149.533
G1 X118.905 Y144.927 E48.06023
G0 X118.905 Y145.492
G1 X122.946 Y149.533 E48.25031
G0 X122.38 Y149.533
G1 X118.905 Y146.058 E48.41376
G0 X118.905 Y146.624
G1 X121.814 Y149.533 E48.55059
G0 X121.249 Y149.533
G1 X118.905 Y147.189 E48.66085
G0 X118.905 Y147.755
G1 X120.683 Y149.533 E48.74448
G0 X120.117 Y149.533
G1 X118.905 Y148.321 E48.80149
G0 X118.905 Y148.886
G1 X119.551 Y149.533 E48.8319
G0 X118.986 Y149.533
G1 X118.905 Y149.452 E48.83571
G0 X118.926 Y149.452
G1 F2100 E48.03571
;MESH:TestObject_Softangle.stl(3)
G0 F600 X132.312 Y136.128
G0 X133.391 Y136.128
G0 X160.123 Y116.468
G0 X161.202 Y116.468
G0 X161.658 Y102.752
G1 F2100 E48.83571
G0 F600 X161.388 Y102.482
;TYPE:WALL-INNER
G1 X161.388 Y116.282 E49.2947
G1 X175.188 Y116.282 E49.75369
G1 X175.188 Y102.482 E50.21268
G1 X161.388 Y102.482 E50.67167
G0 X161.658 Y102.752
G0 X175.318 Y102.352
G0 X175.588 Y102.082
;TYPE:WALL-OUTER
G1 X160.988 Y102.082 E51.15726
G1 X160.988 Y116.682 E51.64286
G1 X175.588 Y116.682 E52.12846
G1 X175.588 Y102.082 E52.61406
G0 X175.388 Y102.082
G0 X174.918 Y102.752
G0 X161.768 Y102.862
;TYPE:SKIN
G1 X161.768 Y115.902 E53.04777
G1 X174.808 Y115.902 E53.48148
G1 X174.808 Y102.862 E53.9152
G1 X161.768 Y102.862 E54.34891
G0 X174.607 Y103.33
G1 X174.338 Y103.062 E54.36154
G0 X173.772 Y103.062
G1 X174.607 Y103.896 E54.40079
G0 X174.607 Y104.462
G1 X173.207 Y103.062 E54.46664
G0 X172.641 Y103.062
G1 X174.607 Y105.027 E54.55909
G0 X174.607 Y105.593
G1 X172.075 Y103.062 E54.67817
G0 X171.51 Y103.062
G1 X174.607 Y106.159 E54.82384
G0 X174.607 Y106.725
G1 X170.944 Y103.062 E54.99614
G0 X170.378 Y103.062
G1 X174.607 Y107.29 E55.19503
G0 X174.607 Y107.856
G1 X169.813 Y103.062 E55.42053
G0 X169.247 Y103.062
G1 X174.607 Y108.422 E55.67264
G0 X174.607 Y108.987
G1 X168.681 Y103.062 E55.95136
G0 X168.116 Y103.062
G1 X174.607 Y109.553 E56.25668
G0 X174.607 Y110.119
G1 X167.55 Y103.062 E56.58862
G0 X166.984 Y103.062
G1 X174.607 Y110.684 E56.94716
G0 X174.607 Y111.25
G1 X166.418 Y103.062 E57.33232
G0 X165.853 Y103.062
G1 X174.607 Y111.816 E57.74408
G0 X174.607 Y112.381
G1 X165.287 Y103.062 E58.18244
G0 X164.721 Y103.062
G1 X174.607 Y112.947 E58.64742
G0 X174.607 Y113.513
G1 X164.156 Y103.062 E59.13901
G0 X163.59 Y103.062
G1 X174.607 Y114.078 E59.65719
G0 X174.607 Y114.644
G1 X163.024 Y103.062 E60.202
G0 X162.459 Y103.062
G1 X174.607 Y115.21 E60.7734
G0 X174.533 Y115.701
G1 X161.967 Y103.135 E61.36447
G0 X161.967 Y103.701
G1 X173.967 Y115.701 E61.92891
G0 X173.401 Y115.701
G1 X161.967 Y104.267 E62.46673
G0 X161.967 Y104.832
G1 X172.835 Y115.701 E62.97795
G0 X172.27 Y115.701
G1 X161.967 Y105.398 E63.46257
G0 X161.967 Y105.964
G1 X171.704 Y115.701 E63.92057
G0 X171.138 Y115.701
G1 X161.967 Y106.529 E64.35197
G0 X161.967 Y107.095
G1 X170.573 Y115.701 E64.75677
G0 X170.007 Y115.701
G1 X161.967 Y107.661 E65.13495
G0 X161.967 Y108.226
G1 X169.441 Y115.701 E65.48652
G0 X168.876 Y115.701
G1 X161.967 Y108.792 E65.8115
G0 X161.967 Y109.358
G1 X168.31 Y115.701 E66.10986
G0 X167.744 Y115.701
G1 X161.967 Y109.923 E66.38161
G0 X161.967 Y110.489
G1 X167.179 Y115.701 E66.62677
G0 X166.613 Y115.701
G1 X161.967 Y111.055 E66.8453
G0 X161.967 Y111.621
G1 X166.047 Y115.701 E67.03721
G0 X165.482 Y115.701
G1 X161.967 Y112.186 E67.20255
G0 X161.967 Y112.752
G1 X164.916 Y115.701 E67.34126
G0 X164.35 Y115.701
G1 X161.967 Y113.318 E67.45335
G0 X161.967 Y113.883
G1 X163.785 Y115.701 E67.53886
G0 X163.219 Y115.701
G1 X161.967 Y114.449 E67.59775
G0 X161.967 Y115.015
G1 X162.653 Y115.701 E67.63002
G0 X162.087 Y115.701
G1 X161.967 Y115.58 E67.63569
G0 X161.988 Y115.58
G1 F2100 E66.83569
;MESH:TestObject_Softangle.stl(1)
G0 F600 X161.202 Y102.296
G0 X161.202 Y101.217
G0 X131.758 Y58.544
G0 X131.758 Y57.465
G0 X131.302 Y57.009
G1 F2100 E67.63569
G0 F600 X131.572 Y57.279
;TYPE:WALL-INNER
G1 X131.572 Y43.479 E68.09468
G1 X117.772 Y43.479 E68.55367
G1 X117.772 Y57.279 E69.01266
G1 X131.572 Y57.279 E69.47165
G0 X131.972 Y57.679
;TYPE:WALL-OUTER
G1 X131.972 Y43.079 E69.95725
G1 X117.372 Y43.079 E70.44284
G1 X117.372 Y57.679 E70.92844
G1 X131.972 Y57.679 E71.41404
G0 X131.972 Y57.479
G0 X131.302 Y57.009
G0 X131.192 Y43.859
;TYPE:SKIN
G1 X118.152 Y43.859 E71.84775
G1 X118.152 Y56.899 E72.28146
G1 X131.192 Y56.899 E72.71518
G1 X131.192 Y43.859 E73.14889
G0 X130.991 Y44.441
G1 X130.608 Y44.059 E73.16688
G0 X130.043 Y44.059
G1 X130.991 Y45.007 E73.21147
G0 X130.991 Y45.573
G1 X129.477 Y44.059 E73.28269
G0 X128.911 Y44.059
G1 X130.991 Y46.138 E73.3805
G0 X130.991 Y46.704
G1 X128.346 Y44.059 E73.50491
G0 X127.78 Y44.059
G1 X130.991 Y47.27 E73.65595
G0 X130.991 Y47.835
G1 X127.214 Y44.059 E73.83358
G0 X126.649 Y44.059
G1 X130.991 Y48.401 E74.03782
G0 X130.991 Y48.967
G1 X126.083 Y44.059 E74.26867
G0 X125.517 Y44.059
G1 X130.991 Y49.532 E74.52613
G0 X130.991 Y50.098
G1 X124.952 Y44.059 E74.81019
G0 X124.386 Y44.059
G1 X130.991 Y50.664 E75.12087
G0 X130.991 Y51.229
G1 X123.82 Y44.059 E75.45814
G0 X123.255 Y44.059
G1 X130.991 Y51.795 E75.82202
G0 X130.991 Y52.361
G1 X122.689 Y44.059 E76.21252
G0 X122.123 Y44.059
G1 X130.991 Y52.926 E76.62962
G0 X130.991 Y53.492
