;FLAVOR:Marlin
;TIME:2252
;Filament used: 1.84475m
;Layer height: 0.2
;MINX:111.013
;MINY:91.001
;MINZ:0.2
;MAXX:138.987
;MAXY:118.999
;MAXZ:40
;Generated with Cura_SteamEngine 5.2.2
M82 ;absolute extrusion mode
G21 ; set units to millimeters
G90 ; use absolute positioning
M82 ; absolute extrusion mode
M104 S200 ; set extruder temp
M140 S60 ; set bed temp
M190 S60 ; wait for bed temp
M109 S200 ; wait for extruder temp
G28 W ; home all without mesh bed level
G80 ; mesh bed leveling
G92 E0.0 ; reset extruder distance position
G1 Y-3.0 F1000.0 ; go outside print area
G1 X60.0 E9.0 F1000.0 ; intro line
G1 X100.0 E21.5 F1000.0 ; intro line
G92 E0.0 ; reset extruder distance position
M83 ;relative extrusion mode
G1 F2100 E-0.8
;LAYER_COUNT:200
;LAYER:0
M107
G0 F3600 X114.33 Y95.952 Z0.2
;TYPE:SKIRT
G1 F2100 E0.8
G1 F1200 X114.82 Y95.411 E0.02428
G1 X115.264 Y94.958 E0.0211
G1 X115.855 Y94.415 E0.02669
G1 X116.367 Y93.972 E0.02252
G1 X116.804 Y93.658 E0.0179
G1 X117.613 Y93.118 E0.03235
G1 X118.184 Y92.788 E0.02194
G1 X118.818 Y92.453 E0.02385
G1 X119.37 Y92.198 E0.02022
G1 X119.932 Y91.963 E0.02026
G1 X120.568 Y91.735 E0.02247
G1 X121.118 Y91.563 E0.01917
G1 X121.613 Y91.432 E0.01703
G1 X122.297 Y91.278 E0.02332
G1 X122.998 Y91.158 E0.02365
G1 X123.527 Y91.091 E0.01774
G1 X124.611 Y91.002 E0.03618
G1 X125.172 Y91.001 E0.01866
G1 X125.742 Y91.028 E0.01898
G1 X126.386 Y91.081 E0.02149
G1 X127.289 Y91.203 E0.03031
G1 X127.878 Y91.311 E0.01992
G1 X128.473 Y91.452 E0.02034
G1 X129.006 Y91.599 E0.01839
G1 X129.579 Y91.786 E0.02005
G1 X130.223 Y92.024 E0.02284
G1 X130.711 Y92.233 E0.01766
G1 X131.306 Y92.515 E0.0219
G1 X131.831 Y92.797 E0.01982
G1 X132.433 Y93.152 E0.02324
G1 X133.02 Y93.54 E0.0234
G1 X133.648 Y93.981 E0.02552
G1 X134.22 Y94.478 E0.0252
G1 X134.662 Y94.885 E0.01998
G1 X135.221 Y95.456 E0.02658
G1 X135.666 Y95.953 E0.02219
G1 X136.096 Y96.484 E0.02273
G1 X136.596 Y97.141 E0.02746
G1 X137.06 Y97.909 E0.02984
G1 X137.431 Y98.565 E0.02507
G1 X137.747 Y99.226 E0.02437
G1 X138.104 Y100.096 E0.03128
G1 X138.321 Y100.741 E0.02263
G1 X138.517 Y101.404 E0.02299
G1 X138.676 Y102.07 E0.02277
G1 X138.78 Y102.602 E0.01803
G1 X138.878 Y103.266 E0.02232
G1 X138.94 Y103.849 E0.0195
G1 X138.976 Y104.486 E0.02122
G1 X138.987 Y105.079 E0.01973
G1 X138.967 Y105.719 E0.0213
G1 X138.927 Y106.288 E0.01897
G1 X138.841 Y107.011 E0.02422
G1 X138.753 Y107.549 E0.01813
G1 X138.651 Y108.039 E0.01665
G1 X138.482 Y108.722 E0.0234
G1 X138.31 Y109.291 E0.01977
G1 X138.083 Y109.949 E0.02315
G1 X137.814 Y110.61 E0.02374
G1 X137.513 Y111.296 E0.02492
G1 X137.028 Y112.147 E0.03258
G1 X136.669 Y112.733 E0.02286
G1 X136.24 Y113.336 E0.02461
G1 X135.67 Y114.049 E0.03036
G1 X135.18 Y114.589 E0.02425
G1 X134.735 Y115.043 E0.02114
G1 X134.243 Y115.497 E0.02227
G1 X133.628 Y116.032 E0.02711
G1 X133.196 Y116.342 E0.01769
G1 X132.387 Y116.882 E0.03235
G1 X131.816 Y117.212 E0.02194
G1 X131.182 Y117.547 E0.02385
G1 X130.63 Y117.802 E0.02022
G1 X130.068 Y118.037 E0.02026
G1 X129.432 Y118.265 E0.02247
G1 X128.882 Y118.437 E0.01917
G1 X128.387 Y118.568 E0.01703
G1 X127.703 Y118.722 E0.02332
G1 X127.002 Y118.842 E0.02365
G1 X126.473 Y118.909 E0.01774
G1 X125.385 Y118.998 E0.03631
G1 X124.64 Y118.999 E0.02478
G1 X123.5 Y118.909 E0.03803
G1 X122.711 Y118.797 E0.02651
G1 X122.122 Y118.689 E0.01992
G1 X121.527 Y118.548 E0.02034
G1 X120.994 Y118.401 E0.01839
G1 X120.421 Y118.214 E0.02005
G1 X119.777 Y117.976 E0.02284
G1 X119.289 Y117.767 E0.01766
G1 X118.694 Y117.485 E0.0219
G1 X118.169 Y117.203 E0.01982
G1 X117.563 Y116.846 E0.02339
G1 X116.98 Y116.46 E0.02326
G1 X116.352 Y116.019 E0.02552
G1 X115.78 Y115.522 E0.0252
G1 X115.338 Y115.115 E0.01998
G1 X114.779 Y114.544 E0.02658
G1 X114.334 Y114.047 E0.02219
G1 X113.904 Y113.516 E0.02273
G1 X113.402 Y112.856 E0.02758
G1 X112.941 Y112.092 E0.02968
G1 X112.407 Y111.148 E0.03607
G1 X111.892 Y109.895 E0.04506
G1 X111.678 Y109.256 E0.02241
G1 X111.483 Y108.596 E0.02289
G1 X111.352 Y108.055 E0.01851
G1 X111.22 Y107.399 E0.02226
G1 X111.118 Y106.704 E0.02336
G1 X111.06 Y106.152 E0.01846
G1 X111.028 Y105.616 E0.01786
G1 X111.013 Y104.921 E0.02312
G1 X111.033 Y104.281 E0.0213
G1 X111.073 Y103.707 E0.01914
G1 X111.177 Y102.825 E0.02954
G1 X111.349 Y101.961 E0.0293
G1 X111.519 Y101.274 E0.02354
G1 X111.697 Y100.687 E0.0204
G1 X111.868 Y100.173 E0.01802
G1 X112.185 Y99.391 E0.02807
G1 X112.479 Y98.721 E0.02434
G1 X112.906 Y97.968 E0.02879
G1 X113.304 Y97.31 E0.02558
G1 X113.75 Y96.677 E0.02575
G1 X114.33 Y95.952 E0.03088
G0 F3600 X114.634 Y96.211
G1 F1200 X115.363 Y95.411 E0.036
G1 X116.117 Y94.718 E0.03406
G1 X116.732 Y94.186 E0.02705
G1 X117.807 Y93.469 E0.04298
G1 X118.478 Y93.083 E0.02575
G1 X118.987 Y92.815 E0.01913
G1 X119.441 Y92.604 E0.01665
G1 X120.068 Y92.339 E0.02264
G1 X120.583 Y92.153 E0.01821
G1 X121.22 Y91.95 E0.02224
G1 X121.818 Y91.793 E0.02056
G1 X122.365 Y91.672 E0.01863
G1 X122.937 Y91.573 E0.01931
G1 X123.56 Y91.489 E0.02091
G1 X124.22 Y91.434 E0.02203
G1 X124.994 Y91.392 E0.02578
G1 X125.709 Y91.427 E0.02381
G1 X126.353 Y91.48 E0.02149
G1 X127.222 Y91.597 E0.02916
G1 X127.992 Y91.737 E0.02603
G1 X128.882 Y91.98 E0.03069
G1 X129.561 Y92.203 E0.02377
G1 X130.065 Y92.392 E0.0179
G1 X130.553 Y92.601 E0.01766
G1 X131.117 Y92.868 E0.02075
G1 X131.75 Y93.21 E0.02393
G1 X132.213 Y93.486 E0.01793
G1 X132.698 Y93.805 E0.01931
G1 X133.398 Y94.295 E0.02842
G1 X133.949 Y94.773 E0.02426
G1 X134.546 Y95.331 E0.02718
G1 X135.004 Y95.809 E0.02202
G1 X135.355 Y96.204 E0.01758
G1 X135.785 Y96.735 E0.02273
G1 X136.262 Y97.362 E0.0262
G1 X136.712 Y98.106 E0.02892
G1 X137.164 Y98.905 E0.03053
G1 X137.377 Y99.378 E0.01725
G1 X137.729 Y100.236 E0.03085
G1 X137.942 Y100.869 E0.02221
G1 X138.128 Y101.498 E0.02182
G1 X138.259 Y102.04 E0.01855
G1 X138.385 Y102.661 E0.02108
G1 X138.467 Y103.21 E0.01846
G1 X138.541 Y103.873 E0.02219
G1 X138.572 Y104.4 E0.01756
G1 X138.588 Y105.068 E0.02222
G1 X138.564 Y105.886 E0.02722
G1 X138.434 Y107.089 E0.04024
G1 X138.235 Y108.066 E0.03316
G1 X138.099 Y108.607 E0.01855
G1 X137.927 Y109.176 E0.01977
G1 X137.713 Y109.799 E0.02191
G1 X137.448 Y110.45 E0.02338
G1 X137.162 Y111.103 E0.02371
G1 X136.687 Y111.938 E0.03195
G1 X136.243 Y112.663 E0.02828
G1 X135.835 Y113.206 E0.02259
G1 X135.292 Y113.87 E0.02853
G1 X134.64 Y114.585 E0.03218
G1 X133.971 Y115.203 E0.03029
G1 X133.274 Y115.81 E0.03074
G1 X132.193 Y116.531 E0.04322
G1 X131.522 Y116.917 E0.02575
G1 X131.013 Y117.185 E0.01913
G1 X130.559 Y117.396 E0.01665
G1 X129.932 Y117.661 E0.02264
G1 X129.417 Y117.847 E0.01821
G1 X128.78 Y118.05 E0.02224
G1 X128.182 Y118.207 E0.02056
G1 X127.635 Y118.328 E0.01863
G1 X127.063 Y118.427 E0.01931
G1 X126.44 Y118.511 E0.02091
G1 X125.78 Y118.566 E0.02203
G1 X125.177 Y118.598 E0.02008
G1 X124.426 Y118.582 E0.02498
G1 X123.646 Y118.52 E0.02602
G1 X122.778 Y118.403 E0.02913
G1 X122.008 Y118.263 E0.02603
G1 X121.118 Y118.02 E0.03069
G1 X120.439 Y117.797 E0.02377
G1 X119.935 Y117.608 E0.0179
G1 X119.447 Y117.399 E0.01766
G1 X118.883 Y117.132 E0.02075
G1 X118.358 Y116.85 E0.01982
G1 X117.783 Y116.512 E0.02218
G1 X117.3 Y116.194 E0.01923
G1 X116.601 Y115.704 E0.02839
G1 X116.051 Y115.227 E0.02421
G1 X115.454 Y114.669 E0.02718
G1 X114.996 Y114.191 E0.02202
G1 X114.645 Y113.796 E0.01758
G1 X114.215 Y113.265 E0.02273
G1 X113.736 Y112.635 E0.02632
G1 X113.289 Y111.895 E0.02875
G1 X112.916 Y111.236 E0.02519
G1 X112.616 Y110.605 E0.02324
G1 X112.27 Y109.761 E0.03034
G1 X112.026 Y109.029 E0.02566
G1 X111.872 Y108.502 E0.01826
G1 X111.741 Y107.961 E0.01851
G1 X111.616 Y107.34 E0.02107
G1 X111.515 Y106.657 E0.02296
G1 X111.459 Y106.129 E0.01766
G1 X111.427 Y105.593 E0.01786
G1 X111.412 Y104.932 E0.02199
G1 X111.436 Y104.105 E0.02752
G1 X111.558 Y103.031 E0.03595
G1 X111.639 Y102.532 E0.01681
G1 X111.765 Y101.934 E0.02033
G1 X111.902 Y101.39 E0.01866
G1 X112.112 Y100.703 E0.02389
G1 X112.287 Y100.201 E0.01768
G1 X112.511 Y99.647 E0.01988
G1 X112.836 Y98.903 E0.027
G1 X113.254 Y98.166 E0.02818
G1 X113.646 Y97.517 E0.02522
G1 X114.072 Y96.914 E0.02456
G1 X114.634 Y96.211 E0.02994
G0 F3600 X114.883 Y96.541
G1 F1200 X115.412 Y95.949 E0.02641
G1 X115.807 Y95.546 E0.01877
G1 X116.379 Y95.02 E0.02585
G1 X116.967 Y94.51 E0.02589
G1 X117.939 Y93.862 E0.03885
G1 X118.585 Y93.481 E0.02494
G1 X119.155 Y93.178 E0.02147
G1 X119.609 Y92.967 E0.01665
G1 X120.204 Y92.715 E0.02149
G1 X120.719 Y92.529 E0.01821
G1 X121.322 Y92.336 E0.02106
G1 X121.817 Y92.205 E0.01703
G1 X122.433 Y92.066 E0.021
G1 X123.005 Y91.967 E0.01931
G1 X123.593 Y91.888 E0.01973
G1 X124.698 Y91.798 E0.03687
G1 X125.553 Y91.818 E0.02845
G1 X126.32 Y91.879 E0.02559
G1 X127.345 Y92.015 E0.03439
G1 X128.269 Y92.225 E0.03152
G1 X128.758 Y92.36 E0.01687
G1 X129.425 Y92.579 E0.02335
G1 X129.908 Y92.759 E0.01714
G1 X130.396 Y92.968 E0.01766
G1 X130.927 Y93.22 E0.01955
G1 X131.549 Y93.556 E0.02351
G1 X131.993 Y93.82 E0.01718
G1 X132.478 Y94.139 E0.01931
G1 X133.15 Y94.609 E0.02728
G1 X133.678 Y95.067 E0.02325
G1 X134.12 Y95.474 E0.01998
G1 X134.708 Y96.078 E0.02804
G1 X135.044 Y96.456 E0.01682
G1 X135.474 Y96.987 E0.02273
G1 X135.935 Y97.594 E0.02535
G1 X136.313 Y98.216 E0.02421
G1 X136.875 Y99.209 E0.03795
G1 X137.351 Y100.368 E0.04167
G1 X137.663 Y101.297 E0.03259
G1 X137.952 Y102.474 E0.04031
G1 X138.071 Y103.269 E0.02674
G1 X138.141 Y103.896 E0.02098
G1 X138.176 Y104.511 E0.02049
G1 X138.188 Y105.056 E0.01813
G1 X138.169 Y105.672 E0.0205
G1 X138.133 Y106.195 E0.01744
G1 X138.033 Y107.054 E0.02876
G1 X137.868 Y107.876 E0.02789
G1 X137.716 Y108.491 E0.02107
G1 X137.515 Y109.152 E0.02298
G1 X137.342 Y109.65 E0.01753
G1 X137.118 Y110.204 E0.01988
G1 X136.805 Y110.92 E0.02599
G1 X136.346 Y111.729 E0.03094
G1 X135.987 Y112.315 E0.02286
G1 X135.598 Y112.859 E0.02224
G1 X135.117 Y113.459 E0.02558
G1 X134.588 Y114.051 E0.02641
G1 X134.192 Y114.455 E0.01882
G1 X133.7 Y114.909 E0.02227
G1 X133.242 Y115.308 E0.0202
G1 X132.752 Y115.677 E0.0204
G1 X132.061 Y116.138 E0.02763
G1 X131.415 Y116.519 E0.02494
G1 X130.845 Y116.822 E0.02147
G1 X130.391 Y117.033 E0.01665
G1 X129.796 Y117.285 E0.02149
G1 X129.281 Y117.471 E0.01821
G1 X128.678 Y117.664 E0.02106
G1 X128.183 Y117.795 E0.01703
G1 X127.567 Y117.934 E0.021
G1 X126.995 Y118.033 E0.01931
G1 X126.407 Y118.112 E0.01973
G1 X125.297 Y118.202 E0.03704
G1 X124.444 Y118.182 E0.02838
G1 X123.679 Y118.121 E0.02552
G1 X122.654 Y117.985 E0.03439
G1 X121.731 Y117.775 E0.03148
G1 X121.242 Y117.64 E0.01687
G1 X120.575 Y117.421 E0.02335
G1 X120.092 Y117.241 E0.01714
G1 X119.604 Y117.032 E0.01766
G1 X119.073 Y116.78 E0.01955
G1 X118.452 Y116.445 E0.02347
G1 X118.003 Y116.178 E0.01737
G1 X117.52 Y115.86 E0.01923
G1 X116.849 Y115.39 E0.02725
G1 X116.322 Y114.933 E0.0232
G1 X115.88 Y114.526 E0.01998
G1 X115.292 Y113.922 E0.02804
G1 X114.956 Y113.544 E0.01682
G1 X114.526 Y113.013 E0.02273
G1 X114.068 Y112.409 E0.02521
G1 X113.637 Y111.698 E0.02765
G1 X113.264 Y111.039 E0.02519
G1 X113.036 Y110.57 E0.01734
G1 X112.645 Y109.624 E0.03405
G1 X112.437 Y109.002 E0.02181
G1 X112.261 Y108.408 E0.02061
G1 X112.045 Y107.51 E0.03072
G1 X111.926 Y106.713 E0.0268
G1 X111.859 Y106.105 E0.02034
G1 X111.822 Y105.472 E0.02109
G1 X111.812 Y104.944 E0.01756
G1 X111.831 Y104.328 E0.0205
G1 X111.868 Y103.8 E0.0176
G1 X111.983 Y102.838 E0.03222
G1 X112.132 Y102.124 E0.02426
G1 X112.285 Y101.506 E0.02118
G1 X112.491 Y100.83 E0.0235
G1 X112.658 Y100.35 E0.0169
G1 X112.882 Y99.796 E0.01988
G1 X113.194 Y99.082 E0.02592
G1 X113.602 Y98.363 E0.0275
G1 X113.988 Y97.725 E0.0248
G1 X114.394 Y97.152 E0.02336
G1 X114.883 Y96.541 E0.02603
G1 F2100 E-0.8
;MESH:20x40_Cylinder.stl
G0 F3600 X119.367 Y95.947
G0 X119.976 Y96.843
G0 X126.008 Y95.956
G1 F2100 E0.8
G0 F3600 X126.041 Y95.658
;TYPE:WALL-INNER
G1 F1200 X125.003 Y95.589 E0.03287
G1 X123.972 Y95.658 E0.03265
G1 X123.148 Y95.786 E0.02635
G1 X122.352 Y95.984 E0.02592
G1 X121.552 Y96.257 E0.02671
G1 X120.791 Y96.596 E0.02632
G1 X120.068 Y96.999 E0.02615
G1 X119.206 Y97.585 E0.03293
G1 X118.435 Y98.275 E0.03269
G1 X117.864 Y98.884 E0.02638
G1 X117.223 Y99.704 E0.03289
G1 X116.588 Y100.78 E0.03948
G1 X116.185 Y101.736 E0.03278
G1 X115.932 Y102.525 E0.02618
G1 X115.749 Y103.339 E0.02636
G1 X115.638 Y104.165 E0.02633
G1 X115.601 Y104.995 E0.02625
G1 X115.638 Y105.828 E0.02635
G1 X115.747 Y106.65 E0.0262
G1 X115.93 Y107.463 E0.02633
G1 X116.181 Y108.253 E0.02619
G1 X116.581 Y109.206 E0.03266
G1 X117.215 Y110.284 E0.03952
G1 X117.853 Y111.103 E0.0328
G1 X118.424 Y111.716 E0.02647
G1 X119.194 Y112.406 E0.03267
G1 X120.059 Y112.995 E0.03307
G1 X120.783 Y113.401 E0.02623
G1 X121.541 Y113.738 E0.02621
G1 X122.329 Y114.011 E0.02635
G1 X123.139 Y114.212 E0.02637
G1 X123.959 Y114.342 E0.02623
G1 X124.997 Y114.411 E0.03287
G1 X126.028 Y114.342 E0.03265
G1 X126.852 Y114.214 E0.02635
G1 X127.648 Y114.016 E0.02592
G1 X128.448 Y113.743 E0.02671
G1 X129.209 Y113.404 E0.02632
G1 X129.932 Y113.001 E0.02615
G1 X130.794 Y112.415 E0.03293
G1 X131.565 Y111.725 E0.03269
G1 X132.136 Y111.116 E0.02638
G1 X132.777 Y110.296 E0.03289
G1 X133.412 Y109.22 E0.03948
G1 X133.815 Y108.264 E0.03278
G1 X134.068 Y107.475 E0.02618
G1 X134.251 Y106.661 E0.02636
G1 X134.362 Y105.835 E0.02633
G1 X134.399 Y105.005 E0.02625
G1 X134.362 Y104.172 E0.02635
G1 X134.253 Y103.35 E0.0262
G1 X134.07 Y102.537 E0.02633
G1 X133.819 Y101.747 E0.02619
G1 X133.417 Y100.79 E0.0328
G1 X132.785 Y99.716 E0.03937
G1 X132.147 Y98.897 E0.0328
G1 X131.576 Y98.284 E0.02647
G1 X130.805 Y97.593 E0.03271
G1 X129.941 Y97.005 E0.03302
G1 X129.217 Y96.6 E0.02621
G1 X128.459 Y96.262 E0.02622
G1 X127.671 Y95.989 E0.02635
G1 X126.861 Y95.788 E0.02637
G1 X126.041 Y95.658 E0.02623
G0 F3600 X126.008 Y95.956
G0 X122.415 Y113.726
G0 X122.215 Y114.395
;TYPE:WALL-OUTER
G1 F1200 X123.059 Y114.604 E0.02747
G1 X123.914 Y114.74 E0.02736
G1 X124.997 Y114.812 E0.0343
G1 X126.072 Y114.74 E0.03404
G1 X126.931 Y114.606 E0.02747
G1 X127.761 Y114.4 E0.02702
G1 X128.594 Y114.116 E0.02781
G1 X129.388 Y113.762 E0.02747
G1 X130.142 Y113.342 E0.02727
G1 X131.041 Y112.731 E0.03435
G1 X131.845 Y112.011 E0.0341
G1 X132.44 Y111.376 E0.0275
G1 X133.108 Y110.522 E0.03426
G1 X133.77 Y109.4 E0.04116
G1 X134.191 Y108.403 E0.0342
G1 X134.454 Y107.58 E0.0273
G1 X134.645 Y106.732 E0.02747
G1 X134.761 Y105.871 E0.02745
G1 X134.799 Y105.005 E0.02739
G1 X134.761 Y104.137 E0.02745
G1 X134.647 Y103.28 E0.02732
G1 X134.456 Y102.432 E0.02747
G1 X134.195 Y101.609 E0.02728
G1 X133.775 Y100.61 E0.03424
G1 X133.117 Y99.49 E0.04104
G1 X132.451 Y98.637 E0.03419
G1 X131.856 Y97.998 E0.02759
G1 X131.052 Y97.277 E0.03412
G1 X130.152 Y96.665 E0.03439
G1 X129.397 Y96.242 E0.02734
G1 X128.606 Y95.89 E0.02736
G1 X127.785 Y95.605 E0.02746
G1 X126.941 Y95.396 E0.02747
G1 X126.086 Y95.26 E0.02736
G1 X125.003 Y95.188 E0.0343
G1 X123.928 Y95.26 E0.03404
G1 X123.069 Y95.394 E0.02747
G1 X122.239 Y95.6 E0.02702
G1 X121.406 Y95.884 E0.02781
G1 X120.612 Y96.238 E0.02747
G1 X119.858 Y96.658 E0.02727
G1 X118.959 Y97.269 E0.03435
G1 X118.155 Y97.989 E0.0341
G1 X117.56 Y98.624 E0.0275
G1 X116.892 Y99.478 E0.03426
G1 X116.23 Y100.6 E0.04116
G1 X115.809 Y101.597 E0.0342
G1 X115.546 Y102.42 E0.0273
G1 X115.355 Y103.268 E0.02747
G1 X115.239 Y104.129 E0.02745
G1 X115.201 Y104.995 E0.02739
G1 X115.239 Y105.863 E0.02745
G1 X115.353 Y106.72 E0.02732
G1 X115.544 Y107.568 E0.02747
G1 X115.805 Y108.391 E0.02728
G1 X116.223 Y109.386 E0.0341
G1 X116.883 Y110.51 E0.04119
G1 X117.549 Y111.363 E0.03419
G1 X118.144 Y112.002 E0.02759
G1 X118.947 Y112.722 E0.03408
G1 X119.848 Y113.335 E0.03443
G1 X120.603 Y113.759 E0.02736
G1 X121.394 Y114.11 E0.02734
G1 X122.215 Y114.395 E0.02746
G0 F3600 X122.409 Y114.443
G0 X122.577 Y113.766
G0 X123.215 Y113.839
;TYPE:SKIN
G1 F1200 X124.001 Y113.964 E0.02647
G1 X124.996 Y114.03 E0.03317
G1 X125.983 Y113.964 E0.0329
G1 X126.777 Y113.84 E0.02673
G1 X127.539 Y113.651 E0.02611
G1 X128.307 Y113.39 E0.02698
G1 X129.039 Y113.063 E0.02667
G1 X129.733 Y112.677 E0.02641
G1 X130.56 Y112.114 E0.03328
G1 X131.299 Y111.452 E0.033
G1 X131.847 Y110.867 E0.02666
G1 X132.462 Y110.079 E0.03325
G1 X133.073 Y109.046 E0.03992
G1 X133.459 Y108.132 E0.033
