;FLAVOR:Marlin
;TIME:3789
;Filament used: 1.59952m
;Layer height: 0.2
;MINX:113.1
;MINY:93.1
;MINZ:0.2
;MAXX:136.9
;MAXY:116.9
;MAXZ:58
;Generated with Cura_SteamEngine 5.2.2
M82 ;absolute extrusion mode
G21 ; set units to millimeters
G90 ; use absolute positioning
M82 ; absolute extrusion mode
M104 S200 ; set extruder temp
M140 S60 ; set bed temp
M190 S60 ; wait for bed temp
M109 S200 ; wait for extruder temp
G28 W ; home all without mesh bed level
G80 ; mesh bed leveling
G92 E0.0 ; reset extruder distance position
G1 Y-3.0 F1000.0 ; go outside print area
G1 X60.0 E9.0 F1000.0 ; intro line
G1 X100.0 E21.5 F1000.0 ; intro line
G92 E0.0 ; reset extruder distance position
M83 ;relative extrusion mode
G1 F2100 E-0.8
;LAYER_COUNT:290
;LAYER:0
M107
G0 F3600 X114.11 Y94.716 Z0.2
;TYPE:SKIRT
G1 F2100 E0.8
G1 F600 X114.516 Y94.284 E0.01972
G1 X114.977 Y93.911 E0.01972
G1 X115.484 Y93.603 E0.01973
G1 X116.027 Y93.366 E0.01971
G1 X116.598 Y93.204 E0.01974
G1 X117.479 Y93.1 E0.02951
G1 X131.856 Y93.1 E0.47818
G1 X132.554 Y93.11 E0.02322
G1 X133.145 Y93.159 E0.01972
G1 X133.724 Y93.286 E0.01972
G1 X134.281 Y93.49 E0.01973
G1 X134.805 Y93.768 E0.01973
G1 X135.287 Y94.113 E0.01971
G1 X135.719 Y94.52 E0.01974
G1 X136.091 Y94.981 E0.0197
G1 X136.399 Y95.488 E0.01973
G1 X136.635 Y96.032 E0.01972
G1 X136.796 Y96.602 E0.0197
G1 X136.9 Y97.479 E0.02937
G1 X136.9 Y111.818 E0.47692
G1 X136.891 Y112.545 E0.02418
G1 X136.843 Y113.137 E0.01975
G1 X136.717 Y113.716 E0.01971
G1 X136.514 Y114.273 E0.01972
G1 X136.238 Y114.798 E0.01973
G1 X135.894 Y115.281 E0.01972
G1 X135.488 Y115.713 E0.01972
G1 X135.027 Y116.086 E0.01972
G1 X134.521 Y116.395 E0.01972
G1 X133.978 Y116.632 E0.01971
G1 X133.407 Y116.795 E0.01975
G1 X132.521 Y116.9 E0.02967
G1 X118.15 Y116.9 E0.47798
G1 X117.452 Y116.891 E0.02322
G1 X116.861 Y116.843 E0.01972
G1 X116.282 Y116.716 E0.01972
G1 X115.725 Y116.513 E0.01972
G1 X115.2 Y116.237 E0.01973
G1 X114.718 Y115.892 E0.01971
G1 X114.286 Y115.486 E0.01972
G1 X113.912 Y115.025 E0.01974
G1 X113.604 Y114.519 E0.0197
G1 X113.367 Y113.975 E0.01974
G1 X113.205 Y113.405 E0.01971
G1 X113.1 Y112.517 E0.02974
G1 X113.1 Y98.114 E0.47905
G1 X113.109 Y97.449 E0.02212
G1 X113.157 Y96.858 E0.01972
G1 X113.284 Y96.279 E0.01972
G1 X113.488 Y95.722 E0.01973
G1 X113.765 Y95.198 E0.01971
G1 X114.11 Y94.716 E0.01971
G0 F3600 X114.504 Y94.869
G1 F600 X114.906 Y94.472 E0.01879
G1 X115.36 Y94.135 E0.01881
G1 X115.857 Y93.866 E0.0188
G1 X116.387 Y93.669 E0.01881
G1 X116.94 Y93.55 E0.01881
G1 X117.526 Y93.5 E0.01956
G1 X131.85 Y93.5 E0.47642
G1 X132.548 Y93.51 E0.02322
G1 X133.112 Y93.558 E0.01883
G1 X133.662 Y93.685 E0.01877
G1 X134.19 Y93.889 E0.01883
G1 X134.684 Y94.164 E0.0188
G1 X135.133 Y94.507 E0.01879
G1 X135.53 Y94.909 E0.01879
G1 X135.867 Y95.364 E0.01883
G1 X136.135 Y95.861 E0.01878
G1 X136.331 Y96.391 E0.01879
G1 X136.451 Y96.944 E0.01882
G1 X136.5 Y97.529 E0.01953
G1 X136.5 Y111.814 E0.47512
G1 X136.491 Y112.541 E0.02418
G1 X136.444 Y113.104 E0.01879
G1 X136.318 Y113.655 E0.0188
G1 X136.116 Y114.183 E0.0188
G1 X135.841 Y114.677 E0.0188
G1 X135.499 Y115.127 E0.0188
G1 X135.097 Y115.525 E0.01882
G1 X134.644 Y115.862 E0.01878
G1 X134.147 Y116.132 E0.01881
G1 X133.617 Y116.329 E0.01881
G1 X133.065 Y116.45 E0.0188
G1 X132.473 Y116.5 E0.01976
G1 X118.155 Y116.5 E0.47622
G1 X117.457 Y116.491 E0.02322
G1 X116.894 Y116.443 E0.01879
G1 X116.343 Y116.317 E0.0188
G1 X115.815 Y116.115 E0.0188
G1 X115.321 Y115.84 E0.0188
G1 X114.871 Y115.498 E0.0188
G1 X114.473 Y115.096 E0.01882
G1 X114.137 Y114.642 E0.01879
G1 X113.867 Y114.145 E0.01881
G1 X113.67 Y113.615 E0.01881
G1 X113.55 Y113.063 E0.01879
G1 X113.501 Y112.495 E0.01896
G1 X113.5 Y98.12 E0.47811
G1 X113.509 Y97.455 E0.02212
G1 X113.557 Y96.892 E0.01879
G1 X113.683 Y96.341 E0.0188
G1 X113.886 Y95.813 E0.01881
G1 X114.162 Y95.319 E0.01882
G1 X114.504 Y94.869 E0.0188
G0 F3600 X114.897 Y95.031
G1 F600 X115.294 Y94.671 E0.01782
G1 X115.741 Y94.373 E0.01787
G1 X116.226 Y94.145 E0.01782
G1 X116.74 Y93.992 E0.01784
G1 X117.481 Y93.901 E0.02483
G1 X131.845 Y93.9 E0.47775
G1 X132.543 Y93.91 E0.02322
G1 X133.077 Y93.958 E0.01783
G1 X133.598 Y94.084 E0.01783
G1 X134.095 Y94.287 E0.01786
G1 X134.556 Y94.561 E0.01784
G1 X134.971 Y94.9 E0.01782
G1 X135.331 Y95.298 E0.01785
G1 X135.628 Y95.744 E0.01782
G1 X135.856 Y96.23 E0.01785
G1 X136.008 Y96.744 E0.01783
G1 X136.099 Y97.482 E0.02473
G1 X136.1 Y111.809 E0.47652
G1 X136.091 Y112.536 E0.02418
G1 X136.044 Y113.07 E0.01783
G1 X135.919 Y113.591 E0.01782
G1 X135.717 Y114.088 E0.01784
G1 X135.444 Y114.55 E0.01785
G1 X135.106 Y114.966 E0.01783
G1 X134.709 Y115.327 E0.01785
G1 X134.263 Y115.625 E0.01784
G1 X133.778 Y115.853 E0.01782
G1 X133.264 Y116.007 E0.01785
G1 X132.519 Y116.099 E0.02497
G1 X118.161 Y116.1 E0.47755
G1 X117.463 Y116.091 E0.02322
G1 X116.928 Y116.044 E0.01786
G1 X116.407 Y115.918 E0.01783
G1 X115.91 Y115.716 E0.01784
G1 X115.449 Y115.443 E0.01782
G1 X115.033 Y115.104 E0.01785
G1 X114.672 Y114.708 E0.01782
G1 X114.374 Y114.262 E0.01784
G1 X114.146 Y113.776 E0.01785
G1 X113.993 Y113.262 E0.01784
G1 X113.901 Y112.515 E0.02503
G1 X113.9 Y98.125 E0.47861
G1 X113.909 Y97.46 E0.02212
G1 X113.957 Y96.926 E0.01783
G1 X114.083 Y96.405 E0.01783
G1 X114.285 Y95.908 E0.01784
G1 X114.558 Y95.447 E0.01782
G1 X114.897 Y95.031 E0.01785
G0 F3600 X115.289 Y95.204
G1 F600 X115.68 Y94.883 E0.01683
G1 X116.117 Y94.628 E0.01683
G1 X116.588 Y94.444 E0.01682
G1 X117.082 Y94.338 E0.0168
G1 X117.527 Y94.301 E0.01485
G1 X131.839 Y94.3 E0.47602
G1 X132.537 Y94.31 E0.02322
G1 X133.04 Y94.357 E0.0168
G1 X133.53 Y94.483 E0.01683
G1 X133.994 Y94.685 E0.01683
G1 X134.42 Y94.957 E0.01681
G1 X134.798 Y95.292 E0.0168
G1 X135.118 Y95.683 E0.0168
G1 X135.373 Y96.12 E0.01683
G1 X135.556 Y96.591 E0.01681
G1 X135.663 Y97.085 E0.01681
G1 X135.699 Y97.74 E0.02182
G1 X135.7 Y111.804 E0.46777
G1 X135.691 Y112.531 E0.02418
G1 X135.645 Y113.034 E0.0168
G1 X135.52 Y113.524 E0.01682
G1 X135.319 Y113.988 E0.01682
G1 X135.048 Y114.415 E0.01682
G1 X134.713 Y114.794 E0.01682
G1 X134.323 Y115.115 E0.0168
G1 X133.887 Y115.371 E0.01682
G1 X133.416 Y115.554 E0.01681
G1 X132.922 Y115.662 E0.01682
G1 X132.472 Y115.699 E0.01502
G1 X118.166 Y115.7 E0.47582
G1 X117.468 Y115.691 E0.02322
G1 X116.964 Y115.644 E0.01684
G1 X116.474 Y115.519 E0.01682
G1 X116.01 Y115.318 E0.01682
G1 X115.584 Y115.047 E0.01679
G1 X115.205 Y114.712 E0.01682
G1 X114.884 Y114.321 E0.01683
G1 X114.629 Y113.885 E0.0168
G1 X114.445 Y113.414 E0.01682
G1 X114.338 Y112.92 E0.01681
G1 X114.301 Y112.467 E0.01512
G1 X114.3 Y98.131 E0.47682
G1 X114.309 Y97.466 E0.02212
G1 X114.356 Y96.962 E0.01684
G1 X114.482 Y96.473 E0.0168
G1 X114.683 Y96.009 E0.01682
G1 X114.954 Y95.582 E0.01682
G1 X115.289 Y95.204 E0.0168
G1 F2100 E-0.8
;MESH:Tensile_Testing_V2.stl
G0 F3600 X117.914 Y96.835
G0 X117.914 Y97.914
G0 X131.63 Y111.63
G1 F2100 E0.8
G0 F3600 X131.9 Y111.9
;TYPE:WALL-INNER
G1 F600 X131.9 Y98.1 E0.43604
G1 X118.1 Y98.1 E0.43604
G1 X118.1 Y111.9 E0.43604
G1 X131.9 Y111.9 E0.43604
G0 F3600 X131.63 Y111.63
G0 X117.97 Y112.03
G0 X117.7 Y112.3
;TYPE:WALL-OUTER
G1 F600 X132.3 Y112.3 E0.46132
G1 X132.3 Y97.7 E0.46132
G1 X117.7 Y97.7 E0.46132
G1 X117.7 Y112.3 E0.46132
G0 F3600 X117.9 Y112.3
G0 X118.37 Y111.63
G0 X118.48 Y98.48
;TYPE:SKIN
G1 F600 X118.48 Y111.52 E0.43371
G1 X131.52 Y111.52 E0.43371
G1 X131.52 Y98.48 E0.43371
G1 X118.48 Y98.48 E0.43371
G0 F3600 X131.319 Y99.075
G1 F600 X130.924 Y98.68 E0.01858
G0 F3600 X130.358 Y98.68
G1 F600 X131.319 Y99.641 E0.0452
G0 F3600 X131.319 Y100.206
G1 F600 X129.792 Y98.68 E0.0718
G0 F3600 X129.227 Y98.68
G1 F600 X131.319 Y100.772 E0.0984
G0 F3600 X131.319 Y101.338
G1 F600 X128.661 Y98.68 E0.12502
G0 F3600 X128.095 Y98.68
G1 F600 X131.319 Y101.903 E0.15162
G0 F3600 X131.319 Y102.469
G1 F600 X127.53 Y98.68 E0.17822
G0 F3600 X126.964 Y98.68
G1 F600 X131.319 Y103.035 E0.20485
G0 F3600 X131.319 Y103.601
G1 F600 X126.398 Y98.68 E0.23147
G0 F3600 X125.833 Y98.68
G1 F600 X131.319 Y104.166 E0.25804
G0 F3600 X131.319 Y104.732
G1 F600 X125.267 Y98.68 E0.28467
G0 F3600 X124.701 Y98.68
G1 F600 X131.319 Y105.298 E0.31129
G0 F3600 X131.319 Y105.863
G1 F600 X124.136 Y98.68 E0.33787
G0 F3600 X123.57 Y98.68
G1 F600 X131.319 Y106.429 E0.36449
G0 F3600 X131.319 Y106.995
G1 F600 X123.004 Y98.68 E0.39111
G0 F3600 X122.439 Y98.68
G1 F600 X131.319 Y107.56 E0.41769
G0 F3600 X131.319 Y108.126
G1 F600 X121.873 Y98.68 E0.44431
G0 F3600 X121.307 Y98.68
G1 F600 X131.319 Y108.692 E0.47093
G0 F3600 X131.319 Y109.257
G1 F600 X120.742 Y98.68 E0.49751
G0 F3600 X120.176 Y98.68
G1 F600 X131.319 Y109.823 E0.52413
G0 F3600 X131.319 Y110.389
G1 F600 X119.61 Y98.68 E0.55076
G0 F3600 X119.044 Y98.68
G1 F600 X131.319 Y110.954 E0.57735
G0 F3600 X131.118 Y111.319
G1 F600 X118.679 Y98.88 E0.58509
G0 F3600 X118.679 Y99.446
G1 F600 X130.553 Y111.319 E0.55849
G0 F3600 X129.987 Y111.319
G1 F600 X118.679 Y100.011 E0.53189
G0 F3600 X118.679 Y100.577
G1 F600 X129.421 Y111.319 E0.50527
G0 F3600 X128.856 Y111.319
G1 F600 X118.679 Y101.143 E0.47867
G0 F3600 X118.679 Y101.708
G1 F600 X128.29 Y111.319 E0.45207
G0 F3600 X127.724 Y111.319
G1 F600 X118.679 Y102.274 E0.42545
G0 F3600 X118.679 Y102.84
G1 F600 X127.159 Y111.319 E0.39885
G0 F3600 X126.593 Y111.319
G1 F600 X118.679 Y103.405 E0.37225
G0 F3600 X118.679 Y103.971
G1 F600 X126.027 Y111.319 E0.34563
G0 F3600 X125.461 Y111.319
G1 F600 X118.679 Y104.537 E0.319
G0 F3600 X118.679 Y105.102
G1 F600 X124.896 Y111.319 E0.29243
G0 F3600 X124.33 Y111.319
G1 F600 X118.679 Y105.668 E0.26581
G0 F3600 X118.679 Y106.234
G1 F600 X123.764 Y111.319 E0.23918
G0 F3600 X123.199 Y111.319
G1 F600 X118.679 Y106.799 E0.21261
G0 F3600 X118.679 Y107.365
G1 F600 X122.633 Y111.319 E0.18598
G0 F3600 X122.067 Y111.319
G1 F600 X118.679 Y107.931 E0.15936
G0 F3600 X118.679 Y108.497
G1 F600 X121.502 Y111.319 E0.13276
G0 F3600 X120.936 Y111.319
G1 F600 X118.679 Y109.062 E0.10616
G0 F3600 X118.679 Y109.628
G1 F600 X120.37 Y111.319 E0.07954
G0 F3600 X119.805 Y111.319
G1 F600 X118.679 Y110.194 E0.05294
G0 F3600 X118.679 Y110.759
G1 F600 X119.239 Y111.319 E0.02634
M104 S200
G0 F3600 X119.239 Y111.3
;MESH:NONMESH
G0 F600 X119.239 Y111.3 Z0.4
G0 F3600 X118.37 Y98.37
G0 X118.1 Y98.1
;TIME_ELAPSED:98.123876
;LAYER:1
M106 S255
;TYPE:WALL-INNER
;MESH:Tensile_Testing_V2.stl
G1 F900 X118.1 Y111.9 E0.43604
G1 X131.9 Y111.9 E0.43604
G1 X131.9 Y98.1 E0.43604
G1 X118.1 Y98.1 E0.43604
G0 F5400 X118.37 Y98.37
G0 X132.03 Y112.03
G0 X132.3 Y112.3
;TYPE:WALL-OUTER
G1 F600 X132.3 Y97.7 E0.46132
G1 X117.7 Y97.7 E0.46132
G1 X117.7 Y112.3 E0.46132
G1 X132.3 Y112.3 E0.46132
G0 F5400 X132.3 Y112.1
G0 X131.63 Y111.63
G0 X118.48 Y98.48
;TYPE:SKIN
G1 F600 X118.48 Y111.52 E0.43371
G1 X131.52 Y111.52 E0.43371
G1 X131.52 Y98.48 E0.43371
G1 X118.48 Y98.48 E0.43371
G0 F5400 X118.679 Y99.109
G1 F600 X119.109 Y98.679 E0.02023
G0 F5400 X119.674 Y98.679
G1 F600 X118.679 Y99.675 E0.04683
G0 F5400 X118.679 Y100.24
G1 F600 X120.24 Y98.679 E0.07342
G0 F5400 X120.806 Y98.679
G1 F600 X118.679 Y100.806 E0.10005
G0 F5400 X118.679 Y101.372
G1 F600 X121.372 Y98.679 E0.12667
G0 F5400 X121.937 Y98.679
G1 F600 X118.679 Y101.937 E0.15325
G0 F5400 X118.679 Y102.503
G1 F600 X122.503 Y98.679 E0.17987
G0 F5400 X123.069 Y98.679
G1 F600 X118.679 Y103.069 E0.20649
G0 F5400 X118.679 Y103.634
G1 F600 X123.634 Y98.679 E0.23307
G0 F5400 X124.2 Y98.679
G1 F600 X118.679 Y104.2 E0.25969
G0 F5400 X118.679 Y104.766
G1 F600 X124.766 Y98.679 E0.28631
G0 F5400 X125.331 Y98.679
G1 F600 X118.679 Y105.332 E0.31291
G0 F5400 X118.679 Y105.897
G1 F600 X125.897 Y98.679 E0.33951
G0 F5400 X126.463 Y98.679
G1 F600 X118.679 Y106.463 E0.36614
G0 F5400 X118.679 Y107.029
G1 F600 X127.028 Y98.679 E0.39273
G0 F5400 X127.594 Y98.679
G1 F600 X118.679 Y107.594 E0.41933
G0 F5400 X118.679 Y108.16
G1 F600 X128.16 Y98.679 E0.44596
G0 F5400 X128.725 Y98.679
G1 F600 X118.679 Y108.726 E0.47256
G0 F5400 X118.679 Y109.291
G1 F600 X129.291 Y98.679 E0.49916
G0 F5400 X129.857 Y98.679
G1 F600 X118.679 Y109.857 E0.52578
G0 F5400 X118.679 Y110.423
G1 F600 X130.423 Y98.679 E0.5524
G0 F5400 X130.988 Y98.679
G1 F600 X118.679 Y110.988 E0.57898
G0 F5400 X118.914 Y111.319
G1 F600 X131.318 Y98.915 E0.58345
G0 F5400 X131.318 Y99.48
G1 F600 X119.479 Y111.319 E0.55687
G0 F5400 X120.045 Y111.319
G1 F600 X131.318 Y100.046 E0.53025
G0 F5400 X131.318 Y100.612
G1 F600 X120.611 Y111.319 E0.50362
G0 F5400 X121.176 Y111.319
G1 F600 X131.318 Y101.177 E0.47705
G0 F5400 X131.318 Y101.743
G1 F600 X121.742 Y111.319 E0.45043
G0 F5400 X122.308 Y111.319
G1 F600 X131.318 Y102.309 E0.4238
G0 F5400 X131.318 Y102.874
G1 F600 X122.873 Y111.319 E0.39723
G0 F5400 X123.439 Y111.319
G1 F600 X131.318 Y103.44 E0.3706
G0 F5400 X131.318 Y104.006
G1 F600 X124.005 Y111.319 E0.34398
G0 F5400 X124.571 Y111.319
G1 F600 X131.318 Y104.571 E0.31738
G0 F5400 X131.318 Y105.137
G1 F600 X125.136 Y111.319 E0.29078
G0 F5400 X125.702 Y111.319
G1 F600 X131.318 Y105.703 E0.26416
G0 F5400 X131.318 Y106.268
G1 F600 X126.268 Y111.319 E0.23756
G0 F5400 X126.833 Y111.319
G1 F600 X131.318 Y106.834 E0.21096
G0 F5400 X131.318 Y107.4
G1 F600 X127.399 Y111.319 E0.18434
G0 F5400 X127.965 Y111.319
G1 F600 X131.318 Y107.966 E0.15771
G0 F5400 X131.318 Y108.531
G1 F600 X128.53 Y111.319 E0.13114
G0 F5400 X129.096 Y111.319
G1 F600 X131.318 Y109.097 E0.10452
G0 F5400 X131.318 Y109.663
G1 F600 X129.662 Y111.319 E0.07789
G0 F5400 X130.227 Y111.319
G1 F600 X131.318 Y110.228 E0.05132
G0 F5400 X131.318 Y110.794
G1 F600 X130.793 Y111.319 E0.02469
G0 F5400 X130.793 Y111.3
;MESH:NONMESH
G0 F600 X130.793 Y111.3 Z0.6
G0 F5400 X131.63 Y98.37
G0 X131.9 Y98.1
;TIME_ELAPSED:155.602086
;LAYER:2
;TYPE:WALL-INNER
;MESH:Tensile_Testing_V2.stl
G1 F1200 X118.1 Y98.1 E0.43604
G1 X118.1 Y111.9 E0.43604
G1 X131.9 Y111.9 E0.43604
G1 X131.9 Y98.1 E0.43604
G0 F7200 X132.3 Y97.7
;TYPE:WALL-OUTER
G1 F600 X117.7 Y97.7 E0.46132
G1 X117.7 Y112.3 E0.46132
G1 X132.3 Y112.3 E0.46132
G1 X132.3 Y97.7 E0.46132
G0 F7200 X132.1 Y97.7
G0 X131.63 Y98.37
G0 X131.52 Y111.52
;TYPE:SKIN
G1 F600 X131.52 Y98.48 E0.43371
G1 X118.48 Y98.48 E0.43371
G1 X118.48 Y111.52 E0.43371
G1 X131.52 Y111.52 E0.43371
G0 F7200 X131.319 Y99.075
G1 F600 X130.924 Y98.68 E0.01858
G0 F7200 X130.358 Y98.68
G1 F600 X131.319 Y99.641 E0.0452
G0 F7200 X131.319 Y100.206
G1 F600 X129.792 Y98.68 E0.0718
G0 F7200 X129.227 Y98.68
G1 F600 X131.319 Y100.772 E0.0984
G0 F7200 X131.319 Y101.338
G1 F600 X128.661 Y98.68 E0.12502
G0 F7200 X128.095 Y98.68
G1 F600 X131.319 Y101.903 E0.15162
G0 F7200 X131.319 Y102.469
G1 F600 X127.53 Y98.68 E0.17822
G0 F7200 X126.964 Y98.68
G1 F600 X131.319 Y103.035 E0.20485
G0 F7200 X131.319 Y103.601
G1 F600 X126.398 Y98.68 E0.23147
G0 F7200 X125.833 Y98.68
G1 F600 X131.319 Y104.166 E0.25804
G0 F7200 X131.319 Y104.732
G1 F600 X125.267 Y98.68 E0.28467
G0 F7200 X124.701 Y98.68
G1 F600 X131.319 Y105.298 E0.31129
G0 F7200 X131.319 Y105.863
G1 F600 X124.136 Y98.68 E0.33787
G0 F7200 X123.57 Y98.68
G1 F600 X131.319 Y106.429 E0.36449
G0 F7200 X131.319 Y106.995
G1 F600 X123.004 Y98.68 E0.39111
G0 F7200 X122.439 Y98.68
G1 F600 X131.319 Y107.56 E0.41769
G0 F7200 X131.319 Y108.126
G1 F600 X121.873 Y98.68 E0.44431
G0 F7200 X121.307 Y98.68
G1 F600 X131.319 Y108.692 E0.47093
G0 F7200 X131.319 Y109.257
G1 F600 X120.742 Y98.68 E0.49751
G0 F7200 X120.176 Y98.68
G1 F600 X131.319 Y109.823 E0.52413
G0 F7200 X131.319 Y110.389
G1 F600 X119.61 Y98.68 E0.55076
G0 F7200 X119.044 Y98.68
G1 F600 X131.319 Y110.954 E0.57735
G0 F7200 X131.118 Y111.319
G1 F600 X118.679 Y98.88 E0.58509
G0 F7200 X118.679 Y99.446
G1 F600 X130.553 Y111.319 E0.55849
G0 F7200 X129.987 Y111.319
G1 F600 X118.679 Y100.011 E0.53189
G0 F7200 X118.679 Y100.577
G1 F600 X129.421 Y111.319 E0.50527
G0 F7200 X128.856 Y111.319
G1 F600 X118.679 Y101.143 E0.47867
G0 F7200 X118.679 Y101.708
G1 F600 X128.29 Y111.319 E0.45207
G0 F7200 X127.724 Y111.319
G1 F600 X118.679 Y102.274 E0.42545
G0 F7200 X118.679 Y102.84
G1 F600 X127.159 Y111.319 E0.39885
G0 F7200 X126.593 Y111.319
G1 F600 X118.679 Y103.405 E0.37225
G0 F7200 X118.679 Y103.971
G1 F600 X126.027 Y111.319 E0.34563
G0 F7200 X125.461 Y111.319
G1 F600 X118.679 Y104.537 E0.319
