;FLAVOR:Marlin
;TIME:4143
;Filament used: 1.6443m
;Layer height: 0.2
;MINX:82.046
;MINY:94.449
;MINZ:0.2
;MAXX:105.846
;MAXY:118.249
;MAXZ:48.6
;Generated with Cura_SteamEngine 5.2.2
M82 ;absolute extrusion mode
G21 ; set units to millimeters
G90 ; use absolute positioning
M82 ; absolute extrusion mode
M104 S200 ; set extruder temp
M140 S60 ; set bed temp
M190 S60 ; wait for bed temp
M109 S200 ; wait for extruder temp
G28 W ; home all without mesh bed level
G80 ; mesh bed leveling
G92 E0.0 ; reset extruder distance position
G1 Y-3.0 F1000.0 ; go outside print area
G1 X60.0 E9.0 F1000.0 ; intro line
G1 X100.0 E21.5 F1000.0 ; intro line
G92 E0.0 ; reset extruder distance position
G92 E0
G92 E0
G1 F2100 E-0.8
;LAYER_COUNT:243
;LAYER:0
M107
M205 X20 Y20
G0 F600 X83.462 Y95.633 Z0.2
;TYPE:SKIRT
G1 F2100 E0
G1 F600 X83.923 Y95.26 E0.01972
G1 X84.43 Y94.952 E0.03945
G1 X84.973 Y94.715 E0.05916
G1 X85.544 Y94.553 E0.0789
G1 X86.425 Y94.449 E0.10841
G1 X100.802 Y94.449 E0.58659
G1 X101.5 Y94.459 E0.60981
G1 X102.091 Y94.508 E0.62953
G1 X102.67 Y94.635 E0.64924
G1 X103.227 Y94.839 E0.66897
G1 X103.751 Y95.117 E0.6887
G1 X104.233 Y95.462 E0.70842
G1 X104.665 Y95.869 E0.72816
G1 X105.037 Y96.33 E0.74786
G1 X105.345 Y96.837 E0.76759
G1 X105.581 Y97.381 E0.78731
G1 X105.742 Y97.951 E0.80701
G1 X105.846 Y98.828 E0.83639
G1 X105.846 Y113.167 E1.31331
G1 X105.837 Y113.894 E1.33749
G1 X105.789 Y114.486 E1.35724
G1 X105.663 Y115.065 E1.37695
G1 X105.46 Y115.622 E1.39667
G1 X105.184 Y116.147 E1.4164
G1 X104.84 Y116.63 E1.43612
G1 X104.434 Y117.062 E1.45584
G1 X103.973 Y117.435 E1.47556
G1 X103.467 Y117.744 E1.49528
G1 X102.924 Y117.981 E1.51498
G1 X102.353 Y118.144 E1.53473
G1 X101.467 Y118.249 E1.56441
G1 X87.096 Y118.249 E2.04239
G1 X86.398 Y118.24 E2.06561
G1 X85.807 Y118.192 E2.08533
G1 X85.228 Y118.065 E2.10505
G1 X84.671 Y117.862 E2.12476
G1 X84.146 Y117.586 E2.14449
G1 X83.664 Y117.241 E2.16421
G1 X83.232 Y116.835 E2.18392
G1 X82.858 Y116.374 E2.20367
G1 X82.55 Y115.868 E2.22337
G1 X82.313 Y115.324 E2.24311
G1 X82.151 Y114.754 E2.26282
G1 X82.046 Y113.866 E2.29256
G1 X82.046 Y99.463 E2.7716
G1 X82.055 Y98.798 E2.79372
G1 X82.103 Y98.207 E2.81344
G1 X82.23 Y97.628 E2.83316
G1 X82.434 Y97.071 E2.85289
G1 X82.711 Y96.547 E2.8726
G1 X83.056 Y96.065 E2.89232
G1 X83.462 Y95.633 E2.91203
G0 X83.852 Y95.821
G1 X84.306 Y95.484 E2.93084
G1 X84.803 Y95.215 E2.94964
G1 X85.333 Y95.018 E2.96844
G1 X85.886 Y94.899 E2.98726
G1 X86.472 Y94.849 E3.00682
G1 X100.796 Y94.849 E3.48324
G1 X101.494 Y94.859 E3.50645
G1 X102.058 Y94.907 E3.52528
G1 X102.608 Y95.034 E3.54405
G1 X103.136 Y95.238 E3.56288
G1 X103.63 Y95.513 E3.58169
G1 X104.079 Y95.856 E3.60048
G1 X104.476 Y96.258 E3.61927
G1 X104.813 Y96.713 E3.6381
G1 X105.081 Y97.21 E3.65688
G1 X105.277 Y97.74 E3.67568
G1 X105.397 Y98.293 E3.6945
G1 X105.446 Y98.878 E3.71402
G1 X105.446 Y113.163 E4.18914
G1 X105.437 Y113.89 E4.21333
G1 X105.39 Y114.453 E4.23212
G1 X105.264 Y115.004 E4.25092
G1 X105.062 Y115.532 E4.26972
G1 X104.787 Y116.026 E4.28852
G1 X104.445 Y116.476 E4.30732
G1 X104.043 Y116.874 E4.32614
G1 X103.59 Y117.211 E4.34492
G1 X103.093 Y117.481 E4.36373
G1 X102.563 Y117.678 E4.38254
G1 X102.011 Y117.799 E4.40133
G1 X101.419 Y117.849 E4.42109
G1 X87.101 Y117.849 E4.89731
G1 X86.403 Y117.84 E4.92053
G1 X85.84 Y117.792 E4.93932
G1 X85.289 Y117.666 E4.95812
G1 X84.761 Y117.464 E4.97692
G1 X84.267 Y117.189 E4.99573
G1 X83.817 Y116.847 E5.01453
G1 X83.419 Y116.445 E5.03334
G1 X83.083 Y115.991 E5.05213
G1 X82.813 Y115.494 E5.07094
G1 X82.616 Y114.964 E5.08975
G1 X82.496 Y114.412 E5.10853
G1 X82.447 Y113.844 E5.1275
G1 X82.446 Y99.469 E5.60561
G1 X82.455 Y98.804 E5.62773
G1 X82.503 Y98.241 E5.64652
G1 X82.629 Y97.69 E5.66532
G1 X82.832 Y97.162 E5.68414
G1 X83.108 Y96.668 E5.70296
G1 X83.45 Y96.218 E5.72176
G1 X83.852 Y95.821 E5.74055
G0 X84.24 Y96.02
G1 X84.687 Y95.722 E5.75842
G1 X85.172 Y95.494 E5.77624
G1 X85.686 Y95.341 E5.79408
G1 X86.427 Y95.25 E5.81891
G1 X100.791 Y95.249 E6.29666
G1 X101.489 Y95.259 E6.31988
G1 X102.023 Y95.307 E6.33771
G1 X102.544 Y95.433 E6.35554
G1 X103.041 Y95.636 E6.37339
G1 X103.502 Y95.91 E6.39123
G1 X103.917 Y96.249 E6.40905
G1 X104.277 Y96.647 E6.4269
G1 X104.574 Y97.093 E6.44472
G1 X104.802 Y97.579 E6.46258
G1 X104.954 Y98.093 E6.48041
G1 X105.045 Y98.831 E6.50514
G1 X105.046 Y113.158 E6.98166
G1 X105.037 Y113.885 E7.00584
G1 X104.99 Y114.419 E7.02367
G1 X104.865 Y114.94 E7.04149
G1 X104.663 Y115.437 E7.05933
G1 X104.39 Y115.899 E7.07718
G1 X104.052 Y116.315 E7.09501
G1 X103.655 Y116.676 E7.11285
G1 X103.209 Y116.974 E7.1307
G1 X102.724 Y117.202 E7.14852
G1 X102.21 Y117.356 E7.16637
G1 X101.465 Y117.448 E7.19133
G1 X87.107 Y117.449 E7.66888
G1 X86.409 Y117.44 E7.6921
G1 X85.874 Y117.393 E7.70996
G1 X85.353 Y117.267 E7.72779
G1 X84.856 Y117.065 E7.74563
G1 X84.395 Y116.792 E7.76345
G1 X83.979 Y116.453 E7.7813
G1 X83.618 Y116.057 E7.79913
G1 X83.32 Y115.611 E7.81697
G1 X83.092 Y115.125 E7.83482
G1 X82.939 Y114.611 E7.85266
G1 X82.847 Y113.864 E7.87769
G1 X82.846 Y99.474 E8.3563
G1 X82.855 Y98.809 E8.37842
G1 X82.903 Y98.275 E8.39626
G1 X83.029 Y97.754 E8.41408
G1 X83.231 Y97.257 E8.43193
G1 X83.504 Y96.796 E8.44975
G1 X83.843 Y96.38 E8.4676
G1 X84.24 Y96.02 E8.48542
G0 X84.626 Y96.232
G1 X85.063 Y95.977 E8.50225
G1 X85.534 Y95.793 E8.51907
G1 X86.028 Y95.687 E8.53587
G1 X86.473 Y95.65 E8.55072
G1 X100.785 Y95.649 E9.02674
G1 X101.483 Y95.659 E9.04996
G1 X101.986 Y95.706 E9.06676
G1 X102.476 Y95.832 E9.08359
G1 X102.94 Y96.034 E9.10042
G1 X103.366 Y96.306 E9.11723
G1 X103.744 Y96.641 E9.13403
G1 X104.064 Y97.032 E9.15084
G1 X104.319 Y97.469 E9.16767
G1 X104.502 Y97.94 E9.18447
G1 X104.609 Y98.434 E9.20128
G1 X104.645 Y99.089 E9.2231
G1 X104.646 Y113.153 E9.69087
G1 X104.637 Y113.88 E9.71506
G1 X104.591 Y114.383 E9.73185
G1 X104.466 Y114.873 E9.74867
G1 X104.265 Y115.337 E9.76549
G1 X103.994 Y115.764 E9.78231
G1 X103.659 Y116.143 E9.79914
G1 X103.269 Y116.464 E9.81594
G1 X102.833 Y116.72 E9.83275
G1 X102.362 Y116.903 E9.84956
G1 X101.868 Y117.011 E9.86638
G1 X101.418 Y117.048 E9.8814
G1 X87.112 Y117.049 E10.35722
G1 X86.414 Y117.04 E10.38043
G1 X85.91 Y116.993 E10.39727
G1 X85.42 Y116.868 E10.41409
G1 X84.956 Y116.667 E10.43091
G1 X84.53 Y116.396 E10.4477
G1 X84.151 Y116.061 E10.46452
G1 X83.83 Y115.67 E10.48135
G1 X83.575 Y115.234 E10.49815
G1 X83.391 Y114.763 E10.51497
G1 X83.284 Y114.269 E10.53178
G1 X83.247 Y113.816 E10.5469
G1 X83.246 Y99.48 E11.02371
G1 X83.255 Y98.815 E11.04583
G1 X83.302 Y98.311 E11.06267
G1 X83.428 Y97.822 E11.07947
G1 X83.629 Y97.358 E11.09628
G1 X83.9 Y96.931 E11.1131
G1 X84.235 Y96.553 E11.1299
G1 X84.626 Y96.232 E11.14673
G1 F2100 E10.34673
;MESH:Tensile_Test_Object.3mf
G0 F600 X86.86 Y98.184
G0 X86.86 Y99.263
G0 X87.316 Y112.979
G1 F2100 E11.14673
G0 F600 X87.046 Y113.249
;TYPE:WALL-INNER
G1 X100.846 Y113.249 E11.60572
G1 X100.846 Y99.449 E12.06471
G1 X87.046 Y99.449 E12.5237
G1 X87.046 Y113.249 E12.98269
G0 X87.316 Y112.979
G0 X100.976 Y113.379
G0 X101.246 Y113.649
;TYPE:WALL-OUTER
G1 X101.246 Y99.049 E13.46829
G1 X86.646 Y99.049 E13.95388
G1 X86.646 Y113.649 E14.43948
G1 X101.246 Y113.649 E14.92508
G0 X101.246 Y113.449
G0 X100.576 Y112.979
G0 X100.466 Y99.829
;TYPE:SKIN
G1 X87.426 Y99.829 E15.35879
G1 X87.426 Y112.869 E15.79251
G1 X100.466 Y112.869 E16.22622
G1 X100.466 Y99.829 E16.65993
G0 X100.265 Y100.265
G1 X100.028 Y100.028 E16.67108
G0 X99.463 Y100.028
G1 X100.265 Y100.831 E16.70882
G0 X100.265 Y101.396
G1 X98.897 Y100.028 E16.77317
G0 X98.331 Y100.028
G1 X100.265 Y101.962 E16.86414
G0 X100.265 Y102.528
G1 X97.765 Y100.028 E16.98173
G0 X97.2 Y100.028
G1 X100.265 Y103.094 E17.12592
G0 X100.265 Y103.659
G1 X96.634 Y100.028 E17.29672
G0 X96.068 Y100.028
G1 X100.265 Y104.225 E17.49413
G0 X100.265 Y104.791
G1 X95.503 Y100.028 E17.71814
G0 X94.937 Y100.028
G1 X100.265 Y105.356 E17.96876
G0 X100.265 Y105.922
G1 X94.371 Y100.028 E18.24599
G0 X93.806 Y100.028
G1 X100.265 Y106.488 E18.54983
G0 X100.265 Y107.053
G1 X93.24 Y100.028 E18.88026
G0 X92.674 Y100.028
G1 X100.265 Y107.619 E19.23732
G0 X100.265 Y108.185
G1 X92.109 Y100.028 E19.62098
G0 X91.543 Y100.028
G1 X100.265 Y108.75 E20.03123
G0 X100.265 Y109.316
G1 X90.977 Y100.028 E20.46811
G0 X90.412 Y100.028
G1 X100.265 Y109.882 E20.93159
G0 X100.265 Y110.447
G1 X89.846 Y100.028 E21.42167
G0 X89.28 Y100.028
G1 X100.265 Y111.013 E21.93837
G0 X100.265 Y111.579
G1 X88.715 Y100.028 E22.48167
G0 X88.149 Y100.028
G1 X100.265 Y112.145 E23.05159
G0 X100.223 Y112.668
G1 X87.625 Y100.07 E23.64416
G0 X87.625 Y100.636
G1 X99.657 Y112.668 E24.21011
G0 X99.091 Y112.668
G1 X87.625 Y101.201 E24.74946
G0 X87.625 Y101.767
G1 X98.526 Y112.668 E25.26221
G0 X97.96 Y112.668
G1 X87.625 Y102.333 E25.74834
G0 X87.625 Y102.898
G1 X97.394 Y112.668 E26.20786
G0 X96.829 Y112.668
G1 X87.625 Y103.464 E26.64079
G0 X87.625 Y104.03
G1 X96.263 Y112.668 E27.0471
G0 X95.697 Y112.668
G1 X87.625 Y104.595 E27.4268
G0 X87.625 Y105.161
G1 X95.132 Y112.668 E27.77991
G0 X94.566 Y112.668
G1 X87.625 Y105.727 E28.10639
G0 X87.625 Y106.292
G1 X94 Y112.668 E28.40627
G0 X93.434 Y112.668
G1 X87.625 Y106.858 E28.67954
G0 X87.625 Y107.424
G1 X92.869 Y112.668 E28.9262
G0 X92.303 Y112.668
G1 X87.625 Y107.99 E29.14624
G0 X87.625 Y108.555
G1 X91.737 Y112.668 E29.33968
G0 X91.172 Y112.668
G1 X87.625 Y109.121 E29.50652
G0 X87.625 Y109.687
G1 X90.606 Y112.668 E29.64673
G0 X90.04 Y112.668
G1 X87.625 Y110.252 E29.76035
G0 X87.625 Y110.818
G1 X89.475 Y112.668 E29.84737
G0 X88.909 Y112.668
G1 X87.625 Y111.384 E29.90776
G0 X87.625 Y111.949
G1 X88.343 Y112.668 E29.94156
G0 X87.778 Y112.668
G1 X87.625 Y112.515 E29.94876
M104 S200
G0 X87.646 Y112.515
G1 F2100 E29.14876
;MESH:NONMESH
G0 F600 X87.646 Y112.515 Z0.4
G0 X87.316 Y99.719
G1 F2100 E29.94876
G0 F600 X87.046 Y99.449
;TIME_ELAPSED:113.592912
;LAYER:1
G1 F2100 E29.14876
M106 S255
;TYPE:WALL-INNER
;MESH:Tensile_Test_Object.3mf
G1 F2100 E29.94876
G1 F900 X87.046 Y113.249 E30.40775
G1 X100.846 Y113.249 E30.86674
G1 X100.846 Y99.449 E31.32573
G1 X87.046 Y99.449 E31.78472
G0 X87.316 Y99.719
G0 X100.976 Y113.379
G0 X101.246 Y113.649
;TYPE:WALL-OUTER
G1 F600 X101.246 Y99.049 E32.27031
G1 X86.646 Y99.049 E32.75591
G1 X86.646 Y113.649 E33.24151
G1 X101.246 Y113.649 E33.72711
G0 F900 X101.246 Y113.449
G0 X100.576 Y112.979
G0 X87.426 Y99.829
;TYPE:SKIN
G1 F600 X87.426 Y112.869 E34.16082
G1 X100.466 Y112.869 E34.59453
G1 X100.466 Y99.829 E35.02824
G1 X87.426 Y99.829 E35.46196
G0 F900 X87.778 Y100.028
G1 F600 X87.626 Y100.181 E35.46913
G0 F900 X87.626 Y100.747
G1 F600 X88.344 Y100.028 E35.50293
G0 F900 X88.91 Y100.028
G1 F600 X87.626 Y101.312 E35.56332
G0 F900 X87.626 Y101.878
G1 F600 X89.475 Y100.028 E35.65032
G0 F900 X90.041 Y100.028
G1 F600 X87.626 Y102.444 E35.76393
G0 F900 X87.626 Y103.009
G1 F600 X90.607 Y100.028 E35.90415
G0 F900 X91.172 Y100.028
G1 F600 X87.626 Y103.575 E36.07097
G0 F900 X87.626 Y104.141
G1 F600 X91.738 Y100.028 E36.26441
G0 F900 X92.304 Y100.028
G1 F600 X87.626 Y104.706 E36.48445
G0 F900 X87.626 Y105.272
G1 F600 X92.869 Y100.028 E36.73108
G0 F900 X93.435 Y100.028
G1 F600 X87.626 Y105.838 E37.00435
G0 F900 X87.626 Y106.404
G1 F600 X94.001 Y100.028 E37.30423
G0 F900 X94.567 Y100.028
G1 F600 X87.626 Y106.969 E37.63071
G0 F900 X87.626 Y107.535
G1 F600 X95.132 Y100.028 E37.9838
G0 F900 X95.698 Y100.028
G1 F600 X87.626 Y108.101 E38.3635
G0 F900 X87.626 Y108.666
G1 F600 X96.264 Y100.028 E38.76981
G0 F900 X96.829 Y100.028
G1 F600 X87.626 Y109.232 E39.20271
G0 F900 X87.626 Y109.798
G1 F600 X97.395 Y100.028 E39.66224
G0 F900 X97.961 Y100.028
G1 F600 X87.626 Y110.363 E40.14836
G0 F900 X87.626 Y110.929
G1 F600 X98.526 Y100.028 E40.66109
G0 F900 X99.092 Y100.028
G1 F600 X87.626 Y111.495 E41.20044
G0 F900 X87.626 Y112.06
G1 F600 X99.658 Y100.028 E41.76639
G0 F900 X100.223 Y100.028
G1 F600 X87.626 Y112.626 E42.35894
G0 F900 X88.15 Y112.668
G1 F600 X100.264 Y100.553 E42.92876
G0 F900 X100.264 Y101.119
G1 F600 X88.715 Y112.668 E43.47199
G0 F900 X89.281 Y112.668
G1 F600 X100.264 Y101.684 E43.98862
G0 F900 X100.264 Y102.25
G1 F600 X89.847 Y112.668 E44.47863
G0 F900 X90.412 Y112.668
G1 F600 X100.264 Y102.816 E44.94204
G0 F900 X100.264 Y103.381
G1 F600 X90.978 Y112.668 E45.37885
G0 F900 X91.544 Y112.668
G1 F600 X100.264 Y103.947 E45.78903
G0 F900 X100.264 Y104.513
G1 F600 X92.109 Y112.668 E46.17262
G0 F900 X92.675 Y112.668
G1 F600 X100.264 Y105.078 E46.52961
G0 F900 X100.264 Y105.644
G1 F600 X93.241 Y112.668 E46.85997
G0 F900 X93.806 Y112.668
G1 F600 X100.264 Y106.21 E47.16374
G0 F900 X100.264 Y106.775
G1 F600 X94.372 Y112.668 E47.4409
G0 F900 X94.938 Y112.668
G1 F600 X100.264 Y107.341 E47.69144
G0 F900 X100.264 Y107.907
G1 F600 X95.503 Y112.668 E47.91539
G0 F900 X96.069 Y112.668
G1 F600 X100.264 Y108.473 E48.11271
G0 F900 X100.264 Y109.038
G1 F600 X96.635 Y112.668 E48.28343
G0 F900 X97.201 Y112.668
G1 F600 X100.264 Y109.604 E48.42752
G0 F900 X100.264 Y110.17
G1 F600 X97.766 Y112.668 E48.54502
G0 F900 X98.332 Y112.668
G1 F600 X100.264 Y110.735 E48.63592
G0 F900 X100.264 Y111.301
G1 F600 X98.898 Y112.668 E48.7002
G0 F900 X99.463 Y112.668
G1 F600 X100.264 Y111.867 E48.73787
G0 F900 X100.264 Y112.432
G1 F600 X100.029 Y112.668 E48.74895
G0 F900 X100.029 Y112.649
G1 F2100 E47.94895
;MESH:NONMESH
G0 F600 X100.029 Y112.649 Z0.6
G0 F900 X100.576 Y99.719
G1 F2100 E48.74895
G0 F900 X100.846 Y99.449
;TIME_ELAPSED:173.881556
;LAYER:2
G1 F2100 E47.94895
;TYPE:WALL-INNER
;MESH:Tensile_Test_Object.3mf
G1 F2100 E48.74895
G1 F1200 X87.046 Y99.449 E49.20794
G1 X87.046 Y113.249 E49.66693
G1 X100.846 Y113.249 E50.12592
G1 X100.846 Y99.449 E50.58491
G0 X101.246 Y99.049
;TYPE:WALL-OUTER
G1 F600 X86.646 Y99.049 E51.07051
G1 X86.646 Y113.649 E51.55611
G1 X101.246 Y113.649 E52.0417
G1 X101.246 Y99.049 E52.5273
G0 F1200 X101.046 Y99.049
G0 X100.576 Y99.719
G0 X87.426 Y99.829
;TYPE:SKIN
G1 F600 X87.426 Y112.869 E52.96101
G1 X100.466 Y112.869 E53.39473
G1 X100.466 Y99.829 E53.82844
G1 X87.426 Y99.829 E54.26215
G0 F1200 X100.265 Y100.265
G1 F600 X100.028 Y100.028 E54.2733
G0 F1200 X99.463 Y100.028
G1 F600 X100.265 Y100.831 E54.31105
G0 F1200 X100.265 Y101.396
G1 F600 X98.897 Y100.028 E54.37539
G0 F1200 X98.331 Y100.028
G1 F600 X100.265 Y101.962 E54.46636
G0 F1200 X100.265 Y102.528
G1 F600 X97.765 Y100.028 E54.58395
G0 F1200 X97.2 Y100.028
G1 F600 X100.265 Y103.094 E54.72815
G0 F1200 X100.265 Y103.659
G1 F600 X96.634 Y100.028 E54.89894
G0 F1200 X96.068 Y100.028
G1 F600 X100.265 Y104.225 E55.09635
G0 F1200 X100.265 Y104.791
G1 F600 X95.503 Y100.028 E55.32036
G0 F1200 X94.937 Y100.028
G1 F600 X100.265 Y105.356 E55.57098
G0 F1200 X100.265 Y105.922
G1 F600 X94.371 Y100.028 E55.84821
G0 F1200 X93.806 Y100.028
G1 F600 X100.265 Y106.488 E56.15205
G0 F1200 X100.265 Y107.053
G1 F600 X93.24 Y100.028 E56.48248
G0 F1200 X92.674 Y100.028
G1 F600 X100.265 Y107.619 E56.83954
G0 F1200 X100.265 Y108.185
G1 F600 X92.109 Y100.028 E57.2232
G0 F1200 X91.543 Y100.028
G1 F600 X100.265 Y108.75 E57.63345
G0 F1200 X100.265 Y109.316
G1 F600 X90.977 Y100.028 E58.07033
G0 F1200 X90.412 Y100.028
G1 F600 X100.265 Y109.882 E58.53381
G0 F1200 X100.265 Y110.447
G1 F600 X89.846 Y100.028 E59.02389
G0 F1200 X89.28 Y100.028
G1 F600 X100.265 Y111.013 E59.54059
G0 F1200 X100.265 Y111.579
G1 F600 X88.715 Y100.028 E60.08389
G0 F1200 X88.149 Y100.028
G1 F600 X100.265 Y112.145 E60.65381
G0 F1200 X100.223 Y112.668
G1 F600 X87.625 Y100.07 E61.24638
G0 F1200 X87.625 Y100.636
G1 F600 X99.657 Y112.668 E61.81233
G0 F1200 X99.091 Y112.668
G1 F600 X87.625 Y101.201 E62.35168
G0 F1200 X87.625 Y101.767
G1 F600 X98.526 Y112.668 E62.86443
G0 F1200 X97.96 Y112.668
G1 F600 X87.625 Y102.333 E63.35056
G0 F1200 X87.625 Y102.898
G1 F600 X97.394 Y112.668 E63.81008
G0 F1200 X96.829 Y112.668
G1 F600 X87.625 Y103.464 E64.24301
G0 F1200 X87.625 Y104.03
G1 F600 X96.263 Y112.668 E64.64932
G0 F1200 X95.697 Y112.668
G1 F600 X87.625 Y104.595 E65.02902
G0 F1200 X87.625 Y105.161
G1 F600 X95.132 Y112.668 E65.38213
G0 F1200 X94.566 Y112.668
G1 F600 X87.625 Y105.727 E65.70861
G0 F1200 X87.625 Y106.292
G1 F600 X94 Y112.668 E66.0085
G0 F1200 X93.434 Y112.668
