
;FLAVOR:Marlin
;TIME:3096
;Filament used: 2.54102m
;Layer height: 0.15
;MINX:96.4
;MINY:76.4
;MINZ:0.2
;MAXX:153.6
;MAXY:133.6
;MAXZ:5
;Generated with Cura_SteamEngine 5.3.1
M82 ;absolute extrusion mode
G21 ; set units to millimeters
G90 ; use absolute positioning
M82 ; absolute extrusion mode
M104 S200 ; set extruder temp
M140 S60 ; set bed temp
M190 S60 ; wait for bed temp
M109 S200 ; wait for extruder temp
G28 W ; home all without mesh bed level
G80 ; mesh bed leveling
G92 E0.0 ; reset extruder distance position
G1 Y-3.0 F1000.0 ; go outside print area
G1 X60.0 E9.0 F1000.0 ; intro line
G1 X100.0 E21.5 F1000.0 ; intro line
G92 E0.0 ; reset extruder distance position
G92 E0
G92 E0
G1 F2100 E-0.8
;LAYER_COUNT:33
;LAYER:0
M107
G0 F3600 X100.881 Y83.526 Z0.2
;TYPE:SKIRT
G1 F2100 E0
G1 F1800 X101.661 Y82.646 E0.03911
G1 X102.19 Y82.099 E0.06442
G1 X102.646 Y81.661 E0.08545
G1 X103.611 Y80.813 E0.12818
G1 X104.641 Y80.051 E0.17079
G1 X105.076 Y79.753 E0.18833
G1 X105.633 Y79.41 E0.21009
G1 X106.832 Y78.744 E0.2557
G1 X107.8 Y78.307 E0.29103
G1 X108.676 Y77.955 E0.32243
G1 X109.727 Y77.585 E0.35949
G1 X110.422 Y77.396 E0.38344
G1 X111.621 Y77.136 E0.42425
G1 X112.509 Y76.983 E0.45422
G1 X113.023 Y76.914 E0.47147
G1 X113.617 Y76.864 E0.4913
G1 X115.073 Y76.805 E0.53976
G1 X134.494 Y76.8 E1.18571
G1 X135.12 Y76.809 E1.20653
G1 X136.556 Y76.873 E1.25434
G1 X138.116 Y77.075 E1.30666
G1 X139.605 Y77.397 E1.35733
G1 X140.338 Y77.611 E1.38272
G1 X141.323 Y77.955 E1.41743
G1 X142.077 Y78.255 E1.44442
G1 X143.23 Y78.774 E1.48647
G1 X144.373 Y79.413 E1.53002
G1 X144.806 Y79.676 E1.54688
G1 X145.341 Y80.038 E1.56836
G1 X146.474 Y80.881 E1.61533
G1 X147.354 Y81.661 E1.65444
G1 X147.901 Y82.19 E1.67975
G1 X148.339 Y82.646 E1.70078
G1 X149.187 Y83.611 E1.74351
G1 X149.949 Y84.641 E1.78612
G1 X150.247 Y85.076 E1.80366
G1 X150.59 Y85.633 E1.82542
G1 X151.256 Y86.832 E1.87103
G1 X151.693 Y87.8 E1.90636
G1 X152.045 Y88.676 E1.93776
G1 X152.415 Y89.727 E1.97482
G1 X152.604 Y90.422 E1.99877
G1 X152.864 Y91.621 E2.03958
G1 X153.055 Y92.731 E2.07704
G1 X153.125 Y93.451 E2.1011
G1 X153.195 Y95.101 E2.15603
G1 X153.2 Y114.495 E2.80108
G1 X153.191 Y115.119 E2.82183
G1 X153.127 Y116.556 E2.86968
G1 X152.925 Y118.116 E2.92199
G1 X152.59 Y119.669 E2.97484
G1 X152.338 Y120.494 E3.00353
G1 X152.045 Y121.323 E3.03277
G1 X151.745 Y122.077 E3.05976
G1 X151.226 Y123.23 E3.10182
G1 X150.587 Y124.373 E3.14537
G1 X150.324 Y124.806 E3.16222
G1 X149.962 Y125.341 E3.1837
G1 X149.119 Y126.474 E3.23068
G1 X148.339 Y127.354 E3.26979
G1 X147.81 Y127.901 E3.2951
G1 X147.354 Y128.339 E3.31613
G1 X146.389 Y129.187 E3.35885
G1 X145.359 Y129.949 E3.40147
G1 X144.924 Y130.247 E3.419
G1 X144.367 Y130.59 E3.44076
G1 X143.168 Y131.256 E3.48638
G1 X142.2 Y131.693 E3.5217
G1 X141.324 Y132.045 E3.5531
G1 X140.273 Y132.415 E3.59016
G1 X139.578 Y132.604 E3.61412
G1 X138.379 Y132.864 E3.65492
G1 X137.491 Y133.017 E3.68489
G1 X136.977 Y133.086 E3.70214
G1 X136.383 Y133.136 E3.72197
G1 X134.927 Y133.195 E3.77044
G1 X115.506 Y133.2 E4.41638
G1 X114.881 Y133.191 E4.43717
G1 X113.444 Y133.127 E4.48501
G1 X111.884 Y132.925 E4.53733
G1 X110.395 Y132.603 E4.588
G1 X109.662 Y132.389 E4.6134
G1 X108.677 Y132.045 E4.6481
G1 X107.794 Y131.69 E4.67975
G1 X106.764 Y131.223 E4.71737
G1 X105.627 Y130.587 E4.7607
G1 X105.194 Y130.324 E4.77755
G1 X104.658 Y129.962 E4.79906
G1 X103.538 Y129.128 E4.84551
G1 X102.646 Y128.339 E4.88512
G1 X102.098 Y127.809 E4.91047
G1 X101.661 Y127.354 E4.93146
G1 X100.804 Y126.379 E4.97463
G1 X99.895 Y125.146 E5.02558
G1 X99.493 Y124.508 E5.05066
G1 X98.746 Y123.173 E5.10154
G1 X98.307 Y122.2 E5.13705
G1 X97.955 Y121.324 E5.16845
G1 X97.583 Y120.266 E5.20575
G1 X97.359 Y119.427 E5.23463
G1 X97.161 Y118.512 E5.26577
G1 X96.983 Y117.488 E5.30034
G1 X96.914 Y116.977 E5.31749
G1 X96.864 Y116.384 E5.33728
G1 X96.805 Y114.929 E5.38571
G1 X96.8 Y95.506 E6.03172
G1 X96.809 Y94.881 E6.05251
G1 X96.873 Y93.444 E6.10036
G1 X97.075 Y91.884 E6.15267
G1 X97.41 Y90.331 E6.20552
G1 X97.662 Y89.506 E6.23421
G1 X97.955 Y88.677 E6.26345
G1 X98.255 Y87.923 E6.29044
G1 X98.774 Y86.77 E6.3325
G1 X99.413 Y85.627 E6.37605
G1 X99.676 Y85.194 E6.3929
G1 X100.038 Y84.659 E6.41439
G1 X100.881 Y83.526 E6.46136
G0 F3600 X100.56 Y83.287
G1 F1800 X101.373 Y82.368 E6.50217
G1 X101.913 Y81.811 E6.52797
G1 X102.382 Y81.361 E6.54959
G1 X103.373 Y80.491 E6.59345
G1 X104.415 Y79.721 E6.63654
G1 X104.866 Y79.412 E6.65472
G1 X105.439 Y79.06 E6.67709
G1 X106.667 Y78.379 E6.72379
G1 X107.635 Y77.942 E6.75912
G1 X108.543 Y77.578 E6.79165
G1 X109.622 Y77.199 E6.82969
G1 X110.337 Y77.005 E6.85433
G1 X111.553 Y76.742 E6.89571
G1 X112.456 Y76.587 E6.92619
G1 X112.989 Y76.515 E6.94407
G1 X113.601 Y76.464 E6.9645
G1 X115.073 Y76.405 E7.0135
G1 X134.5 Y76.4 E7.65964
G1 X135.138 Y76.409 E7.68086
G1 X136.574 Y76.473 E7.72867
G1 X138.167 Y76.678 E7.78209
G1 X139.69 Y77.006 E7.83391
G1 X140.47 Y77.233 E7.86093
G1 X141.471 Y77.583 E7.8962
G1 X142.241 Y77.89 E7.92377
G1 X143.394 Y78.409 E7.96583
G1 X144.581 Y79.071 E8.01103
G1 X145.014 Y79.334 E8.02788
G1 X145.58 Y79.717 E8.05061
G1 X146.713 Y80.56 E8.09758
G1 X147.632 Y81.373 E8.13839
G1 X148.189 Y81.913 E8.16419
G1 X148.639 Y82.382 E8.18581
G1 X149.509 Y83.373 E8.22967
G1 X150.279 Y84.415 E8.27276
G1 X150.588 Y84.866 E8.29095
G1 X150.94 Y85.439 E8.31332
G1 X151.621 Y86.667 E8.36002
G1 X152.058 Y87.635 E8.39534
G1 X152.422 Y88.543 E8.42788
G1 X152.801 Y89.622 E8.46592
G1 X152.995 Y90.337 E8.49056
G1 X153.258 Y91.553 E8.53194
G1 X153.453 Y92.692 E8.57037
G1 X153.525 Y93.434 E8.59517
G1 X153.595 Y95.101 E8.65066
G1 X153.6 Y114.501 E9.29591
G1 X153.591 Y115.137 E9.31706
G1 X153.527 Y116.574 E9.3649
G1 X153.322 Y118.167 E9.41832
G1 X152.973 Y119.786 E9.47341
G1 X152.721 Y120.611 E9.5021
G1 X152.417 Y121.471 E9.53244
G1 X152.11 Y122.241 E9.56001
G1 X151.591 Y123.394 E9.60206
G1 X150.929 Y124.581 E9.64727
G1 X150.666 Y125.014 E9.66412
G1 X150.283 Y125.58 E9.68685
G1 X149.44 Y126.713 E9.73382
G1 X148.627 Y127.632 E9.77463
G1 X148.087 Y128.189 E9.80043
G1 X147.618 Y128.639 E9.82205
G1 X146.627 Y129.509 E9.86591
G1 X145.585 Y130.279 E9.909
G1 X145.134 Y130.588 E9.92719
G1 X144.561 Y130.94 E9.94955
G1 X143.333 Y131.621 E9.99626
G1 X142.365 Y132.058 E10.03158
G1 X141.457 Y132.422 E10.06412
G1 X140.378 Y132.801 E10.10216
G1 X139.663 Y132.995 E10.1268
G1 X138.447 Y133.258 E10.16818
G1 X137.544 Y133.413 E10.19865
G1 X137.011 Y133.485 E10.21654
G1 X136.399 Y133.536 E10.23696
G1 X134.943 Y133.595 E10.28543
G1 X115.5 Y133.6 E10.93211
G1 X114.863 Y133.591 E10.9533
G1 X113.426 Y133.527 E11.00114
G1 X111.833 Y133.322 E11.05456
G1 X110.31 Y132.994 E11.10638
G1 X109.53 Y132.767 E11.13339
G1 X108.528 Y132.416 E11.16871
G1 X107.629 Y132.054 E11.20094
G1 X106.569 Y131.572 E11.23967
G1 X105.419 Y130.929 E11.28349
G1 X104.986 Y130.666 E11.30034
G1 X104.419 Y130.283 E11.3231
G1 X103.273 Y129.428 E11.37066
G1 X102.368 Y128.627 E11.41085
G1 X101.81 Y128.086 E11.4367
G1 X101.361 Y127.618 E11.45827
G1 X100.482 Y126.616 E11.50261
G1 X99.573 Y125.383 E11.55356
G1 X99.144 Y124.703 E11.5803
G1 X98.381 Y123.338 E11.63231
G1 X97.942 Y122.365 E11.66781
G1 X97.578 Y121.457 E11.70035
G1 X97.206 Y120.399 E11.73765
G1 X96.968 Y119.512 E11.7682
G1 X96.767 Y118.581 E11.79987
G1 X96.587 Y117.542 E11.83495
G1 X96.515 Y117.011 E11.85277
G1 X96.464 Y116.4 E11.87316
G1 X96.405 Y114.929 E11.92213
G1 X96.4 Y95.5 E12.56834
G1 X96.409 Y94.863 E12.58953
G1 X96.473 Y93.426 E12.63737
G1 X96.678 Y91.833 E12.69079
G1 X97.027 Y90.214 E12.74587
G1 X97.279 Y89.389 E12.77457
G1 X97.583 Y88.529 E12.8049
G1 X97.89 Y87.759 E12.83247
G1 X98.409 Y86.606 E12.87453
G1 X99.071 Y85.419 E12.91973
G1 X99.334 Y84.986 E12.93658
G1 X99.717 Y84.42 E12.95931
G1 X100.56 Y83.287 E13.00628
G1 F2100 E12.20628
;MESH:SquareRounded_50mm.stl
G0 F3600 X102.039 Y86.202
G0 X102.924 Y86.828
G0 X135.603 Y129.086
G0 X135.609 Y129.386
;TYPE:WALL-INNER
G1 F2100 E13.00628
G1 F1800 X136.219 Y129.348 E13.02661
G1 X136.779 Y129.288 E13.04534
G1 X137.431 Y129.193 E13.06726
G1 X138.032 Y129.076 E13.08762
G1 X138.632 Y128.934 E13.10813
G1 X139.246 Y128.761 E13.12935
G1 X139.798 Y128.576 E13.14871
G1 X140.371 Y128.361 E13.16907
G1 X140.93 Y128.121 E13.1893
G1 X141.485 Y127.856 E13.20976
G1 X142.024 Y127.57 E13.23005
G1 X142.551 Y127.26 E13.25039
G1 X143.061 Y126.931 E13.27057
G1 X143.564 Y126.575 E13.29107
G1 X144.049 Y126.201 E13.31144
G1 X144.512 Y125.81 E13.33159
G1 X144.962 Y125.396 E13.35193
G1 X145.397 Y124.961 E13.37239
G1 X145.812 Y124.511 E13.39275
G1 X146.205 Y124.045 E13.41303
G1 X146.577 Y123.562 E13.43331
G1 X146.931 Y123.061 E13.45371
G1 X147.262 Y122.549 E13.47399
G1 X147.571 Y122.02 E13.49436
G1 X147.858 Y121.481 E13.51467
G1 X148.121 Y120.93 E13.53498
G1 X148.363 Y120.366 E13.55539
G1 X148.577 Y119.795 E13.57567
G1 X148.758 Y119.246 E13.5949
G1 X148.934 Y118.631 E13.61618
G1 X149.076 Y118.032 E13.63665
G1 X149.205 Y117.37 E13.65908
G1 X149.282 Y116.827 E13.67733
G1 X149.349 Y116.206 E13.6981
G1 X149.386 Y115.61 E13.71796
G1 X149.4 Y114.992 E13.73852
G1 X149.4 Y95.145 E14.39864
G1 X149.386 Y94.387 E14.42385
G1 X149.348 Y93.777 E14.44418
G1 X149.288 Y93.221 E14.46278
G1 X149.193 Y92.565 E14.48482
G1 X149.076 Y91.966 E14.50512
G1 X148.934 Y91.368 E14.52557
G1 X148.761 Y90.754 E14.54678
G1 X148.576 Y90.202 E14.56615
G1 X148.361 Y89.629 E14.5865
G1 X148.121 Y89.068 E14.6068
G1 X147.856 Y88.515 E14.62719
G1 X147.57 Y87.976 E14.64749
G1 X147.26 Y87.449 E14.66782
G1 X146.929 Y86.935 E14.68816
G1 X146.575 Y86.437 E14.70848
G1 X146.201 Y85.951 E14.72888
G1 X145.81 Y85.488 E14.74903
G1 X145.396 Y85.038 E14.76937
G1 X144.961 Y84.603 E14.78983
G1 X144.511 Y84.189 E14.81017
G1 X144.049 Y83.799 E14.83028
G1 X143.562 Y83.423 E14.85074
G1 X143.061 Y83.069 E14.87114
G1 X142.551 Y82.74 E14.89133
G1 X142.02 Y82.429 E14.9118
G1 X141.481 Y82.142 E14.93211
G1 X140.93 Y81.879 E14.95241
G1 X140.371 Y81.639 E14.97265
G1 X139.799 Y81.425 E14.99296
G1 X139.246 Y81.242 E15.01233
G1 X138.631 Y81.066 E15.03361
G1 X138.032 Y80.924 E15.05409
G1 X137.37 Y80.795 E15.07652
G1 X136.827 Y80.718 E15.09476
G1 X136.206 Y80.651 E15.11553
G1 X135.61 Y80.614 E15.13539
G1 X134.992 Y80.6 E15.15595
G1 X115.008 Y80.6 E15.82062
G1 X114.391 Y80.614 E15.84115
G1 X113.781 Y80.652 E15.86148
G1 X113.221 Y80.712 E15.88021
G1 X112.569 Y80.807 E15.90213
G1 X111.968 Y80.924 E15.92249
G1 X111.368 Y81.066 E15.943
G1 X110.754 Y81.239 E15.96422
G1 X110.202 Y81.424 E15.98358
G1 X109.629 Y81.639 E16.00393
G1 X109.07 Y81.879 E16.02417
G1 X108.515 Y82.144 E16.04462
G1 X107.976 Y82.43 E16.06492
G1 X107.449 Y82.74 E16.08525
G1 X106.939 Y83.069 E16.10544
G1 X106.436 Y83.425 E16.12594
G1 X105.951 Y83.799 E16.14631
G1 X105.488 Y84.19 E16.16646
G1 X105.038 Y84.604 E16.1868
G1 X104.603 Y85.039 E16.20726
G1 X104.188 Y85.489 E16.22762
G1 X103.795 Y85.955 E16.2479
G1 X103.423 Y86.438 E16.26817
G1 X103.069 Y86.939 E16.28858
G1 X102.738 Y87.451 E16.30885
G1 X102.429 Y87.98 E16.32923
G1 X102.142 Y88.519 E16.34954
G1 X101.879 Y89.07 E16.36985
G1 X101.637 Y89.634 E16.39026
G1 X101.423 Y90.205 E16.41054
G1 X101.242 Y90.754 E16.42977
G1 X101.066 Y91.369 E16.45104
G1 X100.924 Y91.968 E16.47152
G1 X100.795 Y92.63 E16.49395
G1 X100.718 Y93.173 E16.51219
G1 X100.651 Y93.794 E16.53297
G1 X100.614 Y94.39 E16.55283
G1 X100.6 Y95.008 E16.57339
G1 X100.6 Y114.992 E17.23806
G1 X100.614 Y115.609 E17.25859
G1 X100.652 Y116.219 E17.27891
G1 X100.712 Y116.779 E17.29765
G1 X100.807 Y117.431 E17.31956
G1 X100.924 Y118.032 E17.33993
G1 X101.066 Y118.632 E17.36043
G1 X101.239 Y119.246 E17.38165
G1 X101.422 Y119.794 E17.40087
G1 X101.637 Y120.367 E17.42122
G1 X101.879 Y120.93 E17.4416
G1 X102.142 Y121.481 E17.46191
G1 X102.429 Y122.02 E17.48222
G1 X102.738 Y122.549 E17.5026
G1 X103.069 Y123.061 E17.52287
G1 X103.423 Y123.562 E17.54328
G1 X103.795 Y124.045 E17.56355
G1 X104.188 Y124.511 E17.58383
G1 X104.603 Y124.961 E17.60419
G1 X105.038 Y125.396 E17.62465
G1 X105.488 Y125.81 E17.64499
G1 X105.951 Y126.201 E17.66514
G1 X106.436 Y126.575 E17.68552
G1 X106.939 Y126.931 E17.70601
G1 X107.449 Y127.26 E17.7262
G1 X107.976 Y127.57 E17.74653
G1 X108.515 Y127.856 E17.76683
G1 X109.07 Y128.121 E17.78728
G1 X109.629 Y128.361 E17.80752
G1 X110.201 Y128.576 E17.82784
G1 X110.754 Y128.758 E17.8472
G1 X111.369 Y128.934 E17.86848
G1 X111.968 Y129.076 E17.88896
G1 X112.63 Y129.205 E17.91139
G1 X113.173 Y129.282 E17.92963
G1 X113.794 Y129.349 E17.9504
G1 X114.39 Y129.386 E17.97026
G1 X115.008 Y129.4 E17.99082
G1 X134.992 Y129.4 E18.65549
G1 X135.609 Y129.386 E18.67602
G0 F3600 X135.626 Y129.786
;TYPE:WALL-OUTER
G1 F1800 X136.253 Y129.746 E18.69692
G1 X136.829 Y129.685 E18.71618
G1 X137.498 Y129.587 E18.73867
G1 X138.116 Y129.467 E18.75961
G1 X138.732 Y129.321 E18.78067
G1 X139.364 Y129.143 E18.8025
G1 X139.932 Y128.953 E18.82243
G1 X140.52 Y128.732 E18.84332
G1 X141.095 Y128.485 E18.86413
G1 X141.665 Y128.213 E18.88514
G1 X142.219 Y127.919 E18.906
G1 X142.761 Y127.601 E18.9269
G1 X143.285 Y127.263 E18.94764
G1 X143.802 Y126.897 E18.96871
G1 X144.3 Y126.513 E18.98962
G1 X144.777 Y126.11 E19.01039
G1 X145.239 Y125.684 E19.03129
G1 X145.685 Y125.238 E19.05227
G1 X146.112 Y124.776 E19.0732
G1 X146.517 Y124.296 E19.09408
G1 X146.899 Y123.8 E19.11491
G1 X147.263 Y123.285 E19.13588
G1 X147.603 Y122.759 E19.15671
G1 X147.921 Y122.215 E19.17767
G1 X148.215 Y121.661 E19.19853
G1 X148.485 Y121.095 E19.21939
G1 X148.734 Y120.516 E19.24035
G1 X148.955 Y119.928 E19.26125
G1 X149.14 Y119.364 E19.28099
G1 X149.321 Y118.732 E19.30285
G1 X149.467 Y118.116 E19.32391
G1 X149.599 Y117.436 E19.34695
G1 X149.679 Y116.877 E19.36573
G1 X149.748 Y116.24 E19.38704
G1 X149.786 Y115.626 E19.4075
G1 X149.8 Y114.996 E19.42846
G1 X149.8 Y95.145 E20.08871
G1 X149.786 Y94.37 E20.11449
G1 X149.746 Y93.743 E20.13538
G1 X149.685 Y93.171 E20.15452
G1 X149.587 Y92.498 E20.17714
G1 X149.467 Y91.882 E20.19801
G1 X149.321 Y91.268 E20.219
G1 X149.143 Y90.636 E20.24084
G1 X148.953 Y90.068 E20.26076
G1 X148.732 Y89.48 E20.28165
G1 X148.485 Y88.903 E20.30253
G1 X148.213 Y88.335 E20.32348
G1 X147.919 Y87.781 E20.34434
G1 X147.601 Y87.239 E20.36524
G1 X147.261 Y86.711 E20.38612
G1 X146.897 Y86.199 E20.40702
G1 X146.513 Y85.7 E20.42796
G1 X146.11 Y85.223 E20.44873
G1 X145.684 Y84.761 E20.46963
G1 X145.238 Y84.315 E20.49061
G1 X144.776 Y83.889 E20.51151
G1 X144.3 Y83.487 E20.53223
G1 X143.8 Y83.101 E20.55324
G1 X143.285 Y82.737 E20.57422
G1 X142.761 Y82.399 E20.59496
G1 X142.215 Y82.079 E20.61601
G1 X141.661 Y81.785 E20.63687
G1 X141.095 Y81.515 E20.65772
G1 X140.52 Y81.268 E20.67854
G1 X139.932 Y81.047 E20.69943
G1 X139.364 Y80.86 E20.71932
G1 X138.732 Y80.679 E20.74119
G1 X138.116 Y80.533 E20.76224
G1 X137.436 Y80.401 E20.78528
G1 X136.877 Y80.321 E20.80406
G1 X136.24 Y80.252 E20.82537
G1 X135.626 Y80.214 E20.84583
G1 X134.996 Y80.2 E20.86679
G1 X115.004 Y80.2 E21.53173
G1 X114.374 Y80.214 E21.55269
G1 X113.747 Y80.254 E21.57358
G1 X113.171 Y80.315 E21.59285
G1 X112.502 Y80.413 E21.61534
G1 X111.884 Y80.533 E21.63628
G1 X111.268 Y80.679 E21.65733
G1 X110.636 Y80.857 E21.67917
G1 X110.068 Y81.047 E21.69909
G1 X109.48 Y81.268 E21.71998
G1 X108.905 Y81.515 E21.7408
G1 X108.335 Y81.787 E21.76181
G1 X107.781 Y82.081 E21.78267
G1 X107.239 Y82.399 E21.80357
G1 X106.715 Y82.737 E21.82431
G1 X106.198 Y83.103 E21.84537
G1 X105.7 Y83.487 E21.86629
G1 X105.223 Y83.89 E21.88706
G1 X104.761 Y84.316 E21.90796
G1 X104.315 Y84.762 E21.92894
G1 X103.888 Y85.224 E21.94986
G1 X103.483 Y85.704 E21.97075
G1 X103.101 Y86.2 E21.99157
G1 X102.737 Y86.715 E22.01255
